;FLAVOR:Marlin
;TIME:6672
;Filament used: 3.75979m
;Layer height: 0.2
;MINX:37.94
;MINY:55.623
;MINZ:0.2
;MAXX:104.799
;MAXY:94.378
;MAXZ:48
;TARGET_MACHINE.NAME:Creality Ender-2
;Generated with Cura_SteamEngine 5.11.0
M140 S50
M105
M190 S50
M104 S200
M105
M109 S200
M201 X500.00 Y500.00 Z100.00 E5000.00 ;Setup machine max acceleration
M203 X500.00 Y500.00 Z10.00 E50.00 ;Setup machine max feedrate
M204 P500.00 R1000.00 T500.00 ;Setup Print/Retract/Travel acceleration
M205 X8.00 Y8.00 Z0.40 E5.00 ;Setup Jerk
M220 S100 ;Reset Feedrate
M221 S100 ;Reset Flowrate

G28 ;Home

G92 E0 ;Reset Extruder
G1 Z2.0 F3000 ;Move Z Axis up
G1 X10.1 Y20 Z0.28 F5000.0 ;Move to start position
G1 X10.1 Y100.0 Z0.28 F1500.0 E8 ;Draw the first line
G1 X10.4 Y100.0 Z0.28 F5000.0 ;Move to side a little
G1 X10.4 Y20 Z0.28 F1500.0 E15 ;Draw the second line
G92 E0 ;Reset Extruder
G1 Z2.0 F3000 ;Move Z Axis up

M82 ;absolute extrusion mode
G92 E0
G92 E0
G1 F2700 E-5
;LAYER_COUNT:240
;LAYER:0
M107
G0 F6000 X43.279 Y59.52 Z0.2
;TYPE:SKIRT
G1 F2700 E0
G1 F1200 X44.096 Y58.974 E0.03268
G1 X45.117 Y58.428 E0.07119
G1 X45.786 Y58.132 E0.09552
G1 X46.104 Y58.005 E0.10691
G1 X47.022 Y57.684 E0.13926
G1 X47.868 Y57.465 E0.16832
G1 X48.525 Y57.331 E0.19063
G1 X49.359 Y57.216 E0.21863
G1 X49.88 Y57.168 E0.23603
G1 X72.94 Y55.695 E1.00457
G1 X74.201 Y55.637 E1.04656
G1 X74.799 Y55.623 E1.06645
G1 X75.592 Y55.63 E1.09283
G1 X76.888 Y55.694 E1.13599
G1 X77.308 Y55.725 E1.14999
G1 X78.11 Y55.806 E1.1768
G1 X78.935 Y55.914 E1.20448
G1 X79.626 Y56.023 E1.22774
G1 X80.743 Y56.244 E1.26562
G1 X81.511 Y56.423 E1.29184
G1 X82.571 Y56.716 E1.32842
G1 X83.102 Y56.879 E1.3469
G1 X84.024 Y57.194 E1.3793
G1 X84.487 Y57.364 E1.39571
G1 X85.195 Y57.65 E1.4211
G1 X86.121 Y58.06 E1.45479
G1 X87.008 Y58.486 E1.48751
G1 X87.784 Y58.891 E1.51663
G1 X88.287 Y59.181 E1.53594
G1 X89.312 Y59.805 E1.57585
G1 X89.846 Y60.15 E1.597
G1 X90.25 Y60.428 E1.61331
G1 X90.974 Y60.963 E1.64325
G1 X91.867 Y61.665 E1.68103
G1 X92.386 Y62.094 E1.70343
G1 X92.737 Y62.403 E1.71898
G1 X93.243 Y62.879 E1.74208
G1 X93.905 Y63.53 E1.77297
G1 X94.424 Y64.065 E1.79776
G1 X94.747 Y64.419 E1.8137
G1 X95.165 Y64.898 E1.83484
G1 X95.513 Y65.318 E1.85298
G1 X96.07 Y66.029 E1.88302
G1 X96.678 Y66.854 E1.91711
G1 X97.137 Y67.523 E1.94409
G1 X97.53 Y68.135 E1.96828
G1 X97.998 Y68.928 E1.99891
G1 X98.44 Y69.783 E2.03092
G1 X98.683 Y70.353 E2.05153
G1 X98.891 Y70.895 E2.07084
G1 X99.184 Y71.822 E2.10318
G1 X99.396 Y72.765 E2.13532
G1 X99.512 Y73.546 E2.16158
G1 X99.588 Y74.446 E2.19162
G1 X99.57 Y75.703 E2.23344
G1 X99.541 Y76.088 E2.24628
G1 X99.427 Y77.055 E2.27866
G1 X99.23 Y77.997 E2.31067
G1 X99.058 Y78.598 E2.33146
G1 X98.754 Y79.463 E2.36196
G1 X98.39 Y80.324 E2.39305
G1 X98.045 Y80.993 E2.41809
G1 X97.753 Y81.487 E2.43717
G1 X97.27 Y82.261 E2.46752
G1 X96.776 Y83.002 E2.49714
G1 X96.092 Y83.949 E2.53599
G1 X95.716 Y84.437 E2.55648
G1 X95.398 Y84.822 E2.57309
G1 X94.84 Y85.467 E2.60146
G1 X94.133 Y86.231 E2.63608
G1 X93.155 Y87.205 E2.68199
G1 X92.799 Y87.54 E2.69825
G1 X92.37 Y87.913 E2.71715
G1 X91.212 Y88.86 E2.76691
G1 X90.639 Y89.29 E2.79073
G1 X90.108 Y89.67 E2.81245
G1 X89.657 Y89.976 E2.83058
G1 X88.783 Y90.524 E2.86489
G1 X88.421 Y90.738 E2.87888
G1 X87.344 Y91.341 E2.91993
G1 X86.629 Y91.707 E2.94665
G1 X86.036 Y91.988 E2.96847
G1 X85.044 Y92.415 E3.00439
G1 X84.515 Y92.623 E3.0233
G1 X83.2 Y93.089 E3.0697
G1 X82.149 Y93.4 E3.10616
G1 X81.066 Y93.677 E3.14334
G1 X80.444 Y93.815 E3.16453
G1 X79.401 Y94.007 E3.1998
G1 X78.98 Y94.074 E3.21398
G1 X77.734 Y94.237 E3.25577
G1 X76.778 Y94.322 E3.2877
G1 X75.438 Y94.37 E3.33229
G1 X74.757 Y94.378 E3.35494
G1 X74.262 Y94.367 E3.37141
G1 X72.641 Y94.288 E3.42539
G1 X50.421 Y92.874 E4.16593
G1 X49.881 Y92.831 E4.18394
G1 X49.13 Y92.753 E4.20906
G1 X49.04 Y92.732 E4.21213
G1 X48.346 Y92.638 E4.23542
G1 X47.304 Y92.395 E4.27101
G1 X46.585 Y92.175 E4.29602
G1 X45.679 Y91.836 E4.32819
G1 X44.609 Y91.313 E4.36781
G1 X44.043 Y90.983 E4.3896
G1 X43.757 Y90.803 E4.40084
G1 X42.964 Y90.26 E4.4328
G1 X41.996 Y89.441 E4.47498
G1 X41.548 Y89.008 E4.4957
G1 X40.935 Y88.345 E4.52573
G1 X40.292 Y87.51 E4.56078
G1 X39.672 Y86.514 E4.5998
G1 X39.249 Y85.718 E4.62979
G1 X38.752 Y84.565 E4.67155
G1 X38.487 Y83.773 E4.69932
G1 X38.247 Y82.871 E4.73037
G1 X38.118 Y82.184 E4.75362
G1 X38.026 Y81.485 E4.77707
G1 X37.965 Y80.518 E4.80929
G1 X37.94 Y79.149 E4.85483
G1 X37.941 Y70.371 E5.14679
G1 X37.951 Y69.739 E5.16781
G1 X38.008 Y68.775 E5.19993
G1 X38.042 Y68.451 E5.21077
G1 X38.273 Y67.092 E5.25662
G1 X38.355 Y66.741 E5.2686
G1 X38.621 Y65.805 E5.30097
G1 X38.959 Y64.918 E5.33254
G1 X39.275 Y64.218 E5.35808
G1 X39.727 Y63.354 E5.39052
G1 X40.237 Y62.557 E5.42199
G1 X41.132 Y61.439 E5.46962
G1 X41.777 Y60.772 E5.50048
G1 X42.486 Y60.129 E5.53231
G1 X43.279 Y59.52 E5.56557
G0 F6000 X43.502 Y59.852
G1 F1200 X44.285 Y59.327 E5.59693
G1 X45.306 Y58.781 E5.63543
G1 X45.935 Y58.503 E5.65831
G1 X46.237 Y58.382 E5.66913
G1 X47.122 Y58.071 E5.70033
G1 X47.948 Y57.857 E5.72871
G1 X48.605 Y57.723 E5.75101
G1 X49.396 Y57.614 E5.77757
G1 X49.905 Y57.567 E5.79457
G1 X72.958 Y56.095 E6.56288
G1 X74.211 Y56.037 E6.6046
G1 X74.795 Y56.023 E6.62403
G1 X75.572 Y56.03 E6.64987
G1 X76.859 Y56.093 E6.69273
G1 X77.268 Y56.123 E6.70637
G1 X78.058 Y56.203 E6.73278
G1 X78.873 Y56.309 E6.76011
G1 X79.548 Y56.415 E6.78284
G1 X80.652 Y56.634 E6.82027
G1 X81.404 Y56.809 E6.84595
G1 X82.464 Y57.102 E6.88253
G1 X82.973 Y57.258 E6.90024
G1 X83.886 Y57.569 E6.93232
G1 X84.337 Y57.735 E6.9483
G1 X85.033 Y58.016 E6.97327
G1 X85.948 Y58.421 E7.00655
G1 X86.823 Y58.841 E7.03883
G1 X87.599 Y59.246 E7.06794
G1 X88.079 Y59.523 E7.08637
G1 X89.095 Y60.141 E7.12593
G1 X89.619 Y60.479 E7.14667
G1 X90.012 Y60.75 E7.16254
G1 X90.727 Y61.278 E7.19211
G1 X91.612 Y61.973 E7.22953
G1 X92.122 Y62.395 E7.25155
G1 X92.463 Y62.694 E7.26663
G1 X92.963 Y63.164 E7.28946
G1 X93.618 Y63.808 E7.32001
G1 X94.129 Y64.335 E7.34442
G1 X94.446 Y64.682 E7.36006
G1 X94.857 Y65.153 E7.38085
G1 X95.198 Y65.565 E7.39864
G1 X95.748 Y66.266 E7.42827
G1 X96.348 Y67.08 E7.4619
G1 X96.801 Y67.74 E7.48853
G1 X97.186 Y68.338 E7.51218
G1 X97.643 Y69.112 E7.54208
G1 X98.072 Y69.94 E7.5731
G1 X98.31 Y70.497 E7.59324
G1 X98.51 Y71.016 E7.61174
G1 X98.794 Y71.91 E7.64294
G1 X99 Y72.824 E7.6741
G1 X99.113 Y73.58 E7.69953
G1 X99.189 Y74.48 E7.72957
G1 X99.171 Y75.674 E7.76929
G1 X99.144 Y76.042 E7.78156
G1 X99.035 Y76.974 E7.81277
G1 X98.845 Y77.887 E7.84378
G1 X98.673 Y78.488 E7.86458
G1 X98.385 Y79.308 E7.89348
G1 X98.034 Y80.141 E7.92355
G1 X97.7 Y80.79 E7.94782
G1 X97.414 Y81.275 E7.96655
G1 X96.937 Y82.039 E7.99651
G1 X96.452 Y82.768 E8.02563
G1 X95.775 Y83.705 E8.06408
G1 X95.408 Y84.182 E8.0841
G1 X95.095 Y84.56 E8.10042
G1 X94.546 Y85.195 E8.12834
G1 X93.839 Y85.959 E8.16296
G1 X92.88 Y86.914 E8.20797
G1 X92.537 Y87.238 E8.22367
G1 X92.117 Y87.603 E8.24218
G1 X90.972 Y88.54 E8.29138
G1 X90.406 Y88.965 E8.31493
G1 X89.883 Y89.339 E8.33631
G1 X89.445 Y89.637 E8.35393
G1 X88.579 Y90.18 E8.38793
G1 X88.226 Y90.389 E8.40157
G1 X87.162 Y90.985 E8.44213
G1 X86.457 Y91.346 E8.46848
G1 X85.878 Y91.621 E8.4898
G1 X84.898 Y92.043 E8.52529
G1 X84.381 Y92.246 E8.54376
G1 X83.086 Y92.705 E8.58946
G1 X82.05 Y93.012 E8.6254
G1 X80.967 Y93.289 E8.66258
G1 X80.372 Y93.422 E8.68285
G1 X79.339 Y93.612 E8.71779
G1 X78.928 Y93.677 E8.73163
G1 X77.682 Y93.84 E8.77342
G1 X76.763 Y93.922 E8.80411
G1 X75.429 Y93.971 E8.84851
G1 X74.766 Y93.978 E8.87056
G1 X74.281 Y93.967 E8.8867
G1 X72.666 Y93.889 E8.94048
G1 X50.453 Y92.475 E9.68078
G1 X49.922 Y92.433 E9.69849
G1 X49.171 Y92.355 E9.72361
G1 X49.134 Y92.342 E9.72491
G1 X48.437 Y92.248 E9.7483
G1 X47.395 Y92.005 E9.78389
G1 X46.725 Y91.8 E9.8072
G1 X45.819 Y91.461 E9.83937
G1 X44.81 Y90.967 E9.87673
G1 X44.256 Y90.644 E9.89806
G1 X43.97 Y90.464 E9.9093
G1 X43.222 Y89.954 E9.93941
G1 X42.274 Y89.153 E9.98069
G1 X41.842 Y88.736 E10.00066
G1 X41.229 Y88.073 E10.0307
G1 X40.632 Y87.299 E10.06321
G1 X40.012 Y86.303 E10.10223
G1 X39.616 Y85.559 E10.13026
G1 X39.131 Y84.438 E10.17089
G1 X38.874 Y83.67 E10.19782
G1 X38.634 Y82.768 E10.22887
G1 X38.515 Y82.132 E10.25039
G1 X38.423 Y81.433 E10.27384
G1 X38.365 Y80.511 E10.30456
G1 X38.34 Y79.149 E10.34987
G1 X38.341 Y70.377 E10.64163
G1 X38.35 Y69.763 E10.66205
G1 X38.406 Y68.817 E10.69357
G1 X38.44 Y68.493 E10.70441
G1 X38.662 Y67.183 E10.7486
G1 X38.74 Y66.85 E10.75997
G1 X38.995 Y65.947 E10.79118
G1 X39.324 Y65.082 E10.82196
G1 X39.63 Y64.403 E10.84673
G1 X40.064 Y63.57 E10.87798
G1 X40.574 Y62.773 E10.90945
G1 X41.42 Y61.717 E10.95445
G1 X42.065 Y61.05 E10.98531
G1 X42.755 Y60.425 E11.01628
G1 X43.502 Y59.852 E11.04759
G0 F6000 X43.725 Y60.184
G1 F1200 X44.474 Y59.68 E11.07761
G1 X45.495 Y59.134 E11.11612
G1 X46.085 Y58.874 E11.13757
G1 X46.37 Y58.759 E11.14779
G1 X47.222 Y58.458 E11.17784
G1 X48.028 Y58.249 E11.20554
G1 X48.685 Y58.115 E11.22784
G1 X49.433 Y58.012 E11.25295
G1 X49.93 Y57.966 E11.26955
G1 X72.977 Y56.495 E12.03766
G1 X74.221 Y56.437 E12.07908
G1 X74.791 Y56.423 E12.09805
G1 X75.553 Y56.43 E12.12339
G1 X76.83 Y56.492 E12.16591
G1 X77.228 Y56.521 E12.17919
G1 X78.007 Y56.6 E12.20523
G1 X78.811 Y56.704 E12.23219
G1 X79.47 Y56.807 E12.25438
G1 X80.561 Y57.024 E12.29138
G1 X81.297 Y57.195 E12.31651
G1 X82.357 Y57.488 E12.35308
G1 X82.844 Y57.637 E12.37002
G1 X83.748 Y57.944 E12.40178
G1 X84.187 Y58.106 E12.41734
G1 X84.871 Y58.382 E12.44187
G1 X85.775 Y58.782 E12.47475
G1 X86.638 Y59.196 E12.50659
G1 X87.414 Y59.601 E12.5357
G1 X87.871 Y59.865 E12.55325
G1 X88.878 Y60.477 E12.59245
G1 X89.392 Y60.808 E12.61278
G1 X89.774 Y61.072 E12.62823
G1 X90.48 Y61.593 E12.65741
G1 X91.357 Y62.281 E12.69448
G1 X91.858 Y62.696 E12.71612
G1 X92.189 Y62.986 E12.73076
G1 X92.683 Y63.449 E12.75328
G1 X93.331 Y64.086 E12.7835
G1 X93.834 Y64.605 E12.80754
G1 X94.145 Y64.945 E12.82286
G1 X94.549 Y65.408 E12.8433
G1 X94.883 Y65.812 E12.86074
G1 X95.426 Y66.503 E12.88997
G1 X96.018 Y67.306 E12.92315
G1 X96.465 Y67.957 E12.94941
G1 X96.842 Y68.541 E12.97253
G1 X97.288 Y69.296 E13.0017
G1 X97.704 Y70.098 E13.03175
G1 X97.937 Y70.641 E13.0514
G1 X98.129 Y71.138 E13.06912
G1 X98.404 Y71.998 E13.09915
G1 X98.604 Y72.884 E13.12936
G1 X98.714 Y73.614 E13.15392
G1 X98.79 Y74.514 E13.18396
G1 X98.772 Y75.646 E13.22161
G1 X98.747 Y75.996 E13.23328
G1 X98.643 Y76.893 E13.26332
G1 X98.46 Y77.777 E13.29334
G1 X98.288 Y78.378 E13.31413
G1 X98.016 Y79.153 E13.34145
G1 X97.665 Y79.986 E13.37152
G1 X97.355 Y80.587 E13.39401
G1 X97.075 Y81.063 E13.41238
G1 X96.604 Y81.818 E13.44197
G1 X96.128 Y82.534 E13.47057
G1 X95.458 Y83.461 E13.50861
G1 X95.099 Y83.927 E13.52818
G1 X94.793 Y84.298 E13.54417
G1 X94.252 Y84.923 E13.57167
G1 X93.552 Y85.68 E13.60596
G1 X93.266 Y85.974 E13.6196
G1 X92.606 Y86.623 E13.65039
G1 X92.274 Y86.936 E13.66556
G1 X91.864 Y87.293 E13.68364
G1 X90.731 Y88.22 E13.73233
G1 X90.173 Y88.64 E13.75556
G1 X89.658 Y89.008 E13.77662
G1 X89.232 Y89.298 E13.79376
G1 X88.375 Y89.836 E13.82741
G1 X88.031 Y90.04 E13.84071
G1 X86.979 Y90.629 E13.88081
G1 X86.285 Y90.985 E13.90676
G1 X85.72 Y91.254 E13.92757
G1 X84.752 Y91.671 E13.96263
G1 X84.247 Y91.869 E13.98067
G1 X82.972 Y92.321 E14.02566
G1 X81.936 Y92.628 E14.0616
G1 X80.88 Y92.899 E14.09786
G1 X80.3 Y93.029 E14.11763
G1 X79.277 Y93.217 E14.15222
G1 X78.876 Y93.28 E14.16572
G1 X77.63 Y93.443 E14.20752
G1 X76.748 Y93.522 E14.23697
G1 X75.42 Y93.572 E14.28117
G1 X74.775 Y93.578 E14.30263
G1 X74.3 Y93.567 E14.31843
G1 X72.691 Y93.49 E14.37201
G1 X50.484 Y92.076 E15.11211
G1 X49.963 Y92.035 E15.12949
G1 X49.212 Y91.957 E15.1546
G1 X49.213 Y91.95 E15.15484
G1 X48.528 Y91.858 E15.17783
G1 X47.486 Y91.615 E15.21341
G1 X46.865 Y91.425 E15.23501
G1 X45.959 Y91.086 E15.26719
G1 X45.011 Y90.621 E15.30231
G1 X44.469 Y90.305 E15.32317
G1 X44.195 Y90.133 E15.33393
G1 X43.48 Y89.648 E15.36267
G1 X42.552 Y88.865 E15.40306
G1 X42.136 Y88.464 E15.42227
G1 X41.523 Y87.801 E15.45231
G1 X40.971 Y87.087 E15.48232
G1 X40.365 Y86.115 E15.52042
G1 X39.983 Y85.4 E15.54738
G1 X39.51 Y84.311 E15.58687
G1 X39.26 Y83.567 E15.61298
G1 X39.027 Y82.694 E15.64303
G1 X38.912 Y82.08 E15.66381
G1 X38.82 Y81.381 E15.68726
G1 X38.765 Y80.504 E15.71648
G1 X38.74 Y79.149 E15.76156
G1 X38.741 Y70.382 E16.05315
G1 X38.749 Y69.787 E16.07294
G1 X38.804 Y68.859 E16.10386
G1 X38.838 Y68.535 E16.1147
G1 X39.051 Y67.274 E16.15723
G1 X39.125 Y66.958 E16.16802
G1 X39.369 Y66.089 E16.19805
G1 X39.689 Y65.246 E16.22804
G1 X39.985 Y64.587 E16.25206
G1 X40.401 Y63.785 E16.28211
G1 X40.886 Y63.023 E16.31216
G1 X41.708 Y61.995 E16.35593
G1 X42.353 Y61.328 E16.38679
G1 X43.023 Y60.722 E16.41684
G1 X43.725 Y60.184 E16.44626
G1 F2700 E11.44626
;MESH:3DBenchy.stl
G0 F6000 X67.547 Y73.473
G0 X67.726 Y76.278
;TYPE:WALL-INNER
G1 F2700 E16.44626
G1 F1200 X68.146 Y76.269 E16.46023
G1 X68.502 Y76.221 E16.47218
G1 X68.77 Y76.015 E16.48342
G1 X68.921 Y75.733 E16.49406
G1 X69.002 Y75.33 E16.50773
G1 X69.019 Y74.952 E16.52032
G1 X68.999 Y74.492 E16.53563
G1 X68.898 Y74.094 E16.54929
G1 X68.768 Y73.864 E16.55808
G1 X68.575 Y73.703 E16.56644
G1 X68.12 Y73.659 E16.58164
G1 X67.723 Y73.648 E16.59485
G1 X67.726 Y76.278 E16.68232
G0 F6000 X67.471 Y76.696
;TYPE:WALL-OUTER
G1 F1200 X67.776 Y76.676 E16.69249
G1 X68.176 Y76.668 E16.7058
G1 X68.634 Y76.607 E16.72116
G1 X68.907 Y76.448 E16.73167
G1 X69.096 Y76.253 E16.7407
G1 X69.251 Y75.965 E16.75158
G1 X69.334 Y75.709 E16.76053
G1 X69.4 Y75.379 E16.77173
G1 X69.419 Y74.952 E16.78594
G1 X69.397 Y74.434 E16.80319
G1 X69.272 Y73.944 E16.82001
G1 X69.09 Y73.622 E16.83231
G1 X68.928 Y73.456 E16.84002
G1 X68.54 Y73.298 E16.85396
G1 X68.159 Y73.26 E16.86669
G1 X67.634 Y73.245 E16.88416
G1 X67.35 Y73.258 E16.89362
G1 X67.32 Y73.357 E16.89706
G1 X67.328 Y76.22 E16.99228
G1 X67.311 Y76.523 E17.00237
G1 X67.352 Y76.629 E17.00615
G1 X67.471 Y76.696 E17.0107
G0 F6000 X67.593 Y76.414
G0 X68.602 Y76.026
G0 X68.125 Y75.869
;TYPE:SKIN
G1 F1004.2 X68.122 Y74.061 E17.08256
G1 F1000 X68.418 Y74.089 E17.09442
G1 X68.522 Y74.25 E17.10207
G1 X68.601 Y74.548 E17.11438
G1 F995.9 X68.613 Y74.949 E17.13046
G1 F997.9 X68.602 Y75.282 E17.14378
G1 F1006.3 X68.537 Y75.598 E17.15658
G1 X68.45 Y75.762 E17.16394
G1 X68.352 Y75.837 E17.16884
G1 X68.125 Y75.869 E17.17793
G1 F2700 E12.17793
G0 F6000 X68.602 Y76.026
G0 X67.538 Y75.072
G0 X65.714 Y75.074
G0 X65.393 Y75.774
;TYPE:WALL-INNER
G1 F2700 E17.17793
G1 F747.7 X65.411 Y76.023 E17.19126
G1 F774.2 X65.416 Y76.319 E17.20652
G1 F748.8 X65.391 Y76.717 E17.22777
G0 F6000 X65.338 Y77.144
G0 X64.908 Y72.779
G0 X64.677 Y72.261
G0 X64.309 Y71.843
G0 X63.886 Y71.615
G0 X63.009 Y71.428
G0 X62.057 Y71.492
G0 X61.414 Y71.734
G0 X61.076 Y71.975
G0 X60.846 Y72.267
G0 X60.75 Y72.561
G0 X60.786 Y72.941
G0 X60.982 Y73.308
G0 X61.299 Y73.582
G0 X61.605 Y73.68
G0 X62.663 Y73.423
G1 F1027.8 X62.539 Y73.484 E17.23314
G1 F2700 E12.23314
G0 F6000 X61.605 Y73.68
G0 X61.299 Y73.582
G0 X60.982 Y73.308
G0 X60.786 Y72.941
G0 X60.75 Y72.561
G0 X60.846 Y72.267
G0 X61.076 Y71.975
G0 X61.748 Y71.582
G0 X62.705 Y71.421
G0 X63.436 Y71.481
G0 X63.886 Y71.615
G0 X64.309 Y71.843
G0 X64.677 Y72.261
G0 X64.908 Y72.779
G0 X65.679 Y77.612
G0 X65.86 Y78.03
G0 X66.135 Y78.286
G0 X66.542 Y78.377
G0 X69.465 Y78.391
G0 X70.101 Y78.014
G0 X71.817 Y79.132
G0 X73.128 Y78.476
G0 X74.864 Y78.51
G0 X75.104 Y78.208
G0 X76.502 Y78.817
G0 X76.959 Y78.904
G0 X76.692 Y80.682
G0 X78.35 Y81.312
G0 X80.067 Y79.708
G0 X80.915 Y77.514
G0 X81.301 Y76.861
G0 X82.013 Y78.692
G0 X84.285 Y78.866
G0 X82.933 Y79.934
G0 X81.19 Y80.935
G0 X80.019 Y81.435
G0 X78.435 Y81.927
G0 X77.892 Y82.021
G0 X75 Y82.499
G1 F2700 E17.23314
G1 F1200 X75.615 Y82.486 E17.2536
G1 X76.538 Y82.42 E17.28438
G1 X76.795 Y82.391 E17.29298
G1 X77.493 Y82.286 E17.31646
G1 X78.103 Y82.167 E17.33713
G1 X78.478 Y82.083 E17.34991
G1 X79.053 Y81.929 E17.36971
G1 X80.056 Y81.593 E17.40489
G1 X80.447 Y81.438 E17.41888
G1 X81.24 Y81.089 E17.44769
G1 X81.655 Y80.88 E17.46315
G1 X82.486 Y80.409 E17.49492
G1 X83.027 Y80.064 E17.51626
G1 X83.715 Y79.569 E17.54445
G1 X84.185 Y79.197 E17.56439
G1 X84.771 Y78.679 E17.5904
G1 X83.137 Y78.676 E17.64475
G1 X82.573 Y78.712 E17.66354
G1 X82.093 Y78.549 E17.6804
G1 X81.766 Y78.185 E17.69668
G1 X81.684 Y78.006 E17.70323
G1 F973.6 X81.516 Y77.303 E17.73286
G1 F821.9 X81.652 Y76.834 E17.75657
G1 F975.6 X81.958 Y76.516 E17.77462
G1 F1197 X83 Y75.075 E17.83392
G1 F1200 X82.51 Y75.03 E17.85028
G1 X82.08 Y74.853 E17.86575
G1 X81.81 Y74.572 E17.87871
G1 X81.594 Y75.021 E17.89528
G1 X81.342 Y75.791 E17.92223
G1 F1197 X81.21 Y76.16 E17.9353
G1 F979.6 X81.161 Y76.56 E17.95172
G1 F837.7 X81.09 Y76.744 E17.96111
G1 F831.9 X80.953 Y77.156 E17.98194
G1 F958.1 X80.752 Y77.466 E17.99734
G1 F1176.5 X80.648 Y77.731 E18.00699
G1 F1200 X80.419 Y78.372 E18.02963
G1 X79.931 Y79.616 E18.07408
G1 X79.759 Y79.995 E18.08792
G1 X79.481 Y80.488 E18.10675
G1 X78.922 Y80.944 E18.13074
G1 X78.307 Y81.156 E18.15238
G1 X77.859 Y81.222 E18.16744
G1 X77.575 Y81.194 E18.17693
G1 X77.215 Y81.062 E18.18968
G1 X76.969 Y80.819 E18.20118
G1 X76.84 Y80.618 E18.20913
G1 X76.699 Y80.254 E18.22211
G1 X76.7 Y79.838 E18.23595
G1 X76.737 Y79.697 E18.24079
G1 X76.923 Y79.396 E18.25256
G1 F1008.4 X77.021 Y79.217 E18.26064
G1 F843.6 X77.165 Y79.111 E18.2691
G1 F975.6 X77.596 Y79.062 E18.28684
G1 F1200 X77.85 Y78.967 E18.29586
G1 X78.027 Y78.725 E18.30584
G1 X78.181 Y78.313 E18.32047
G1 X78.432 Y77.776 E18.34018
G1 X78.423 Y77.621 E18.34535
G1 X78.149 Y77.009 E18.36765
G1 X77.494 Y75.241 E18.43036
G1 X77.342 Y74.89 E18.44308
G1 X77.152 Y74.36 E18.46181
G1 X76.706 Y75.141 E18.49172
G1 X76.402 Y75.632 E18.51093
G1 X76.389 Y75.752 E18.51494
G1 X76.586 Y76.07 E18.52738
G1 X76.856 Y76.544 E18.54553
G1 X77.149 Y76.999 E18.56353
G1 X77.297 Y77.507 E18.58112
G1 X77.249 Y78.016 E18.59813
G1 F1076.2 X76.861 Y78.627 E18.62497
G1 X76.439 Y78.667 E18.64069
G1 F1200 X76.235 Y78.707 E18.6476
G1 X75.903 Y78.653 E18.65879
G1 X75.708 Y78.567 E18.66588
G1 X75.321 Y78.216 E18.68326
G1 X75.117 Y77.863 E18.69682
G1 X74.755 Y78.389 E18.71806
G1 X74.343 Y78.645 E18.73419
G1 X74.103 Y78.667 E18.74221
G1 X73.736 Y78.629 E18.75448
G1 X73.536 Y78.542 E18.76173
G1 X73.247 Y78.322 E18.77381
G1 X73.145 Y78.169 E18.77993
G1 X73.042 Y78.319 E18.78598
G1 X72.739 Y78.638 E18.80061
G1 X72.348 Y78.862 E18.8156
G1 X71.814 Y78.969 E18.83371
G1 X71.375 Y78.924 E18.84839
G1 X70.979 Y78.762 E18.86262
G1 X70.655 Y78.512 E18.87623
G1 X70.31 Y78.087 E18.89444
G1 X70.208 Y77.694 E18.90794
G1 X69.858 Y77.989 E18.92317
G1 X69.374 Y78.251 E18.94147
G1 X68.899 Y78.38 E18.95785
G1 X68.508 Y78.445 E18.97103
G1 X68.045 Y78.476 E18.98646
G1 X67.64 Y78.484 E18.99994
G1 X67.046 Y78.477 E19.01969
G1 X66.56 Y78.525 E19.03594
G1 X66.22 Y78.459 E19.04746
G1 X66.001 Y78.369 E19.05533
G1 X65.725 Y78.113 E19.06785
G1 X65.527 Y77.637 E19.085
G1 X65.512 Y77.142 E19.10147
G1 F1030 X65.397 Y76.708 E19.11887
G1 X65.14 Y77.075 E19.13623
G1 F1200 X65.058 Y77.279 E19.14354
G1 X64.812 Y77.699 E19.15973
G1 X64.463 Y78.069 E19.17665
G1 X64.116 Y78.318 E19.19085
G1 X63.669 Y78.522 E19.20719
G1 X63.076 Y78.649 E19.22736
G1 X62.395 Y78.651 E19.25001
G1 X61.628 Y78.509 E19.27596
G1 X61.128 Y78.226 E19.29507
G1 X60.797 Y77.878 E19.31104
G1 X60.627 Y77.429 E19.32701
G1 X60.607 Y76.944 E19.34315
G1 X60.743 Y76.612 E19.35509
G1 X60.911 Y76.391 E19.36432
G1 X61.138 Y76.222 E19.37373
G1 X61.487 Y76.098 E19.38605
G1 F1194 X61.906 Y76.088 E19.40006
G1 F1159.4 X62.376 Y76.2 E19.41669
G1 F1100.9 X62.813 Y76.534 E19.43663
G1 F1076.2 X62.886 Y76.506 E19.43953
G1 X62.983 Y76.381 E19.4454
G1 X62.971 Y76.189 E19.45254
G1 X62.846 Y76.003 E19.46085
G1 F1100.9 X62.633 Y75.825 E19.47091
G1 F1153.8 X61.892 Y75.67 E19.4971
G1 F1194 X61.689 Y75.567 E19.50471
G1 F1200 X61.397 Y75.226 E19.51964
G1 X61.32 Y75.019 E19.52698
G1 X61.28 Y74.597 E19.54108
G1 X61.444 Y74.102 E19.55843
G1 X61.681 Y73.822 E19.57063
G1 X61.498 Y73.804 E19.57674
G1 X61.19 Y73.697 E19.58759
G1 X60.852 Y73.385 E19.60289
G1 X60.648 Y72.995 E19.61753
G1 X60.48 Y73.236 E19.6273
G1 X60.204 Y73.467 E19.63927
G1 X59.793 Y73.59 E19.65354
G1 X59.161 Y73.608 E19.67457
G1 X58.829 Y73.591 E19.68562
G1 X58.828 Y76.68 E19.78836
G1 X58.852 Y77.363 E19.81109
G1 X58.711 Y77.937 E19.83075
G1 X58.456 Y78.245 E19.84405
G1 X58.238 Y78.379 E19.85256
G1 X57.832 Y78.52 E19.86686
G1 X57.444 Y78.472 E19.87986
G1 X57.203 Y78.384 E19.88839
G1 X56.845 Y78.136 E19.90288
G1 X56.676 Y77.753 E19.9168
G1 X56.652 Y77.604 E19.92182
G1 X56.695 Y77.039 E19.94067
G1 X56.684 Y76.224 E19.96778
G1 X56.685 Y73.982 E20.04235
G1 X56.711 Y73.579 E20.05578
G1 X56.468 Y73.577 E20.06386
G1 X55.918 Y73.653 E20.08233
G1 X55.443 Y73.56 E20.09843
G1 X55.29 Y73.494 E20.10397
G1 X55.029 Y73.244 E20.11599
G1 X54.917 Y73.034 E20.12391
G1 X54.869 Y73.268 E20.13185
G1 X54.693 Y73.579 E20.14374
G1 X54.457 Y73.83 E20.15519
G1 X54.033 Y74.001 E20.1704
G1 X53.665 Y73.978 E20.18266
G1 X53.216 Y73.823 E20.19846
G1 X52.698 Y73.502 E20.21873
G1 X52.414 Y73.479 E20.22821
G1 X52.2 Y73.544 E20.23565
G1 X51.998 Y73.682 E20.24378
G1 X51.844 Y73.905 E20.2528
G1 X51.743 Y74.173 E20.26232
G1 X51.689 Y74.43 E20.27106
G1 X51.655 Y75.056 E20.29191
G1 X51.698 Y75.575 E20.30923
G1 X51.786 Y75.921 E20.32111
G1 X51.919 Y76.155 E20.33006
G1 X52.138 Y76.347 E20.33974
G1 X52.532 Y76.458 E20.35336
G1 X52.891 Y76.412 E20.3654
G1 X53.189 Y76.099 E20.37977
G1 X53.665 Y75.946 E20.3964
G1 X53.86 Y75.94 E20.40289
G1 X54.375 Y76.071 E20.42056
G1 X54.712 Y76.317 E20.43444
G1 X54.898 Y76.637 E20.44675
G1 X54.969 Y77.015 E20.45954
G1 X54.95 Y77.173 E20.46484
G1 X54.72 Y77.711 E20.4843
G1 X54.363 Y78.081 E20.5014
G1 X53.952 Y78.365 E20.51801
G1 X53.437 Y78.554 E20.53626
G1 X53.072 Y78.633 E20.54868
G1 X52.6 Y78.652 E20.56439
G1 X52.018 Y78.625 E20.58377
G1 X51.372 Y78.441 E20.60611
G1 X50.804 Y78.118 E20.62784
G1 X50.465 Y77.838 E20.64247
G1 X50.027 Y77.325 E20.6649
G1 X49.724 Y76.69 E20.6883
G1 X49.725 Y79.978 E20.79766
G1 X49.796 Y80.283 E20.80808
G1 X49.909 Y80.534 E20.81724
G1 X50.077 Y80.759 E20.82657
G1 X50.3 Y80.91 E20.83553
G1 X50.691 Y81.044 E20.84928
G1 X74.373 Y82.481 E21.63839
G1 X74.987 Y82.499 E21.65882
G1 X75 Y82.499 E21.65926
G0 F6000 X78.067 Y82.011
G0 X79.003 Y81.777
G0 X80.381 Y81.291
G0 X81.604 Y80.725
G0 X82.933 Y79.934
G0 X84.285 Y78.866
G0 X82.606 Y78.565
G0 X82.121 Y78.396
G0 X81.857 Y78.055
G0 X81.751 Y77.675
G0 X81.755 Y77.364
G0 X81.85 Y76.99
G0 X82.997 Y74.926
G0 X82.437 Y74.874
G0 X82.083 Y74.681
G0 X81.876 Y74.411
G0 X81.789 Y74.112
G0 X81.81 Y73.719
G0 X81.997 Y73.333
G0 X82.442 Y73.083
G0 X82.888 Y73.032
G0 X85.068 Y73.036
G0 X85.365 Y73.097
G0 X85.669 Y73.296
G0 X85.849 Y73.621
G0 X85.907 Y73.905
G0 X85.876 Y74.332
G0 X85.726 Y74.7
G0 X84.474 Y76.639
G0 X85.038 Y76.654
G0 X85.437 Y76.755
G0 X86.096 Y77.27
G1 F1200 X86.322 Y76.993 E21.67115
G1 X86.566 Y76.665 E21.68474
G1 X87.079 Y75.923 E21.71475
G1 X87.424 Y75.342 E21.73722
G1 X87.516 Y75.099 E21.74586
G1 X87.5 Y74.869 E21.75353
G1 X87.398 Y74.608 E21.76285
G1 X87.136 Y74.168 E21.77988
G1 X86.704 Y73.531 E21.80548
G1 F1071.4 X86.432 Y73.239 E21.82035
G1 F987.7 X86.193 Y72.909 E21.83682
G1 X86.013 Y72.704 E21.84784
G1 F1008.4 X85.912 Y72.553 E21.85503
G1 F1121.5 X85.632 Y72.19 E21.87135
G1 F1200 X85.062 Y71.596 E21.89873
G1 X84.51 Y71.081 E21.92384
G1 X84.028 Y70.673 E21.94484
G1 X83.408 Y70.202 E21.97074
G1 X83.005 Y69.915 E21.98719
G1 X82.534 Y69.616 E22.00575
G1 X82.002 Y69.302 E22.02629
G1 X81.347 Y68.968 E22.05075
G1 X80.909 Y68.756 E22.06693
G1 X80.219 Y68.467 E22.09181
G1 X79.789 Y68.307 E22.10707
G1 X79.275 Y68.138 E22.12507
G1 X78.755 Y67.988 E22.14307
G1 X78.237 Y67.857 E22.16084
G1 X77.5 Y67.705 E22.18587
G1 X76.498 Y67.574 E22.21948
G1 X75.782 Y67.52 E22.24336
G1 X75.006 Y67.501 E22.26918
G1 X74.29 Y67.522 E22.293
G1 X50.828 Y68.946 E23.07479
G1 X50.552 Y68.981 E23.08404
G1 X50.2 Y69.138 E23.09686
G1 X50.044 Y69.287 E23.10404
G1 X49.813 Y69.624 E23.11763
G1 X49.724 Y70.018 E23.13106
G1 X49.724 Y73.259 E23.23886
G1 X49.812 Y73.018 E23.24739
G1 X50.142 Y72.432 E23.26976
G1 X50.725 Y71.849 E23.29718
G1 X51.338 Y71.512 E23.32045
G1 X51.756 Y71.372 E23.33511
G1 X52.299 Y71.272 E23.35347
G1 X52.897 Y71.281 E23.37337
G1 X53.305 Y71.336 E23.38706
G1 X53.801 Y71.495 E23.40438
G1 X54.238 Y71.746 E23.42114
G1 X54.586 Y72.042 E23.43634
G1 X54.811 Y72.388 E23.45007
G1 X54.922 Y71.991 E23.46378
G1 X55.108 Y71.715 E23.47485
G1 X55.447 Y71.475 E23.48866
G1 X55.863 Y71.409 E23.50267
G1 X56.488 Y71.455 E23.52351
G1 X57.078 Y71.444 E23.54314
G1 X59.153 Y71.448 E23.61216
G1 X59.825 Y71.436 E23.63451
G1 X60.101 Y71.497 E23.64391
G1 X60.444 Y71.683 E23.65689
G1 F1194 X60.726 Y72.117 E23.67419
G1 X61.034 Y71.815 E23.68861
G1 F1200 X61.339 Y71.598 E23.70106
G1 X61.736 Y71.427 E23.71544
G1 X62.012 Y71.348 E23.72498
G1 X62.374 Y71.289 E23.73718
G1 X62.726 Y71.268 E23.74891
G1 X63.048 Y71.28 E23.75963
G1 X63.471 Y71.331 E23.7738
G1 X63.941 Y71.475 E23.79015
G1 X64.412 Y71.733 E23.80801
G1 F1165 X64.793 Y72.157 E23.82754
G1 F1113.7 X65.066 Y72.71 E23.84964
G1 F1106 X65.08 Y73.29 E23.87058
G1 F1023.5 X65.037 Y73.934 E23.89575
G1 F895.5 X64.907 Y74.328 E23.91424
G1 F852.6 X64.798 Y74.47 E23.92262
G1 F854.1 X64.95 Y74.645 E23.93345
G1 F939.3 X65.041 Y74.907 E23.94524
G1 F1142.9 X65.163 Y75.433 E23.96409
G1 F1066.7 X65.401 Y75.752 E23.97899
G1 X65.533 Y75.377 E23.99386
G1 F1142.9 X65.492 Y74.839 E24.0127
G1 F937.5 X65.44 Y74.455 E24.0292
G1 F943 X65.494 Y73.894 E24.05305
G1 F1081.1 X65.51 Y72.944 E24.08813
G1 F1088.4 X65.47 Y72.558 E24.10236
G1 F1100.9 X65.549 Y72.079 E24.11996
G1 F1165 X65.781 Y71.742 E24.13398
G1 F1200 X66.213 Y71.502 E24.15042
G1 X66.635 Y71.435 E24.16463
G1 X67.327 Y71.448 E24.18765
G1 X67.784 Y71.444 E24.20285
G1 X68.19 Y71.458 E24.21636
G1 X68.53 Y71.485 E24.2277
G1 X69.059 Y71.569 E24.24552
G1 X69.538 Y71.714 E24.26216
G1 X70.068 Y72.035 E24.28277
G1 X70.586 Y72.588 E24.30797
G1 X70.953 Y73.295 E24.33447
G1 X71.089 Y73.761 E24.35062
G1 X71.153 Y74.084 E24.36157
G1 X71.198 Y74.432 E24.37324
G1 X71.22 Y75.002 E24.39221
G1 X71.208 Y75.338 E24.40339
G1 X71.145 Y75.898 E24.42214
G1 X71.516 Y75.771 E24.43518
G1 X72.069 Y75.792 E24.45358
G1 X72.498 Y75.931 E24.46858
G1 X72.74 Y76.087 E24.47816
G1 X73.096 Y76.463 E24.49538
G1 X73.238 Y76.712 E24.50492
G1 X73.274 Y76.838 E24.50927
G1 X73.734 Y76.045 E24.53977
G1 X73.944 Y75.761 E24.55151
G1 X73.775 Y75.503 E24.56177
G1 X73.219 Y74.531 E24.59902
G1 X73.05 Y74.007 E24.61733
G1 X73.12 Y73.494 E24.63455
G1 X73.412 Y73.135 E24.64994
G1 X73.724 Y72.947 E24.66206
G1 X74.143 Y72.881 E24.67616
G1 X74.33 Y72.898 E24.68241
G1 X74.686 Y73.033 E24.69507
G1 X74.988 Y73.316 E24.70884
G1 X75.171 Y73.567 E24.71917
G1 X75.3 Y73.375 E24.72686
G1 X75.697 Y73.023 E24.74451
G1 X76.139 Y72.889 E24.75987
G1 X76.398 Y72.898 E24.76849
G1 X76.682 Y73.002 E24.77855
G1 X76.82 Y73.099 E24.78416
G1 F1197 X77.109 Y73.433 E24.79889
G1 F1194 X77.162 Y73.549 E24.80315
G1 F1197 X77.257 Y73.334 E24.81099
G1 F1200 X77.471 Y73.095 E24.82166
G1 X77.683 Y72.963 E24.82996
G1 X78.024 Y72.875 E24.84168
G1 X78.394 Y72.914 E24.85405
G1 X78.766 Y73.055 E24.86728
G1 X79.106 Y73.372 E24.88274
G1 X79.283 Y73.771 E24.89726
G1 X79.422 Y74.279 E24.91478
G1 X79.533 Y74.574 E24.92526
G1 X79.767 Y73.856 E24.95038
G1 X79.993 Y73.428 E24.96648
G1 X80.289 Y73.102 E24.98112
G1 X80.551 Y72.945 E24.99128
G1 X80.726 Y72.893 E24.99735
G1 X80.983 Y72.892 E25.0059
G1 X81.203 Y72.946 E25.01344
G1 X81.523 Y73.13 E25.02571
G1 X81.764 Y73.457 E25.03923
G1 X81.936 Y73.192 E25.04973
G1 X82.381 Y72.943 E25.06669
G1 X82.914 Y72.88 E25.08454
G1 X85.112 Y72.89 E25.15765
G1 F1121.5 X85.533 Y72.991 E25.17306
G1 F1008.4 X85.684 Y73.066 E25.17973
G1 F987.7 X85.824 Y73.207 E25.18776
G1 X86.007 Y73.494 E25.20152
G1 F1071.4 X86.052 Y73.92 E25.21747
G1 F1200 X86.027 Y74.337 E25.23137
G1 X85.868 Y74.76 E25.2464
G1 X85.587 Y75.186 E25.26337
G1 X84.666 Y76.491 E25.3165
G1 X85.06 Y76.502 E25.32961
G1 X85.616 Y76.642 E25.34868
G1 X85.97 Y76.995 E25.3653
G1 X86.096 Y77.27 E25.37537
G0 F6000 X85.725 Y78.088
;TYPE:WALL-OUTER
G1 F703.8 X85.568 Y78.254 E25.38832
G1 F2700 E20.38832
G0 F6000 X85.233 Y78.466
G0 X82.547 Y78.873
G0 X81.421 Y77.6
G0 X81.301 Y76.861
G0 X80.915 Y77.514
G0 X79.733 Y80.393
G0 X78.847 Y80.812
G0 X78.515 Y80.928
G0 X77.644 Y81.125
G0 X77.753 Y80.833
G1 F2700 E25.38832
G1 F1200 X77.427 Y80.713 E25.39988
G1 X77.213 Y80.473 E25.41057
G1 X77.087 Y80.147 E25.4222
G1 X77.098 Y79.86 E25.43175
G1 X77.224 Y79.661 E25.43958
G1 X77.42 Y79.532 E25.44739
G1 X77.865 Y79.403 E25.4628
G1 X78.078 Y79.301 E25.47065
G1 X78.246 Y79.145 E25.47828
G1 X78.39 Y78.897 E25.48781
G1 X78.556 Y78.453 E25.50358
G1 X78.818 Y77.896 E25.52405
G1 X78.845 Y77.731 E25.52961
G1 X78.81 Y77.506 E25.53719
G1 X78.524 Y76.87 E25.56038
G1 X77.87 Y75.103 E25.62305
G1 X77.716 Y74.748 E25.63592
G1 F1016.9 X77.444 Y74.023 E25.66631
G1 F893.9 X77.464 Y73.751 E25.67849
G1 F1032.3 X77.637 Y73.491 E25.69056
G1 F1200 X77.819 Y73.339 E25.69845
G1 X78.038 Y73.281 E25.70598
G1 X78.294 Y73.302 E25.71453
G1 X78.525 Y73.39 E25.72275
G1 X78.758 Y73.588 E25.73292
G1 X78.885 Y73.841 E25.74234
G1 X79.039 Y74.398 E25.76156
G1 X79.399 Y75.339 E25.79507
G1 X79.57 Y75.753 E25.80996
G1 X79.707 Y75.273 E25.82657
G1 X79.942 Y74.619 E25.84968
G1 X80.142 Y74.002 E25.87125
G1 X80.314 Y73.677 E25.88348
G1 X80.56 Y73.396 E25.8959
G1 X80.78 Y73.289 E25.90404
G1 X81.005 Y73.298 E25.91153
G1 F1182.3 X81.247 Y73.43 E25.92084
G1 F1153.8 X81.453 Y73.694 E25.93242
G1 F1111.1 X81.573 Y73.977 E25.94346
G1 F1118.9 X81.494 Y74.307 E25.95557
G1 F1176.5 X81.222 Y74.871 E25.97681
G1 F1200 X80.965 Y75.656 E26.00428
G1 X80.047 Y78.226 E26.09505
G1 X79.555 Y79.478 E26.13979
G1 X79.411 Y79.799 E26.15149
G1 X79.152 Y80.244 E26.16862
G1 X78.723 Y80.589 E26.18693
G1 X78.204 Y80.77 E26.20521
G1 X77.753 Y80.833 E26.22036
G1 F2700 E21.22036
G0 F6000 X77.644 Y81.125
G0 X79.086 Y81.017
G0 X80.915 Y77.514
G0 X81.301 Y76.861
G0 X82.013 Y78.692
G0 X84.285 Y78.866
G0 X82.933 Y79.934
G0 X81.19 Y80.935
G0 X80.019 Y81.435
G0 X78.593 Y81.878
G0 X74.989 Y82.59
G0 X75 Y82.898
G1 F2700 E26.22036
G1 F1200 X75.041 Y82.899 E26.22172
G1 X75.666 Y82.884 E26.24251
G1 X76.53 Y82.823 E26.27132
G1 X76.853 Y82.787 E26.28213
G1 X77.569 Y82.679 E26.30621
G1 X78.19 Y82.557 E26.32726
G1 X78.58 Y82.469 E26.34056
G1 X79.175 Y82.31 E26.36105
G1 X79.638 Y82.159 E26.37724
G1 X80.147 Y81.977 E26.39522
G1 X80.156 Y81.984 E26.3956
G1 X80.607 Y81.804 E26.41175
G1 X81.41 Y81.451 E26.44093
G1 X81.869 Y81.219 E26.45803
G1 X82.692 Y80.752 E26.48951
G1 X83.26 Y80.389 E26.51193
G1 X83.947 Y79.896 E26.54005
G1 X84.447 Y79.499 E26.56129
G1 X84.899 Y79.106 E26.58121
G1 X85.383 Y78.653 E26.60326
G1 F1021.3 X85.56 Y78.271 E26.61971
G1 X85.145 Y78.241 E26.63597
G1 F1200 X85.009 Y78.275 E26.64063
G1 X83.123 Y78.276 E26.70336
G1 X82.633 Y78.309 E26.7197
G1 X82.292 Y78.194 E26.73166
G1 X82.079 Y77.938 E26.74274
G1 X82 Y77.612 E26.7539
G1 X82.002 Y77.386 E26.76142
G1 X82.079 Y77.096 E26.77139
G1 X82.309 Y76.71 E26.78634
G1 X83.814 Y74.628 E26.87178
G1 X83.371 Y74.672 E26.88659
G1 X83 Y74.676 E26.89893
G1 X82.548 Y74.632 E26.91404
G1 X82.28 Y74.506 E26.92389
G1 F1176.5 X82.081 Y74.264 E26.93452
G1 F1100.9 X82.012 Y74.066 E26.94212
G1 F1052.6 X82.024 Y73.816 E26.95161
G1 F1086 X82.186 Y73.504 E26.96453
G1 F1159.4 X82.514 Y73.33 E26.97731
G1 F1200 X82.888 Y73.281 E26.98985
G1 X85.063 Y73.287 E27.0622
G1 X85.298 Y73.348 E27.07027
G1 X85.484 Y73.482 E27.0779
G1 X85.604 Y73.691 E27.08591
G1 X85.649 Y73.89 E27.0927
G1 X85.627 Y74.271 E27.10539
G1 X85.496 Y74.599 E27.11714
G1 X85.26 Y74.956 E27.13137
G1 X84.358 Y76.235 E27.18343
G1 X83.953 Y76.785 E27.20614
G1 X83.895 Y76.932 E27.2114
G1 X84.468 Y76.888 E27.23051
G1 X85.026 Y76.906 E27.24908
G1 X85.4 Y77.001 E27.26192
G1 X85.652 Y77.238 E27.27342
G1 X85.732 Y77.516 E27.28304
G1 F1103.4 X85.746 Y78.1 E27.30417
G1 X86.157 Y77.82 E27.32216
G1 F1200 X86.634 Y77.244 E27.34704
G1 X86.895 Y76.892 E27.36161
G1 X87.415 Y76.139 E27.39205
G1 X87.786 Y75.516 E27.41616
G1 X87.921 Y75.158 E27.42889
G1 X87.894 Y74.781 E27.44146
G1 X87.759 Y74.432 E27.45391
G1 X87.469 Y73.947 E27.4727
G1 X87.13 Y73.438 E27.49304
G1 X86.667 Y72.801 E27.51923
G1 X86.289 Y72.334 E27.53922
G1 X85.817 Y71.804 E27.56282
G1 X85.343 Y71.311 E27.58557
G1 X84.769 Y70.776 E27.61167
G1 X84.278 Y70.361 E27.63305
G1 X83.64 Y69.876 E27.6597
G1 X83.228 Y69.583 E27.67652
G1 X82.743 Y69.275 E27.69563
G1 X82.195 Y68.952 E27.71679
G1 X81.521 Y68.608 E27.74195
G1 X81.073 Y68.391 E27.75851
G1 X80.366 Y68.095 E27.784
G1 X79.921 Y67.929 E27.7998
G1 X79.393 Y67.756 E27.81828
G1 X78.859 Y67.602 E27.83676
G1 X78.327 Y67.467 E27.85502
G1 X77.566 Y67.31 E27.88086
G1 X76.539 Y67.176 E27.91531
G1 X75.802 Y67.12 E27.9399
G1 X75.005 Y67.101 E27.96641
G1 X74.313 Y67.12 E27.98944
G1 X50.791 Y68.548 E28.77322
G1 X50.443 Y68.591 E28.78488
G1 X49.974 Y68.801 E28.80197
G1 X49.738 Y69.027 E28.81284
G1 X49.439 Y69.462 E28.8304
G1 X49.343 Y69.894 E28.84512
G1 X49.324 Y70.148 E28.85359
G1 F1188.1 X49.328 Y73.548 E28.96781
G1 F1041.2 X49.38 Y73.911 E28.98186
G1 F979.6 X49.358 Y74.809 E29.01846
G1 F1010.5 X49.365 Y75.563 E29.04824
G1 F963.9 X49.38 Y76.01 E29.06676
G1 F1043.5 X49.327 Y76.384 E29.08121
G1 F1191.1 X49.325 Y80.024 E29.20319
G1 F1200 X49.415 Y80.411 E29.2164
G1 X49.562 Y80.738 E29.22833
G1 X49.797 Y81.053 E29.2414
G1 X50.108 Y81.263 E29.25388
G1 X50.35 Y81.366 E29.26263
G1 X50.625 Y81.441 E29.27211
G1 X74.326 Y82.88 E30.06186
G1 X75 Y82.898 E30.08428
G1 F2700 E25.08428
G0 F6000 X74.989 Y82.59
G0 X78.435 Y81.927
G0 X80.381 Y81.291
G0 X81.604 Y80.725
G0 X82.933 Y79.934
G0 X84.285 Y78.866
G0 X81.784 Y78.476
G0 X81.301 Y76.861
G0 X80.915 Y77.514
G0 X79.086 Y81.017
G0 X77.063 Y81.136
G0 X76.6 Y79.586
G0 X76.809 Y79.281
G0 X76.959 Y78.904
G0 X76.502 Y78.817
G0 X75.104 Y78.208
G0 X73.541 Y78.73
G0 X73.169 Y78.501
G0 X71.871 Y78.868
G0 X71.811 Y78.563
G1 F2700 E30.08428
G1 F1200 X71.471 Y78.532 E30.09564
G1 X71.159 Y78.396 E30.10696
G1 X70.93 Y78.222 E30.11652
G1 X70.664 Y77.881 E30.13091
G1 X70.572 Y77.493 E30.14417
G1 X70.573 Y77.231 E30.15288
G1 F921.3 X70.544 Y76.822 E30.17065
G1 X70.224 Y77.076 E30.18835
G1 F1200 X70.086 Y77.273 E30.19635
G1 X69.619 Y77.663 E30.21658
G1 X69.234 Y77.876 E30.23122
G1 X68.796 Y77.994 E30.2463
G1 X68.454 Y78.048 E30.25782
G1 X68.037 Y78.076 E30.27172
G1 X67.645 Y78.084 E30.28476
G1 X67.029 Y78.077 E30.30525
G1 X66.555 Y78.12 E30.32108
G1 X66.261 Y78.059 E30.33107
G1 X66.064 Y77.886 E30.33979
G1 X65.925 Y77.556 E30.3517
G1 X65.912 Y77.156 E30.36501
G1 X65.924 Y76.828 E30.37593
G1 X65.92 Y73.77 E30.47763
G1 X65.927 Y72.928 E30.50564
G1 X65.892 Y72.513 E30.51949
G1 X65.945 Y72.206 E30.52985
G1 X66.059 Y72.038 E30.53661
G1 X66.369 Y71.881 E30.54816
G1 X66.667 Y71.836 E30.55819
G1 X67.331 Y71.848 E30.58028
G1 X67.771 Y71.844 E30.59491
G1 X68.157 Y71.856 E30.60776
G1 X68.51 Y71.886 E30.61954
G1 X68.943 Y71.952 E30.63411
G1 X69.396 Y72.096 E30.64992
G1 X69.815 Y72.35 E30.66621
G1 X70.239 Y72.799 E30.68675
G1 X70.574 Y73.427 E30.71043
G1 X70.705 Y73.877 E30.72602
G1 X70.763 Y74.174 E30.73608
G1 X70.8 Y74.466 E30.74587
G1 X70.82 Y74.988 E30.76325
G1 X70.807 Y75.339 E30.77493
G1 X70.769 Y75.673 E30.78611
G1 X70.714 Y75.968 E30.79609
G1 F1159.4 X70.614 Y76.356 E30.80988
G1 F888.9 X70.591 Y76.723 E30.82639
G1 F912.5 X70.975 Y76.465 E30.84663
G1 F1200 X71.187 Y76.308 E30.8554
G1 X71.58 Y76.171 E30.86924
G1 X71.999 Y76.186 E30.88319
G1 X72.416 Y76.326 E30.89782
G1 X72.841 Y76.774 E30.91836
G1 F1197 X72.962 Y77.228 E30.93402
G1 F1182.3 X72.972 Y77.623 E30.94736
G1 X72.774 Y78.015 E30.96219
G1 F1200 X72.479 Y78.329 E30.97652
G1 X72.208 Y78.482 E30.98687
G1 X71.811 Y78.563 E31.00035
G1 F2700 E26.00035
G0 F6000 X71.871 Y78.868
G0 X71.059 Y78.633
G0 X70.752 Y78.402
G0 X70.436 Y78
G0 X70.332 Y77.344
G0 X70.544 Y76.822
G1 F2700 E31.00035
G1 F741.9 X70.591 Y76.723 E31.00624
G1 F2700 E26.00624
G0 F6000 X70.896 Y76.226
G0 X71.543 Y75.925
G0 X72.045 Y75.937
G0 X72.558 Y76.114
G0 X73.35 Y77.013
G0 X73.152 Y77.52
G0 X73.167 Y77.903
G0 X73.364 Y78.241
G0 X73.716 Y78.483
G0 X74.252 Y78.526
G0 X74.583 Y78.32
G0 X75.123 Y77.581
G0 X75 Y77.231
G1 F2700 E31.00624
G1 F1200 X74.87 Y77.517 E31.01669
G1 X74.48 Y78.088 E31.03969
G1 X74.197 Y78.27 E31.05088
G1 X73.816 Y78.241 E31.06359
G1 X73.558 Y78.074 E31.07381
G1 F1182.3 X73.407 Y77.785 E31.08482
G1 F1167.9 X73.391 Y77.563 E31.09242
G1 F1182.3 X73.547 Y77.163 E31.10692
G1 F1200 X74.076 Y76.252 E31.14196
G1 X74.388 Y75.837 E31.15923
G1 X74.382 Y75.7 E31.16379
G1 X74.122 Y75.304 E31.17954
G1 X73.594 Y74.38 E31.21494
G1 X73.456 Y73.971 E31.2293
G1 X73.508 Y73.66 E31.23978
G1 X73.696 Y73.428 E31.24972
G1 X73.885 Y73.325 E31.25687
G1 X74.194 Y73.276 E31.26728
G1 X74.446 Y73.367 E31.27619
G1 X74.684 Y73.577 E31.28675
G1 X74.903 Y73.88 E31.29918
G1 X75.189 Y74.442 E31.32016
G1 X75.384 Y74.012 E31.33586
G1 X75.575 Y73.662 E31.34912
G1 X75.906 Y73.381 E31.36356
G1 X76.262 Y73.269 E31.37598
G1 X76.546 Y73.39 E31.38624
G1 F1197 X76.764 Y73.643 E31.39738
G1 F1004.2 X76.905 Y73.862 E31.40773
G1 F875.9 X76.904 Y73.975 E31.41288
G1 F971.7 X76.796 Y74.206 E31.42335
G1 F1137.4 X76.754 Y74.252 E31.42554
G1 F1200 X76.366 Y74.93 E31.45152
G1 X76.017 Y75.494 E31.47358
G1 X75.983 Y75.745 E31.48201
G1 X76.007 Y75.896 E31.48709
G1 X76.238 Y76.268 E31.50166
G1 X76.507 Y76.74 E31.51973
G1 X76.788 Y77.186 E31.53726
G1 X76.891 Y77.546 E31.54971
G1 X76.862 Y77.877 E31.56076
G1 X76.673 Y78.158 E31.57203
G1 X76.278 Y78.298 E31.58597
G1 X75.966 Y78.258 E31.59643
G1 X75.65 Y77.977 E31.61049
G1 X75.27 Y77.329 E31.63548
G1 X75.104 Y77.003 E31.64764
G1 X75 Y77.231 E31.65598
G1 F2700 E26.65598
G0 F6000 X75.123 Y77.581
G0 X74.661 Y78.272
G0 X74.252 Y78.526
G0 X73.716 Y78.483
G0 X72.645 Y78.524
G0 X72.292 Y78.721
G0 X71.809 Y78.817
G0 X71.419 Y78.775
G0 X71.059 Y78.633
G0 X70.752 Y78.402
G0 X70.426 Y77.963
G0 X68.049 Y78.328
G0 X65.726 Y78.344
G0 X65.323 Y77.202
G0 X64.695 Y77.919
G0 X63.097 Y78.557
G0 X63.031 Y78.251
G1 F2700 E31.65598
G1 F1200 X62.419 Y78.252 E31.67633
G1 X61.764 Y78.127 E31.69851
G1 X61.363 Y77.894 E31.71394
G1 X61.144 Y77.662 E31.72455
G1 X61.028 Y77.377 E31.73478
G1 X61.01 Y77.004 E31.7472
G1 X61.128 Y76.729 E31.75716
G1 X61.336 Y76.57 E31.76587
G1 X61.54 Y76.501 E31.77303
G1 X61.874 Y76.494 E31.78414
G1 X62.158 Y76.569 E31.79391
G1 X62.632 Y76.927 E31.81367
G1 X62.783 Y76.964 E31.81884
G1 X62.95 Y76.942 E31.82444
G1 X63.137 Y76.855 E31.8313
G1 X63.323 Y76.658 E31.84031
G1 X63.402 Y76.483 E31.8467
G1 X63.418 Y76.209 E31.85583
G1 X63.357 Y76.007 E31.86284
G1 X63.165 Y75.719 E31.87436
G1 X62.898 Y75.492 E31.88601
G1 X62.624 Y75.395 E31.89568
G1 X61.979 Y75.281 E31.91746
G1 X61.722 Y75 E31.93013
G1 X61.68 Y74.649 E31.94189
G1 X61.811 Y74.278 E31.95497
G1 F1025.6 X62.023 Y73.987 E31.96898
G1 F887.2 X62.229 Y73.902 E31.97901
G1 F941.2 X62.652 Y73.916 E31.99696
G1 F1100.9 X62.934 Y73.768 E32.0085
G1 F1200 X63.056 Y73.629 E32.01465
G1 X63.128 Y73.381 E32.02324
G1 X63.017 Y73.095 E32.03345
G1 X62.909 Y73.016 E32.0379
G1 X62.763 Y72.979 E32.04291
G1 X62.566 Y72.997 E32.04949
G1 X62.299 Y73.121 E32.05928
G1 F1012.7 X61.987 Y73.416 E32.0762
G1 F879.1 X61.888 Y73.456 E32.08105
G1 F944.9 X61.468 Y73.398 E32.09896
G1 F1100.9 X61.188 Y73.155 E32.1124
G1 F1106 X60.939 Y72.71 E32.1308
G1 F948.6 X60.947 Y72.519 E32.13884
G1 F1016.9 X61.267 Y72.141 E32.15828
G1 F1200 X61.554 Y71.941 E32.16992
G1 X61.848 Y71.811 E32.18061
G1 X62.119 Y71.734 E32.18998
G1 X62.383 Y71.69 E32.19888
G1 X62.695 Y71.668 E32.20928
G1 X63 Y71.677 E32.21943
G1 X63.403 Y71.728 E32.23294
G1 X63.802 Y71.855 E32.24687
G1 X64.141 Y72.037 E32.25967
G1 X64.466 Y72.391 E32.27565
G1 X64.655 Y72.834 E32.29167
G1 X64.665 Y73.286 E32.30671
G1 X64.621 Y73.783 E32.3233
G1 X64.465 Y74.143 E32.33635
G1 X64.165 Y74.407 E32.34964
G1 X63.986 Y74.496 E32.35629
G1 X64.355 Y74.697 E32.37027
G1 X64.618 Y74.995 E32.38349
G1 X64.85 Y75.737 E32.40934
G1 X64.9 Y76.038 E32.41949
G1 X64.906 Y76.35 E32.42987
G1 X64.866 Y76.627 E32.43918
G1 X64.73 Y77.04 E32.45364
G1 X64.498 Y77.445 E32.46917
G1 X64.215 Y77.753 E32.48308
G1 X63.938 Y77.959 E32.49456
G1 X63.524 Y78.144 E32.50964
G1 X63.031 Y78.251 E32.52642
G1 F2700 E27.52642
G0 F6000 X63.097 Y78.557
G0 X61.03 Y78.356
G0 X60.594 Y76.55
G0 X62.408 Y76.032
G0 X62.678 Y76.192
G0 X62.434 Y75.957
G0 X61.161 Y75.045
G0 X61.323 Y73.932
G0 X60.624 Y73.336
G0 X59.005 Y73.784
G0 X58.569 Y78.359
G0 X57.743 Y78.421
G0 X57.785 Y78.112
G1 F2700 E32.52642
G1 F1200 X57.451 Y78.069 E32.53762
G1 X57.174 Y77.881 E32.54876
G1 X57.05 Y77.619 E32.5584
G1 X57.095 Y77.053 E32.57728
G1 X57.084 Y76.224 E32.60486
G1 X57.084 Y74.01 E32.67849
G1 X57.115 Y73.572 E32.6931
G1 X57.034 Y73.31 E32.70222
G1 X56.82 Y73.172 E32.71069
G1 X56.451 Y73.176 E32.72296
G1 X55.931 Y73.247 E32.74042
G1 F1182.3 X55.496 Y73.164 E32.75537
G1 F1121.5 X55.266 Y72.905 E32.7677
G1 F1021.3 X55.123 Y72.61 E32.78051
G1 F1071.4 X55.267 Y72.194 E32.79691
G1 F1200 X55.376 Y72.02 E32.80374
G1 X55.601 Y71.854 E32.81304
G1 X55.887 Y71.808 E32.82267
G1 X56.475 Y71.855 E32.84229
G1 X57.077 Y71.844 E32.86232
G1 X59.16 Y71.848 E32.9316
G1 X59.889 Y71.835 E32.95585
G1 X60.181 Y72.006 E32.9671
G1 F1016.9 X60.419 Y72.427 E32.98608
G1 F890.5 X60.41 Y72.65 E32.99608
G1 F960 X60.236 Y72.919 E33.0094
G1 F1106 X60.01 Y73.105 E33.01997
G1 F1200 X59.747 Y73.189 E33.02915
G1 X59.181 Y73.208 E33.04799
G1 X58.601 Y73.178 E33.0673
G1 X58.467 Y73.225 E33.07202
G1 X58.422 Y73.301 E33.07496
G1 X58.433 Y73.769 E33.09053
G1 X58.428 Y76.688 E33.18762
G1 X58.452 Y77.303 E33.20809
G1 X58.348 Y77.743 E33.22313
G1 X58.159 Y77.983 E33.23329
G1 X57.785 Y78.112 E33.24645
G1 F2700 E28.24645
G0 F6000 X57.743 Y78.421
G0 X56.672 Y78.138
G0 X56.511 Y73.75
G0 X54.981 Y73.454
G0 X53.599 Y74.133
G0 X52.64 Y73.656
G0 X52.263 Y73.693
G0 X51.986 Y73.982
G0 X51.849 Y74.45
G0 X51.857 Y75.548
G0 X52.046 Y76.052
G0 X52.544 Y76.297
G0 X54.385 Y75.908
G0 X55.099 Y77.248
G0 X54.237 Y78.281
G0 X52.601 Y78.564
G0 X52.618 Y78.252
G1 F2700 E33.24645
G1 F1200 X52.057 Y78.221 E33.26513
G1 X51.55 Y78.076 E33.28267
G1 X51.016 Y77.774 E33.30308
G1 X50.76 Y77.563 E33.31411
G1 X50.366 Y77.106 E33.33418
G1 X50.117 Y76.582 E33.35348
G1 F1052.6 X49.886 Y75.953 E33.37888
G1 F965.8 X49.844 Y75.515 E33.39707
G1 F1008.4 X49.829 Y75.175 E33.41054
G1 F1023.5 X49.826 Y74.787 E33.42567
G1 F1004.2 X49.854 Y74.267 E33.44637
G1 F960 X49.89 Y73.949 E33.45967
G1 F1041.2 X50.013 Y73.654 E33.47192
G1 F1188.1 X50.161 Y73.214 E33.48752
G1 F1200 X50.462 Y72.678 E33.50796
G1 X50.971 Y72.169 E33.53191
G1 X51.515 Y71.874 E33.55249
G1 X51.858 Y71.759 E33.56452
G1 X52.323 Y71.672 E33.58025
G1 X52.843 Y71.677 E33.59755
G1 X53.199 Y71.725 E33.6095
G1 X53.621 Y71.857 E33.62421
G1 X53.994 Y72.067 E33.63844
G1 X54.316 Y72.336 E33.6524
G1 F1132.1 X54.594 Y72.723 E33.6692
G1 F1076.2 X54.545 Y73.009 E33.67996
G1 F1137.4 X54.432 Y73.26 E33.68962
G1 F1200 X54.241 Y73.479 E33.69928
G1 X53.96 Y73.594 E33.70938
G1 X53.741 Y73.585 E33.71667
G1 X53.362 Y73.443 E33.73013
G1 X52.84 Y73.12 E33.75055
G1 X52.526 Y73.07 E33.76112
G1 X52.341 Y73.083 E33.76729
G1 X52.043 Y73.174 E33.77766
G1 X51.698 Y73.412 E33.7916
G1 X51.487 Y73.718 E33.80396
G1 X51.357 Y74.061 E33.81616
G1 X51.291 Y74.378 E33.82693
G1 X51.261 Y74.936 E33.84551
G1 X51.268 Y75.245 E33.85579
G1 X51.302 Y75.642 E33.86905
G1 X51.412 Y76.072 E33.88381
G1 X51.605 Y76.411 E33.89678
G1 X51.921 Y76.689 E33.91078
G1 X52.183 Y76.803 E33.92028
G1 X52.612 Y76.878 E33.93477
G1 X53.02 Y76.792 E33.94864
G1 X53.202 Y76.668 E33.95596
G1 X53.409 Y76.451 E33.96594
G1 X53.773 Y76.328 E33.97872
G1 X54.193 Y76.436 E33.99314
G1 X54.38 Y76.57 E34.00079
G1 X54.534 Y76.804 E34.01011
G1 X54.562 Y77.071 E34.01904
G1 X54.378 Y77.486 E34.03414
G1 X54.1 Y77.779 E34.04757
G1 X53.744 Y78.015 E34.06178
G1 X53.349 Y78.164 E34.07582
G1 X53.027 Y78.235 E34.08679
G1 X52.618 Y78.252 E34.1004
G1 F2700 E29.1004
G0 F6000 X52.601 Y78.564
G0 X50.712 Y78.251
G0 X49.913 Y77.48
G0 X49.886 Y79.959
G0 X49.981 Y80.361
G0 X50.19 Y80.64
G0 X50.717 Y80.884
G0 X74.987 Y82.339
G0 X76.77 Y82.232
G0 X79.367 Y81.718
G0 X79.24 Y81.336
;TYPE:SKIN
G1 F2700 E34.1004
G1 F1010.5 X79.684 Y80.783 E34.12841
G1 F1200 X79.774 Y80.691 E34.13269
G1 X80.07 Y80.172 E34.15256
G1 X80.25 Y79.78 E34.16691
G1 X80.754 Y78.498 E34.21273
G1 X80.977 Y77.869 E34.23492
G1 X81.081 Y77.622 E34.24384
G1 X81.173 Y77.529 E34.24819
G1 X81.227 Y77.653 E34.25269
G1 X81.333 Y78.091 E34.26767
G1 X81.469 Y78.389 E34.27857
G1 X81.624 Y78.594 E34.28712
G1 X81.908 Y78.869 E34.30027
G1 X82.521 Y79.074 E34.32176
G1 X83.153 Y79.036 E34.34282
G1 X83.804 Y79.036 E34.36448
G1 X83.494 Y79.283 E34.37766
G1 X82.835 Y79.756 E34.40464
G1 X82.301 Y80.097 E34.42571
G1 X81.528 Y80.537 E34.4553
G1 X81.124 Y80.74 E34.47033
G1 X80.297 Y81.106 E34.50041
G1 X79.941 Y81.251 E34.5132
G1 F1010.5 X79.24 Y81.336 E34.54109
G0 F6000 X79.25 Y81.324
G1 F708 X78.978 Y81.438 E34.55771
G1 F752.4 X78.449 Y81.601 E34.58708
G1 F745.3 X77.85 Y81.709 E34.61967
G0 F6000 X77.888 Y81.321
G0 X79.606 Y80.593
G0 X80.915 Y77.514
G0 X81.301 Y76.861
G0 X82.013 Y78.692
G0 X84.285 Y78.866
G0 X82.933 Y79.934
G0 X81.19 Y80.935
G0 X80.019 Y81.435
G0 X78.435 Y81.927
G0 X76.883 Y82.197
G0 X75.005 Y82.399
G0 X75 Y82.135
G1 F1200 X74.389 Y82.12 E34.64
G1 X50.752 Y80.685 E35.42762
G1 X50.467 Y80.587 E35.43764
G1 X50.329 Y80.493 E35.4432
G1 X50.166 Y80.273 E35.4523
G1 X50.084 Y79.932 E35.46397
G1 X50.084 Y77.951 E35.52986
G1 X50.22 Y78.107 E35.53674
G1 X50.609 Y78.423 E35.55341
G1 X51.213 Y78.763 E35.57646
G1 X51.924 Y78.973 E35.60112
G1 X52.582 Y79.008 E35.62304
G1 X53.139 Y78.988 E35.64157
G1 X53.507 Y78.908 E35.6541
G1 X54.134 Y78.673 E35.67637
G1 X54.613 Y78.339 E35.69579
G1 X55.02 Y77.915 E35.71534
G1 X55.334 Y77.201 E35.74128
G1 X55.304 Y76.788 E35.75505
G1 X55.221 Y76.481 E35.76563
G1 X55.083 Y76.234 E35.77504
G1 X54.86 Y75.978 E35.78633
G1 X54.467 Y75.722 E35.80193
G1 X53.906 Y75.581 E35.82117
G1 X53.607 Y75.588 E35.83112
G1 X53.141 Y75.737 E35.84739
G1 X52.941 Y75.849 E35.85502
G1 X52.703 Y76.073 E35.86589
G1 X52.554 Y76.092 E35.87088
G1 X52.322 Y76.03 E35.87887
G1 X52.202 Y75.924 E35.8842
G1 X52.123 Y75.784 E35.88954
G1 X52.051 Y75.506 E35.89909
G1 X52.013 Y75.057 E35.91408
G1 X52.047 Y74.475 E35.93347
G1 X52.163 Y74.072 E35.94742
G1 X52.343 Y73.878 E35.95622
G1 X52.568 Y73.848 E35.96377
G1 X53.039 Y74.135 E35.98212
G1 X53.545 Y74.325 E36.00009
G1 X53.961 Y74.356 E36.01397
G1 X54.276 Y74.29 E36.02467
G1 X54.66 Y74.128 E36.03853
G1 X55.033 Y73.745 E36.05632
G1 X55.104 Y73.802 E36.05934
G1 X55.357 Y73.907 E36.06846
G1 X55.747 Y73.988 E36.0817
G1 X56.067 Y73.995 E36.09235
G1 X56.324 Y73.961 E36.10097
G1 X56.332 Y77.01 E36.20238
G1 X56.294 Y77.636 E36.22324
G1 X56.342 Y77.906 E36.23236
G1 X56.557 Y78.365 E36.24922
G1 X57.015 Y78.691 E36.26792
G1 X57.399 Y78.827 E36.28147
G1 X57.875 Y78.884 E36.29741
G1 X58.351 Y78.717 E36.31419
G1 X58.703 Y78.501 E36.32793
G1 X59.03 Y78.117 E36.3447
G1 X59.211 Y77.41 E36.36898
G1 X59.188 Y76.702 E36.39254
G1 X59.192 Y73.967 E36.4835
G1 X59.862 Y73.943 E36.5058
G1 X60.362 Y73.795 E36.52314
G1 X60.578 Y73.616 E36.53247
G1 X60.958 Y73.975 E36.54986
G1 X61.084 Y74.04 E36.55458
G1 X60.904 Y74.559 E36.57285
G1 X60.962 Y75.083 E36.59038
G1 X61.086 Y75.409 E36.60198
G1 X61.375 Y75.755 E36.61698
G1 X60.956 Y75.905 E36.63178
G1 X60.684 Y76.105 E36.64301
G1 X60.416 Y76.451 E36.65757
G1 X60.242 Y76.886 E36.67315
G1 X60.274 Y77.571 E36.69596
G1 X60.531 Y78.121 E36.71615
G1 X60.893 Y78.501 E36.7336
G1 X61.354 Y78.767 E36.75131
G1 X61.628 Y78.869 E36.76103
G1 X62.335 Y79.008 E36.785
G1 X63.119 Y79.003 E36.81107
G1 X63.799 Y78.855 E36.83422
G1 X64.279 Y78.637 E36.85175
G1 X64.705 Y78.334 E36.86914
G1 X65.086 Y77.929 E36.88763
G1 X65.189 Y77.765 E36.89408
G1 X65.423 Y78.32 E36.91411
G1 X65.791 Y78.672 E36.93105
G1 X66.113 Y78.802 E36.9426
G1 X66.548 Y78.887 E36.95734
G1 X67.057 Y78.837 E36.97435
G1 X67.629 Y78.844 E36.99337
G1 X68.094 Y78.832 E37.00885
G1 X68.503 Y78.804 E37.02248
G1 X68.884 Y78.751 E37.03527
G1 X69.536 Y78.576 E37.05773
G1 X70.023 Y78.302 E37.07631
G1 X70.373 Y78.745 E37.09509
G1 X70.798 Y79.08 E37.11309
G1 X71.281 Y79.276 E37.13043
G1 X71.839 Y79.331 E37.14908
G1 X72.476 Y79.206 E37.17067
G1 X72.963 Y78.919 E37.18947
G1 X73.156 Y78.718 E37.19874
G1 X73.436 Y78.897 E37.20979
G1 X73.658 Y78.98 E37.21767
G1 X74.18 Y79.035 E37.23513
G1 X74.522 Y78.96 E37.24678
G1 X74.972 Y78.673 E37.26453
G1 X75.109 Y78.507 E37.27169
G1 X75.412 Y78.787 E37.28541
G1 X75.701 Y78.982 E37.297
G1 X76.231 Y79.072 E37.31488
G1 X76.506 Y79.019 E37.3242
G1 X76.682 Y79.043 E37.33011
G1 X76.628 Y79.191 E37.33535
G1 X76.418 Y79.499 E37.34775
G1 X76.341 Y79.792 E37.35782
G1 X76.329 Y80.266 E37.37359
G1 X76.503 Y80.744 E37.39051
G1 X76.683 Y81.036 E37.40192
G1 X77.017 Y81.369 E37.41761
G1 X77.454 Y81.533 E37.43313
G1 F898.9 X77.85 Y81.709 E37.45237
G1 F888.9 X77.482 Y81.921 E37.47144
G1 F1182.3 X76.766 Y82.03 E37.49589
G1 F1200 X76.495 Y82.062 E37.50497
G1 X75.591 Y82.124 E37.53511
G1 X75.02 Y82.136 E37.5541
G1 X75 Y82.135 E37.55477
G0 F6000 X75.005 Y82.399
G0 X77.461 Y82.129
G0 X79.003 Y81.777
G0 X80.381 Y81.291
G0 X81.075 Y80.97
G0 X83.144 Y79.856
G0 X82.875 Y79.481
G1 F1200 X82.661 Y79.267 E37.56483
G0 F6000 X82.537 Y79.709
G1 F1200 X81.908 Y79.08 E37.59442
G0 F6000 X81.283 Y78.454
G1 F1200 X81.061 Y78.232 E37.60486
G0 F6000 X80.909 Y78.647
G1 F1200 X82.192 Y79.929 E37.66519
G0 F6000 X81.831 Y80.134
G1 F1200 X80.75 Y79.053 E37.71603
G0 F6000 X80.591 Y79.46
G1 F1200 X81.47 Y80.339 E37.75738
G0 F6000 X81.096 Y80.53
G1 F1200 X80.431 Y79.865 E37.78866
G0 F6000 X80.252 Y80.252
G1 F1200 X80.706 Y80.706 E37.81001
G0 F6000 X80.314 Y80.88
G1 F1200 X80.047 Y80.613 E37.82257
G0 F6000 X79.808 Y80.94
G1 F1200 X79.914 Y81.046 E37.82756
G0 F6000 X80.083 Y81.475
G0 X77.298 Y82.214
G0 X77.231 Y81.756
G1 F1200 X77.079 Y81.604 E37.83471
G0 F6000 X76.739 Y81.831
G1 F1200 X74.141 Y79.232 E37.95693
G0 F6000 X74.614 Y79.139
G1 F1200 X76.335 Y80.86 E38.03788
G0 F6000 X76.136 Y80.095
G1 F1200 X74.96 Y78.919 E38.0932
G0 F6000 X75.807 Y79.201
G1 F1200 X76.189 Y79.583 E38.11117
G0 F6000 X76.638 Y78.774
G0 X76.866 Y78.884
G0 X76.692 Y80.682
G0 X78.35 Y81.312
G0 X80.067 Y79.708
G0 X80.915 Y77.514
G0 X81.301 Y76.861
G0 X82.013 Y78.692
G0 X84.285 Y78.866
G0 X82.933 Y79.934
G0 X81.19 Y80.935
G0 X80.019 Y81.435
G0 X78.593 Y81.878
G0 X76.254 Y82.34
G0 X76.222 Y81.879
G1 F1200 X73.467 Y79.124 E38.24075
G0 F6000 X72.941 Y79.163
G1 F1200 X75.693 Y81.915 E38.3702
G0 F6000 X75.145 Y81.933
G1 F1200 X72.586 Y79.374 E38.49057
G0 F6000 X72.125 Y79.479
G1 F1200 X74.571 Y81.925 E38.60562
G0 F6000 X73.975 Y81.894
G1 F1200 X71.592 Y79.511 E38.71771
G0 F6000 X70.819 Y79.304
G1 F1200 X73.372 Y81.858 E38.83782
G0 F6000 X72.77 Y81.821
G1 F1200 X69.675 Y78.726 E38.9834
G0 F6000 X69.246 Y78.862
G1 F1200 X72.168 Y81.785 E39.12086
G0 F6000 X71.566 Y81.748
G1 F1200 X68.783 Y78.965 E39.25177
G0 F6000 X68.273 Y79.021
G1 F1200 X70.964 Y81.712 E39.37834
G0 F6000 X70.361 Y81.675
G1 F1200 X67.728 Y79.042 E39.50219
G0 F6000 X67.159 Y79.038
G1 F1200 X69.759 Y81.638 E39.62449
G0 F6000 X69.156 Y81.602
G1 F1200 X66.63 Y79.075 E39.74333
G0 F6000 X65.933 Y78.944
G1 F1200 X68.555 Y81.565 E39.86663
G0 F6000 X67.952 Y81.529
G1 F1200 X64.871 Y78.447 E40.01158
G0 F6000 X64.546 Y78.688
G1 F1200 X67.35 Y81.492 E40.14347
G0 F6000 X66.748 Y81.456
G1 F1200 X64.19 Y78.898 E40.26379
G0 F6000 X63.792 Y79.065
G1 F1200 X66.146 Y81.419 E40.37451
G0 F6000 X65.543 Y81.382
G1 F1200 X63.324 Y79.163 E40.47889
G0 F6000 X62.8 Y79.204
G1 F1200 X64.941 Y81.346 E40.57962
G0 F6000 X64.339 Y81.31
G1 F1200 X62.216 Y79.187 E40.67948
G0 F6000 X61.496 Y79.033
G1 F1200 X63.736 Y81.273 E40.78484
G0 F6000 X63.134 Y81.236
G1 F1200 X59.393 Y77.495 E40.96081
G0 F6000 X59.281 Y77.949
G1 F1200 X62.532 Y81.2 E41.11372
G0 F6000 X61.93 Y81.163
G1 F1200 X59.104 Y78.337 E41.24665
G0 F6000 X58.843 Y78.642
G1 F1200 X61.327 Y81.126 E41.36349
G0 F6000 X60.725 Y81.09
G1 F1200 X58.5 Y78.865 E41.46815
G0 F6000 X58.091 Y79.021
G1 F1200 X60.123 Y81.054 E41.56375
G0 F6000 X59.521 Y81.017
G1 F1200 X57.551 Y79.047 E41.65641
G0 F6000 X57.607 Y78.593
G0 X56.828 Y78.243
G0 X56.545 Y78.606
G1 F1200 X58.918 Y80.98 E41.76805
G0 F6000 X58.317 Y80.944
G1 F1200 X55.253 Y77.88 E41.91218
G0 F6000 X55.014 Y78.207
G1 F1200 X57.714 Y80.907 E42.03918
G0 F6000 X57.112 Y80.87
G1 F1200 X54.738 Y78.497 E42.15082
G0 F6000 X54.405 Y78.729
G1 F1200 X56.51 Y80.834 E42.24983
G0 F6000 X55.907 Y80.798
G1 F1200 X54.037 Y78.927 E42.33781
G0 F6000 X53.622 Y79.078
G1 F1200 X55.305 Y80.761 E42.41698
G0 F6000 X54.702 Y80.724
G1 F1200 X53.165 Y79.186 E42.4893
G0 F6000 X52.619 Y79.207
G1 F1200 X54.101 Y80.688 E42.55898
G0 F6000 X53.498 Y80.651
G1 F1200 X52.031 Y79.184 E42.62798
G0 F6000 X51.276 Y78.994
G1 F1200 X52.896 Y80.614 E42.70418
G0 F6000 X52.294 Y80.578
G1 F1200 X50.284 Y78.569 E42.7987
G0 F6000 X50.284 Y79.134
G1 F1200 X51.692 Y80.542 E42.86493
G0 F6000 X51.089 Y80.505
G1 F1200 X50.284 Y79.699 E42.90282
G0 F6000 X49.826 Y79.698
G0 X49.913 Y77.48
G0 X51.437 Y78.306
G0 X52.042 Y78.475
G0 X53.062 Y78.485
G0 X53.88 Y78.232
G0 X54.255 Y77.979
G0 X54.585 Y77.637
G0 X54.827 Y77.093
G0 X54.787 Y76.745
G0 X54.6 Y76.428
G0 X54.326 Y76.215
G0 X53.824 Y76.088
G0 X52.707 Y76.339
G0 X52.651 Y75.844
G1 F1200 X52.246 Y75.439 E42.92187
G0 F6000 X52.225 Y74.852
G1 F1200 X52.976 Y75.603 E42.9572
G0 F6000 X53.384 Y75.445
G1 F1200 X52.291 Y74.352 E43.00861
G0 F6000 X52.614 Y74.11
G1 F1200 X53.884 Y75.38 E43.06834
G0 F6000 X54.715 Y75.645
G1 F1200 X53.604 Y74.535 E43.12058
G0 F6000 X54.157 Y74.522
G1 F1200 X56.131 Y76.496 E43.21343
G0 F6000 X56.128 Y77.058
G1 F1200 X55.323 Y76.253 E43.25129
G0 F6000 X55.52 Y77.016
G1 F1200 X56.093 Y77.589 E43.27825
G0 F6000 X55.424 Y77.486
G1 F1200 X56.366 Y78.427 E43.32253
G0 F6000 X56.746 Y78.135
G0 X56.584 Y75.929
G0 X56.129 Y75.928
G1 F1200 X54.581 Y74.38 E43.39534
G0 F6000 X54.916 Y74.149
G1 F1200 X56.127 Y75.361 E43.45233
G0 F6000 X56.126 Y74.794
G1 F1200 X55.466 Y74.134 E43.48337
G0 F6000 X55.555 Y73.684
G0 X56.511 Y73.75
G0 X56.794 Y77.671
G0 X56.984 Y78.065
G0 X57.366 Y78.309
G0 X57.809 Y78.368
G0 X58.312 Y78.195
G0 X58.579 Y77.856
G0 X58.65 Y77.557
G0 X58.932 Y74.663
G0 X59.391 Y74.664
G1 F1200 X60.626 Y75.899 E43.54146
G0 F6000 X60.359 Y76.198
G1 F1200 X59.39 Y75.229 E43.58704
G0 F6000 X59.389 Y75.794
G1 F1200 X60.157 Y76.562 E43.62317
G0 F6000 X60.049 Y77.019
G1 F1200 X59.388 Y76.358 E43.65426
G0 F6000 X59.394 Y76.93
G1 F1200 X60.075 Y77.611 E43.68629
G0 F6000 X60.529 Y77.508
G0 X60.932 Y76.574
G0 X61.935 Y75.93
G0 X62.678 Y76.192
G0 X62.48 Y76.001
G0 X61.846 Y75.759
G0 X60.98 Y75.688
G1 F1200 X59.451 Y74.159 E43.75821
G0 F6000 X59.975 Y74.118
G1 F1200 X60.739 Y74.881 E43.79412
G0 F6000 X60.767 Y74.344
G1 F1200 X60.412 Y73.988 E43.81085
G0 F6000 X60.252 Y73.561
G0 X60.846 Y72.267
G0 X61.076 Y71.975
G0 X61.748 Y71.582
G0 X62.705 Y71.421
G0 X63.436 Y71.481
G0 X63.886 Y71.615
G0 X64.309 Y71.843
G0 X64.677 Y72.261
G0 X65.313 Y73.77
G0 X65.64 Y72.495
G0 X65.692 Y72.141
G0 X65.884 Y71.858
G0 X66.27 Y71.646
G0 X66.652 Y71.585
G0 X68.524 Y71.638
G0 X69.475 Y71.859
G0 X69.975 Y72.157
G0 X70.459 Y72.669
G0 X70.82 Y73.357
G0 X71.05 Y74.458
G0 X71.018 Y75.699
G0 X72.265 Y76.036
G0 X73.08 Y76.3
G0 X73.27 Y76.121
G1 F1200 X73.006 Y75.842 E43.82362
G1 X72.605 Y75.586 E43.83944
G1 X72.134 Y75.43 E43.85595
G1 X71.561 Y75.412 E43.87501
G1 X71.581 Y74.955 E43.89023
G1 X71.552 Y74.366 E43.90984
G1 X71.507 Y74.021 E43.92141
G1 X71.441 Y73.681 E43.93293
G1 X71.281 Y73.145 E43.95154
G1 X70.873 Y72.363 E43.98088
G1 X70.309 Y71.769 E44.00812
G1 X69.708 Y71.396 E44.03164
G1 X69.106 Y71.208 E44.05262
G1 X68.63 Y71.134 E44.06864
G1 X68.218 Y71.096 E44.0824
G1 X67.79 Y71.084 E44.09665
G1 X67.345 Y71.088 E44.11145
G1 X66.603 Y71.076 E44.13613
G1 X66.091 Y71.156 E44.15336
G1 X65.527 Y71.475 E44.17492
G1 X65.28 Y71.832 E44.18935
G1 X65.174 Y72.124 E44.19969
G1 X65.01 Y71.863 E44.20994
G1 X64.628 Y71.429 E44.22917
G1 X64.089 Y71.146 E44.24942
G1 X63.564 Y70.98 E44.26773
G1 X63.088 Y70.921 E44.28368
G1 X62.64 Y70.908 E44.29859
G1 X62.338 Y70.926 E44.30865
G1 X61.938 Y70.994 E44.32215
G1 X61.533 Y71.116 E44.33622
G1 X61.193 Y71.269 E44.34862
G1 X60.787 Y71.553 E44.3651
G1 X60.59 Y71.358 E44.37432
G1 X60.246 Y71.163 E44.38747
G1 X59.858 Y71.08 E44.40066
G1 X59.157 Y71.088 E44.42398
G1 X57.081 Y71.084 E44.49303
G1 X56.492 Y71.092 E44.51262
G1 X55.875 Y71.04 E44.53322
G1 X55.426 Y71.117 E44.54837
G1 X55.194 Y71.211 E44.55669
G1 X54.859 Y71.449 E44.57036
G1 X54.708 Y71.672 E44.57932
G1 X54.439 Y71.444 E44.59105
G1 X53.964 Y71.17 E44.60929
G1 X53.376 Y70.981 E44.62983
G1 X52.944 Y70.921 E44.64433
G1 X52.275 Y70.912 E44.66659
G1 X51.673 Y71.021 E44.68694
G1 X51.202 Y71.173 E44.7034
G1 X50.504 Y71.556 E44.72988
G1 X50.084 Y71.976 E44.74963
G1 X50.084 Y70.058 E44.81343
G1 X50.147 Y69.769 E44.82326
G1 X50.358 Y69.46 E44.83571
G1 X50.685 Y69.314 E44.84762
G1 X74.278 Y67.882 E45.63377
G1 X75.005 Y67.861 E45.65796
G1 X75.754 Y67.88 E45.68288
G1 X76.467 Y67.932 E45.70666
G1 X77.438 Y68.058 E45.73922
G1 X78.163 Y68.207 E45.76384
G1 X78.658 Y68.333 E45.78083
G1 X79.28 Y68.519 E45.80242
G1 X79.666 Y68.645 E45.81593
G1 X80.09 Y68.803 E45.83098
G1 X80.749 Y69.079 E45.85474
G1 X81.21 Y69.301 E45.87176
G1 X81.831 Y69.62 E45.89498
G1 X82.308 Y69.9 E45.91338
G1 X82.796 Y70.207 E45.93255
G1 X83.197 Y70.493 E45.94893
G1 X83.798 Y70.952 E45.97409
G1 X84.253 Y71.335 E45.99387
G1 X84.788 Y71.837 E46.01827
G1 X85.375 Y72.442 E46.04631
G1 X85.479 Y72.6 E46.0526
G1 X85.137 Y72.528 E46.06422
G1 X82.79 Y72.525 E46.14228
G1 X82.278 Y72.59 E46.15945
G1 X81.751 Y72.878 E46.17942
G1 X81.648 Y72.786 E46.18402
G1 X81.36 Y72.621 E46.19506
G1 X80.996 Y72.532 E46.20752
G1 X80.59 Y72.533 E46.22102
G1 X80.109 Y72.766 E46.2388
G1 X79.694 Y73.223 E46.25933
G1 X79.552 Y73.49 E46.26939
G1 X79.407 Y73.16 E46.28138
G1 X78.962 Y72.744 E46.30164
G1 X78.424 Y72.545 E46.32072
G1 X77.983 Y72.514 E46.33542
G1 X77.54 Y72.632 E46.35067
G1 X77.242 Y72.817 E46.36234
G1 X77.143 Y72.918 E46.36704
G1 X77.047 Y72.819 E46.37163
G1 X76.837 Y72.676 E46.38008
G1 X76.426 Y72.529 E46.39459
G1 X76.082 Y72.523 E46.40604
G1 X75.508 Y72.703 E46.42605
G1 X75.176 Y73.001 E46.44088
G1 X74.884 Y72.725 E46.45425
G1 X74.396 Y72.534 E46.47168
G1 X74.119 Y72.52 E46.4809
G1 X73.59 Y72.601 E46.4987
G1 X73.157 Y72.88 E46.51583
G1 X72.897 Y73.198 E46.5295
G1 X72.757 Y73.473 E46.53976
G1 X72.68 Y74.043 E46.55889
G1 X72.882 Y74.656 E46.58036
G1 X73.495 Y75.739 E46.62175
G1 X73.27 Y76.121 E46.63649
G0 F6000 X73.08 Y76.3
G0 X73.306 Y76.429
G0 X73.911 Y75.438
G0 X73.363 Y74.478
G0 X73.202 Y73.995
G0 X73.269 Y73.561
G0 X73.494 Y73.264
G0 X73.777 Y73.092
G0 X74.23 Y73.022
G0 X75.379 Y73.51
G0 X75.772 Y73.162
G0 X76.261 Y73.011
G0 X77.391 Y73.39
G0 X77.661 Y73.125
G0 X78.031 Y73.03
G0 X78.342 Y73.055
G0 X78.681 Y73.185
G0 X79.809 Y74.251
G0 X80.118 Y73.522
G0 X80.422 Y73.182
G0 X80.709 Y73.042
G0 X81.072 Y73.048
G0 X81.997 Y73.333
G0 X82.442 Y73.083
G0 X85.783 Y72.873
G0 X85.698 Y72.457
G0 X84.769 Y72.324
G1 F1200 X83.173 Y70.728 E46.71156
G0 F6000 X83.452 Y70.362
G0 X84.939 Y71.701
G0 X85.536 Y72.321
G0 X86.048 Y73.058
G0 X83.074 Y72.785
G0 X83.074 Y72.326
G1 F1200 X79.574 Y68.826 E46.87619
G0 F6000 X78.753 Y68.57
G1 F1200 X82.538 Y72.355 E47.05423
G0 F6000 X82.084 Y72.468
G1 F1200 X77.993 Y68.377 E47.24666
G0 F6000 X77.292 Y68.241
G1 F1200 X81.561 Y72.51 E47.44746
G0 F6000 X80.817 Y72.332
G1 F1200 X76.642 Y68.157 E47.64384
G0 F6000 X76.02 Y68.101
G1 F1200 X80.348 Y72.428 E47.84739
G0 F6000 X79.974 Y72.62
G1 F1200 X75.426 Y68.072 E48.06131
G0 F6000 X74.854 Y68.065
G1 F1200 X79.704 Y72.915 E48.28944
G0 F6000 X80.041 Y73.225
G0 X79.519 Y73.929
G0 X78.464 Y72.834
G0 X78.627 Y72.404
G1 F1200 X74.304 Y68.082 E48.49276
G0 F6000 X73.771 Y68.114
G1 F1200 X77.969 Y72.312 E48.69022
G0 F6000 X77.517 Y72.425
G1 F1200 X73.238 Y68.147 E48.89147
G0 F6000 X72.704 Y68.179
G1 F1200 X77.159 Y72.633 E49.10099
G0 F6000 X76.287 Y72.327
G1 F1200 X72.171 Y68.211 E49.2946
G0 F6000 X71.638 Y68.244
G1 F1200 X75.795 Y72.401 E49.49013
G0 F6000 X75.384 Y72.556
G1 F1200 X71.105 Y68.276 E49.69143
G0 F6000 X70.571 Y68.308
G1 F1200 X74.705 Y72.442 E49.88588
G0 F6000 X74.028 Y72.331
G1 F1200 X70.038 Y68.34 E50.07358
G0 F6000 X69.504 Y68.373
G1 F1200 X73.538 Y72.406 E50.2633
G0 F6000 X73.188 Y72.623
G1 F1200 X68.97 Y68.405 E50.4617
G0 F6000 X68.437 Y68.437
G1 F1200 X72.891 Y72.891 E50.6712
G0 F6000 X72.663 Y73.229
G1 F1200 X67.904 Y68.47 E50.89505
G0 F6000 X67.371 Y68.502
G1 F1200 X72.53 Y73.661 E51.13772
G0 F6000 X72.524 Y74.221
G1 F1200 X71.51 Y73.207 E51.18541
G0 F6000 X71.698 Y73.961
G1 F1200 X72.984 Y75.247 E51.2459
G0 F6000 X72.516 Y75.344
G1 F1200 X71.763 Y74.591 E51.28132
G0 F6000 X71.305 Y74.611
G0 X70.82 Y73.357
G0 X70.459 Y72.669
G0 X69.258 Y71.524
G0 X69.39 Y71.087
G1 F1200 X66.837 Y68.534 E51.40141
G0 F6000 X66.304 Y68.567
G1 F1200 X68.675 Y70.938 E51.51293
G0 F6000 X68.063 Y70.892
G1 F1200 X65.771 Y68.599 E51.62076
G0 F6000 X65.238 Y68.632
G1 F1200 X67.493 Y70.887 E51.72683
G0 F6000 X66.921 Y70.881
G1 F1200 X64.704 Y68.664 E51.83111
G0 F6000 X64.171 Y68.696
G1 F1200 X66.383 Y70.909 E51.93518
G0 F6000 X65.929 Y71.02
G1 F1200 X63.637 Y68.729 E52.04297
G0 F6000 X63.104 Y68.761
G1 F1200 X65.567 Y71.224 E52.15882
G0 F6000 X65.274 Y71.496
G1 F1200 X62.57 Y68.793 E52.28598
G0 F6000 X62.037 Y68.826
G1 F1200 X64.18 Y70.968 E52.38676
G0 F6000 X63.406 Y70.76
G1 F1200 X61.504 Y68.858 E52.47622
G0 F6000 X60.971 Y68.891
G1 F1200 X62.792 Y70.712 E52.56188
G0 F6000 X62.254 Y70.74
G1 F1200 X60.437 Y68.922 E52.64737
G0 F6000 X59.904 Y68.955
G1 F1200 X61.781 Y70.832 E52.73566
G0 F6000 X61.359 Y70.976
G1 F1200 X59.371 Y68.987 E52.82919
G0 F6000 X58.837 Y69.019
G1 F1200 X60.987 Y71.169 E52.93032
G0 F6000 X60.2 Y70.948
G1 F1200 X58.304 Y69.052 E53.0195
G0 F6000 X57.771 Y69.084
G1 F1200 X59.566 Y70.88 E53.10395
G0 F6000 X59.008 Y70.887
G1 F1200 X57.237 Y69.117 E53.18723
G0 F6000 X56.704 Y69.149
G1 F1200 X58.441 Y70.886 E53.26894
G0 F6000 X57.875 Y70.885
G1 F1200 X56.17 Y69.181 E53.34911
G0 F6000 X55.637 Y69.214
G1 F1200 X57.307 Y70.884 E53.42766
G0 F6000 X56.746 Y70.888
G1 F1200 X55.104 Y69.246 E53.5049
G0 F6000 X54.57 Y69.278
G1 F1200 X56.156 Y70.863 E53.57947
G0 F6000 X55.608 Y70.881
G1 F1200 X54.037 Y69.311 E53.65335
G0 F6000 X53.504 Y69.343
G1 F1200 X55.168 Y71.008 E53.73164
G0 F6000 X54.825 Y71.23
G1 F1200 X52.971 Y69.376 E53.81885
G0 F6000 X52.437 Y69.407
G1 F1200 X53.994 Y70.965 E53.89211
G0 F6000 X53.225 Y70.761
G1 F1200 X51.904 Y69.44 E53.95424
G0 F6000 X51.371 Y69.473
G1 F1200 X52.615 Y70.717 E54.01276
G0 F6000 X52.077 Y70.745
G1 F1200 X50.837 Y69.505 E54.07108
G0 F6000 X50.448 Y69.681
G1 F1200 X51.603 Y70.836 E54.12541
G0 F6000 X51.173 Y70.972
G1 F1200 X50.284 Y70.083 E54.16722
G0 F6000 X50.284 Y70.648
G1 F1200 X50.799 Y71.163 E54.19145
G0 F6000 X50.435 Y71.365
G1 F1200 X50.284 Y71.214 E54.19855
G1 F2700 E49.19855
G0 F6000 X49.824 Y71.214
G0 X49.885 Y70.039
G0 X49.964 Y69.691
G0 X50.23 Y69.302
G0 X50.637 Y69.119
G0 X75.006 Y67.661
G0 X76.482 Y67.734
G0 X78.201 Y68.014
G0 X80.686 Y68.772
G0 X80.509 Y69.195
G1 F2700 E54.19855
G1 F1200 X83.639 Y72.326 E54.3458
G0 F6000 X84.204 Y72.324
G1 F1200 X81.611 Y69.731 E54.46777
G0 F6000 X81.82 Y69.322
G0 X83.95 Y70.816
G0 X85.536 Y72.321
G0 X86.048 Y73.058
G0 X85.783 Y72.873
G0 X81.755 Y73.147
G0 X80.229 Y72.93
G0 X79.519 Y73.929
G0 X78.681 Y73.185
G0 X78.342 Y73.055
G0 X78.031 Y73.03
G0 X77.661 Y73.125
G0 X77.391 Y73.39
G0 X76.554 Y75.703
G0 X77.248 Y76.968
G0 X77.558 Y76.769
G1 F963.9 X77.146 Y76.356 E54.49192
G1 F1243.5 X76.801 Y75.687 E54.51608
G1 F1167.9 X77.084 Y75.226 E54.53457
G1 F1132.1 X77.241 Y75.627 E54.54975
G1 F1206 X77.478 Y76.192 E54.57003
G1 F963.9 X77.558 Y76.769 E54.59415
G0 F6000 X77.248 Y76.968
G0 X76.986 Y78.833
G0 X77.462 Y78.747
G1 F1340.8 X77.232 Y78.732 E54.60101
G1 X77.343 Y78.494 E54.60883
G1 F1363.6 X77.474 Y78.278 E54.61622
G1 F1383.3 X77.586 Y77.988 E54.62519
G1 F1256.5 X77.65 Y77.643 E54.63634
G1 F1098.4 X77.672 Y77.605 E54.63793
G1 F863.3 X77.743 Y77.292 E54.65277
G1 F897.2 X78.004 Y77.586 E54.67026
G1 F1218.3 X78.058 Y77.695 E54.67424
G1 F1297.3 X77.741 Y78.539 E54.70198
G1 F1326 X77.645 Y78.682 E54.70717
G1 F1340.8 X77.462 Y78.747 E54.71295
G0 F6000 X77.164 Y78.969
G0 X77.76 Y78.831
G0 X78.282 Y77.708
G0 X78.096 Y77.135
G0 X77.743 Y77.292
G1 F752.4 X77.558 Y76.769 E54.74238
G0 F6000 X77.248 Y76.968
G0 X76.554 Y75.703
G0 X77.111 Y74.799
G0 X78.582 Y77.814
G0 X77.353 Y79.288
G0 X77.046 Y79.465
G0 X76.854 Y79.79
G0 X76.839 Y80.189
G0 X77.011 Y80.643
G0 X77.287 Y80.928
G0 X77.729 Y81.092
G0 X78.261 Y81.016
G0 X78.847 Y80.812
G0 X79.356 Y80.401
G0 X81.316 Y76.45
G0 X81.568 Y76.37
G1 F1212.1 X81.56 Y76.246 E54.74647
G1 X81.927 Y75.154 E54.7844
G1 X82.102 Y75.27 E54.79132
G1 X82.352 Y75.354 E54.8
G1 X81.668 Y76.298 E54.83838
G1 X81.568 Y76.37 E54.84244
G0 F6000 X81.316 Y76.45
G0 X81.231 Y77.218
G0 X83.334 Y74.902
G0 X82.437 Y74.874
G0 X82.083 Y74.681
G0 X81.876 Y74.411
G0 X81.789 Y74.112
G0 X81.81 Y73.719
G0 X81.997 Y73.333
G0 X82.442 Y73.083
G0 X82.888 Y73.032
G0 X85.068 Y73.036
G0 X85.365 Y73.097
G0 X85.669 Y73.296
G0 X85.849 Y73.621
G0 X85.907 Y73.905
G0 X85.876 Y74.332
G0 X85.726 Y74.7
G0 X84.57 Y76.679
G0 X85.038 Y76.654
G0 X86.149 Y76.93
G0 X86.134 Y76.653
G1 F1200 X85.87 Y76.386 E54.85493
G1 X85.571 Y76.259 E54.86574
G1 X85.312 Y76.192 E54.87463
G1 X85.88 Y75.388 E54.90737
G1 X86.185 Y74.934 E54.92557
G1 X86.382 Y74.401 E54.94447
G1 X86.418 Y73.753 E54.96605
G1 X86.831 Y74.358 E54.99042
G1 X87.139 Y74.877 E55.01049
G1 X87.151 Y75.083 E55.01735
G1 X86.779 Y75.716 E55.04177
G1 X86.134 Y76.653 E55.07961
G0 F6000 X85.662 Y76.045
G1 F1200 X85.725 Y76.109 E55.08259
G0 F6000 X85.895 Y75.713
G1 F1200 X86.276 Y76.094 E55.10051
G0 F6000 X86.506 Y75.758
G1 F1200 X86.127 Y75.379 E55.11834
G0 F6000 X86.354 Y75.04
G1 F1200 X86.726 Y75.412 E55.13584
G0 F6000 X86.936 Y75.057
G1 F1200 X86.511 Y74.632 E55.15583
G0 F6000 X86.06 Y73.024
G1 F2700 E50.15583
;MESH:NONMESH
G0 F300 X86.06 Y73.024 Z0.4
G0 F6000 X86.108 Y73.058
G0 X85.812 Y72.771
G0 X86.034 Y73.049
G0 X85.783 Y72.873
G0 X50.82 Y68.775
G0 X50.688 Y67.69
G0 X43.725 Y60.184
;TIME_ELAPSED:125.245505
;LAYER:1
M106 S85
;TYPE:SKIRT
G1 F2700 E55.15583
G1 F1200 X44.474 Y59.68 E55.18586
G1 X45.495 Y59.134 E55.22437
G1 X46.085 Y58.874 E55.24581
G1 X46.37 Y58.759 E55.25603
G1 X47.222 Y58.458 E55.28609
G1 X48.028 Y58.249 E55.31378
G1 X48.685 Y58.115 E55.33608
G1 X49.433 Y58.012 E55.3612
G1 X49.93 Y57.966 E55.3778
G1 X72.977 Y56.495 E56.1459
G1 X74.221 Y56.437 E56.18732
G1 X74.791 Y56.423 E56.20629
G1 X75.553 Y56.43 E56.23163
G1 X76.83 Y56.492 E56.27416
G1 X77.228 Y56.521 E56.28743
G1 X78.007 Y56.6 E56.31347
G1 X78.811 Y56.704 E56.34043
G1 X79.47 Y56.807 E56.36262
G1 X80.561 Y57.024 E56.39962
G1 X81.297 Y57.195 E56.42475
G1 X82.357 Y57.488 E56.46133
G1 X82.844 Y57.637 E56.47826
G1 X83.748 Y57.944 E56.51002
G1 X84.187 Y58.106 E56.52558
G1 X84.871 Y58.382 E56.55011
G1 X85.775 Y58.782 E56.58299
G1 X86.638 Y59.196 E56.61483
G1 X87.414 Y59.601 E56.64394
G1 X87.871 Y59.865 E56.6615
G1 X88.878 Y60.477 E56.70069
G1 X89.392 Y60.808 E56.72102
G1 X89.774 Y61.072 E56.73647
G1 X90.48 Y61.593 E56.76565
G1 X91.357 Y62.281 E56.80272
G1 X91.858 Y62.696 E56.82436
G1 X92.189 Y62.986 E56.839
G1 X92.683 Y63.449 E56.86152
G1 X93.331 Y64.086 E56.89174
G1 X93.834 Y64.605 E56.91578
G1 X94.145 Y64.945 E56.9311
G1 X94.549 Y65.408 E56.95154
G1 X94.883 Y65.812 E56.96898
G1 X95.426 Y66.503 E56.99821
G1 X96.018 Y67.306 E57.03139
G1 X96.465 Y67.957 E57.05765
G1 X96.842 Y68.541 E57.08077
G1 X97.288 Y69.296 E57.10994
G1 X97.704 Y70.098 E57.13999
G1 X97.937 Y70.641 E57.15964
G1 X98.129 Y71.138 E57.17736
G1 X98.404 Y71.998 E57.20739
G1 X98.604 Y72.884 E57.2376
G1 X98.714 Y73.614 E57.26216
G1 X98.79 Y74.514 E57.2922
G1 X98.772 Y75.646 E57.32985
G1 X98.747 Y75.996 E57.34152
G1 X98.643 Y76.893 E57.37156
G1 X98.46 Y77.777 E57.40158
G1 X98.288 Y78.378 E57.42237
G1 X98.016 Y79.153 E57.44969
G1 X97.665 Y79.986 E57.47976
G1 X97.355 Y80.587 E57.50225
G1 X97.075 Y81.063 E57.52062
G1 X96.604 Y81.818 E57.55021
G1 X96.128 Y82.534 E57.57881
G1 X95.458 Y83.461 E57.61685
G1 X95.099 Y83.927 E57.63642
G1 X94.793 Y84.298 E57.65241
G1 X94.252 Y84.923 E57.67991
G1 X93.552 Y85.68 E57.7142
G1 X93.266 Y85.974 E57.72784
G1 X92.606 Y86.623 E57.75863
G1 X92.274 Y86.936 E57.7738
G1 X91.864 Y87.293 E57.79189
G1 X90.731 Y88.22 E57.84058
G1 X90.173 Y88.64 E57.8638
G1 X89.658 Y89.008 E57.88486
G1 X89.232 Y89.298 E57.902
G1 X88.375 Y89.836 E57.93565
G1 X88.031 Y90.04 E57.94895
G1 X86.979 Y90.629 E57.98906
G1 X86.285 Y90.985 E58.015
G1 X85.72 Y91.254 E58.03581
G1 X84.752 Y91.671 E58.07087
G1 X84.247 Y91.869 E58.08891
G1 X82.972 Y92.321 E58.1339
G1 X81.936 Y92.628 E58.16984
G1 X80.88 Y92.899 E58.2061
G1 X80.3 Y93.029 E58.22587
G1 X79.277 Y93.217 E58.26046
G1 X78.876 Y93.28 E58.27397
G1 X77.63 Y93.443 E58.31576
G1 X76.748 Y93.522 E58.34521
G1 X75.42 Y93.572 E58.38941
G1 X74.775 Y93.578 E58.41087
G1 X74.3 Y93.567 E58.42667
G1 X72.691 Y93.49 E58.48025
G1 X50.484 Y92.076 E59.22035
G1 X49.963 Y92.035 E59.23773
G1 X49.212 Y91.957 E59.26285
G1 X49.213 Y91.95 E59.26308
G1 X48.528 Y91.858 E59.28607
G1 X47.486 Y91.615 E59.32166
G1 X46.865 Y91.425 E59.34326
G1 X45.959 Y91.086 E59.37543
G1 X45.011 Y90.621 E59.41055
G1 X44.469 Y90.305 E59.43142
G1 X44.195 Y90.133 E59.44218
G1 X43.48 Y89.648 E59.47091
G1 X42.552 Y88.865 E59.5113
G1 X42.136 Y88.464 E59.53051
G1 X41.523 Y87.801 E59.56055
G1 X40.971 Y87.087 E59.59056
G1 X40.365 Y86.115 E59.62866
G1 X39.983 Y85.4 E59.65562
G1 X39.51 Y84.311 E59.69511
G1 X39.26 Y83.567 E59.72122
G1 X39.027 Y82.694 E59.75127
G1 X38.912 Y82.08 E59.77205
G1 X38.82 Y81.381 E59.7955
G1 X38.765 Y80.504 E59.82472
G1 X38.74 Y79.149 E59.8698
G1 X38.741 Y70.382 E60.16139
G1 X38.749 Y69.787 E60.18118
G1 X38.804 Y68.859 E60.2121
G1 X38.838 Y68.535 E60.22294
G1 X39.051 Y67.274 E60.26547
G1 X39.125 Y66.958 E60.27627
G1 X39.369 Y66.089 E60.30629
G1 X39.689 Y65.246 E60.33628
G1 X39.985 Y64.587 E60.36031
G1 X40.401 Y63.785 E60.39035
G1 X40.886 Y63.023 E60.4204
G1 X41.708 Y61.995 E60.46418
G1 X42.353 Y61.328 E60.49504
G1 X43.023 Y60.722 E60.52508
G1 X43.725 Y60.184 E60.5545
G1 F2700 E55.5545
;MESH:3DBenchy.stl
G0 F7500 X50.368 Y67.616
G0 X75 Y82.637
;TYPE:WALL-INNER
G1 F2700 E60.5545
G1 F1350 X75.273 Y82.639 E60.56358
G1 X76.064 Y82.605 E60.58991
G1 X76.71 Y82.547 E60.61149
G1 X77.702 Y82.397 E60.64485
G1 X78.452 Y82.236 E60.67037
G1 X79.1 Y82.066 E60.69265
G1 X79.509 Y81.941 E60.70687
G1 X80.284 Y81.67 E60.73418
G1 X80.723 Y81.492 E60.74994
G1 X81.311 Y81.225 E60.77142
G1 X81.78 Y80.995 E60.78879
G1 X82.215 Y80.758 E60.80527
G1 X82.734 Y80.45 E60.82534
G1 X83.362 Y80.038 E60.85032
G1 X83.942 Y79.616 E60.87418
G1 X84.47 Y79.188 E60.89678
G1 X84.696 Y78.992 E60.90673
G1 X85.145 Y78.578 E60.92705
G1 X85.502 Y78.225 E60.94374
G1 X85.799 Y77.908 E60.95819
G1 X86.159 Y77.498 E60.97634
G1 X86.469 Y77.123 E60.99252
G1 X86.835 Y76.642 E61.01263
G1 X87.12 Y76.234 E61.02918
G1 X87.677 Y75.339 E61.06424
G1 X87.741 Y75.169 E61.07028
G1 X87.735 Y74.757 E61.08399
G1 X87.373 Y74.152 E61.10744
G1 X87.193 Y73.871 E61.11854
G1 X86.817 Y73.338 E61.14023
G1 X86.55 Y72.981 E61.15506
G1 X86.175 Y72.517 E61.1749
G1 X85.909 Y72.209 E61.18844
G1 X85.568 Y71.844 E61.20505
G1 X85.225 Y71.495 E61.22132
G1 X84.689 Y70.997 E61.24566
G1 X84.313 Y70.678 E61.26206
G1 X83.732 Y70.225 E61.28656
G1 X83.351 Y69.951 E61.30217
G1 X82.777 Y69.573 E61.32503
G1 X82.408 Y69.352 E61.33934
G1 X81.752 Y68.988 E61.36429
G1 X81.231 Y68.729 E61.38364
G1 X81.219 Y68.737 E61.38412
G1 X80.953 Y68.606 E61.39398
G1 X80.495 Y68.413 E61.41051
G1 X80.109 Y68.264 E61.42427
G1 X79.534 Y68.065 E61.44451
G1 X78.646 Y67.81 E61.47524
G1 X77.85 Y67.629 E61.50239
G1 X77.156 Y67.51 E61.52581
G1 X76.511 Y67.43 E61.54743
G1 X75.87 Y67.379 E61.56882
G1 X75.537 Y67.364 E61.5799
G1 X75.029 Y67.357 E61.5968
G1 X74.12 Y67.384 E61.62705
G1 X50.636 Y68.848 E62.40964
G1 X50.385 Y68.906 E62.41821
G1 X50.094 Y69.042 E62.4289
G1 X49.828 Y69.332 E62.44198
G1 X49.722 Y69.519 E62.44913
G1 X49.636 Y69.856 E62.4607
G1 X49.636 Y80.139 E62.80272
G1 X49.722 Y80.48 E62.81441
G1 X49.877 Y80.749 E62.82474
G1 X50.177 Y80.994 E62.83762
G1 X50.452 Y81.121 E62.8477
G1 X50.735 Y81.158 E62.85719
G1 X74.502 Y82.632 E63.6492
G1 X75 Y82.637 E63.66577
G0 F7500 X75 Y83.037
;TYPE:WALL-OUTER
G1 F1350 X75.28 Y83.039 E63.67508
G1 X76.09 Y83.004 E63.70204
G1 X76.756 Y82.945 E63.72428
G1 X77.579 Y82.826 E63.75194
G1 X78.545 Y82.625 E63.78476
G1 X79.209 Y82.451 E63.80759
G1 X79.633 Y82.321 E63.82234
G1 X80.425 Y82.044 E63.85025
G1 X80.881 Y81.86 E63.8666
G1 X81.482 Y81.587 E63.88855
G1 X81.964 Y81.35 E63.90642
G1 X82.413 Y81.106 E63.92342
G1 X82.946 Y80.79 E63.94402
G1 X83.59 Y80.367 E63.96965
G1 X84.186 Y79.933 E63.99417
G1 X84.727 Y79.494 E64.01735
G1 X84.962 Y79.29 E64.0277
G1 X85.421 Y78.867 E64.04846
G1 X85.788 Y78.504 E64.06563
G1 X86.095 Y78.177 E64.08054
G1 X86.463 Y77.758 E64.09909
G1 X86.783 Y77.371 E64.11579
G1 X87.158 Y76.878 E64.1364
G1 X87.418 Y76.508 E64.15144
G1 X87.865 Y75.807 E64.17909
G1 X88.039 Y75.513 E64.19045
G1 X88.132 Y75.267 E64.1992
G1 X88.162 Y75.03 E64.20714
G1 X88.128 Y74.73 E64.21719
G1 X88.042 Y74.491 E64.22563
G1 X87.699 Y73.919 E64.24782
G1 X87.521 Y73.642 E64.25877
G1 X87.137 Y73.098 E64.28092
G1 X86.866 Y72.735 E64.29598
G1 X86.482 Y72.261 E64.31627
G1 X86.207 Y71.942 E64.33028
G1 X85.854 Y71.564 E64.34748
G1 X85.504 Y71.208 E64.36409
G1 X84.955 Y70.698 E64.38901
G1 X84.565 Y70.368 E64.406
G1 X83.972 Y69.905 E64.43102
G1 X83.578 Y69.621 E64.44718
G1 X82.989 Y69.234 E64.47062
G1 X82.608 Y69.006 E64.48539
G1 X81.938 Y68.634 E64.51088
G1 X81.387 Y68.36 E64.53134
G1 X81.374 Y68.369 E64.53187
G1 X81.12 Y68.242 E64.54131
G1 X80.645 Y68.042 E64.55846
G1 X80.247 Y67.888 E64.57265
G1 X79.655 Y67.683 E64.59349
G1 X78.746 Y67.422 E64.62494
G1 X77.928 Y67.237 E64.65284
G1 X77.214 Y67.114 E64.67693
G1 X76.551 Y67.032 E64.69915
G1 X75.895 Y66.98 E64.72104
G1 X75.549 Y66.964 E64.73256
G1 X75.026 Y66.957 E64.74996
G1 X74.102 Y66.984 E64.7807
G1 X50.578 Y68.451 E65.56463
G1 X50.254 Y68.526 E65.5757
G1 X49.853 Y68.713 E65.59041
G1 X49.503 Y69.095 E65.60764
G1 X49.348 Y69.368 E65.61808
G1 X49.236 Y69.807 E65.63315
G1 X49.236 Y80.188 E65.97843
G1 X49.348 Y80.632 E65.99366
G1 X49.567 Y81.012 E66.00824
G1 X49.963 Y81.336 E66.02526
G1 X50.34 Y81.509 E66.03906
G1 X50.696 Y81.556 E66.051
G1 X74.488 Y83.032 E66.84385
G1 X75 Y83.037 E66.86088
G0 F7500 X75 Y82.275
;TYPE:SKIN
G1 F1350 X74.523 Y82.272 E66.87674
G1 X50.591 Y80.786 E67.67426
G1 X50.372 Y80.685 E67.68228
G1 X50.156 Y80.508 E67.69157
G1 X50.062 Y80.345 E67.69783
G1 X49.997 Y80.012 E67.70911
G1 X49.996 Y69.983 E68.04268
G1 X50.07 Y69.598 E68.05572
G1 X50.309 Y69.337 E68.06749
G1 X50.578 Y69.214 E68.07732
G1 X74.142 Y67.744 E68.86259
G1 X75.034 Y67.717 E68.89227
G1 X75.674 Y67.724 E68.91356
G1 X76.519 Y67.792 E68.94176
G1 X77.094 Y67.862 E68.96102
G1 X77.788 Y67.985 E68.98446
G1 X78.554 Y68.158 E69.01058
G1 X79.435 Y68.411 E69.04107
G1 X80.353 Y68.742 E69.07353
G1 X80.792 Y68.931 E69.08942
G1 X81.053 Y69.056 E69.09905
G1 X81.077 Y69.055 E69.09985
G1 X81.349 Y69.193 E69.10999
G1 X81.362 Y69.185 E69.1105
G1 X82.307 Y69.714 E69.14652
G1 X82.581 Y69.878 E69.15714
G1 X83.15 Y70.249 E69.17973
G1 X83.507 Y70.508 E69.1944
G1 X84.078 Y70.952 E69.21846
G1 X84.455 Y71.27 E69.23486
G1 X84.963 Y71.743 E69.25795
G1 X85.64 Y72.451 E69.29053
G1 X85.895 Y72.745 E69.30348
G1 X86.262 Y73.196 E69.32281
G1 X86.528 Y73.552 E69.3376
G1 X86.889 Y74.068 E69.35854
G1 X87.346 Y74.81 E69.38753
G1 X87.39 Y75.021 E69.39469
G1 X87.337 Y75.216 E69.40142
G1 X86.825 Y76.024 E69.43323
G1 X86.542 Y76.426 E69.44958
G1 X86.191 Y76.891 E69.46896
G1 X85.911 Y77.229 E69.48356
G1 X85.531 Y77.665 E69.50279
G1 X85.249 Y77.968 E69.51656
G1 X84.899 Y78.31 E69.53284
G1 X84.241 Y78.904 E69.56232
G1 X83.721 Y79.329 E69.58466
G1 X83.162 Y79.735 E69.60764
G1 X82.533 Y80.146 E69.63263
G1 X82.04 Y80.442 E69.65175
G1 X81.62 Y80.67 E69.66765
G1 X81.15 Y80.899 E69.68504
G1 X80.584 Y81.156 E69.70571
G1 X80.153 Y81.332 E69.7212
G1 X79.401 Y81.593 E69.74767
G1 X79.005 Y81.715 E69.76145
G1 X78.374 Y81.881 E69.78315
G1 X77.441 Y82.074 E69.81484
G1 X76.66 Y82.189 E69.8411
G1 X76.047 Y82.244 E69.86157
G1 X75.26 Y82.276 E69.88777
G1 X75 Y82.275 E69.89641
G0 F7500 X74.998 Y82.536
G0 X77.487 Y82.273
G0 X79.458 Y81.789
G0 X81.243 Y81.08
G0 X82.649 Y80.314
G0 X84.041 Y79.302
G0 X85.678 Y77.889
G0 X85.344 Y77.574
G1 F1350 X84.673 Y78.245 E69.92798
G0 F7500 X84.983 Y78.589
G0 X82.53 Y80.455
G0 X82.296 Y80.056
G1 F1350 X87.04 Y75.312 E70.15112
G0 F7500 X87.059 Y74.727
G1 F1350 X81.07 Y80.716 E70.43282
G0 F7500 X81.274 Y81.131
G0 X80.223 Y81.585
G0 X80.071 Y81.15
G1 F1350 X86.844 Y74.376 E70.75143
G0 F7500 X86.621 Y74.034
G1 F1350 X79.212 Y81.442 E71.0999
G0 F7500 X78.429 Y81.66
G1 F1350 X86.388 Y73.701 E71.47427
G0 F7500 X86.146 Y73.377
G1 F1350 X77.709 Y81.814 E71.87112
G0 F7500 X77.024 Y81.933
G1 F1350 X85.894 Y73.063 E72.28834
G0 F7500 X85.638 Y72.754
G1 F1350 X76.378 Y82.014 E72.7239
G0 F7500 X75.772 Y82.054
G1 F1350 X85.369 Y72.457 E73.17531
G0 F7500 X85.093 Y72.168
G1 F1350 X75.185 Y82.076 E73.64135
G0 F7500 X74.622 Y82.072
G1 F1350 X84.816 Y71.879 E74.12083
G0 F7500 X84.523 Y71.606
G1 F1350 X74.085 Y82.044 E74.6118
G0 F7500 X73.552 Y82.012
G1 F1350 X84.226 Y71.338 E75.11387
G0 F7500 X83.918 Y71.08
G1 F1350 X73.019 Y81.978 E75.6265
G0 F7500 X72.487 Y81.945
G1 F1350 X83.6 Y70.832 E76.14922
G0 F7500 X83.278 Y70.588
G1 F1350 X71.954 Y81.912 E76.68187
G0 F7500 X71.422 Y81.879
G1 F1350 X82.946 Y70.354 E77.22395
G0 F7500 X82.604 Y70.132
G1 F1350 X70.889 Y81.846 E77.77496
G0 F7500 X70.356 Y81.813
G1 F1350 X82.255 Y69.914 E78.33465
G0 F7500 X81.893 Y69.711
G1 F1350 X69.824 Y81.78 E78.90234
G0 F7500 X69.292 Y81.746
G1 F1350 X81.53 Y69.508 E79.47798
G0 F7500 X81.155 Y69.318
G1 F1350 X68.758 Y81.714 E80.06107
G0 F7500 X68.226 Y81.681
G1 F1350 X80.767 Y69.139 E80.65099
G0 F7500 X80.373 Y68.968
G1 F1350 X67.693 Y81.647 E81.24739
G0 F7500 X67.161 Y81.614
G1 F1350 X79.962 Y68.814 E81.84949
G0 F7500 X79.546 Y68.664
G1 F1350 X66.628 Y81.582 E82.45711
G0 F7500 X66.095 Y81.549
G1 F1350 X79.117 Y68.527 E83.06963
G0 F7500 X78.677 Y68.401
G1 F1350 X65.563 Y81.515 E83.68647
G0 F7500 X65.03 Y81.482
G1 F1350 X78.224 Y68.288 E84.30707
G0 F7500 X77.763 Y68.183
G1 F1350 X64.497 Y81.45 E84.93109
G0 F7500 X63.965 Y81.416
G1 F1350 X77.283 Y68.098 E85.55753
G0 F7500 X76.79 Y68.026
G1 F1350 X63.432 Y81.383 E86.18582
G0 F7500 X62.9 Y81.35
G1 F1350 X76.277 Y67.973 E86.81504
G0 F7500 X75.754 Y67.93
G1 F1350 X62.367 Y81.317 E87.44472
G0 F7500 X61.834 Y81.284
G1 F1350 X75.2 Y67.918 E88.07341
G0 F7500 X74.623 Y67.93
G1 F1350 X61.302 Y81.251 E88.69999
G0 F7500 X60.769 Y81.218
G1 F1350 X74.036 Y67.951 E89.32403
G0 F7500 X73.433 Y67.988
G1 F1350 X60.236 Y81.185 E89.94478
G0 F7500 X59.704 Y81.152
G1 F1350 X72.83 Y68.026 E90.56219
G0 F7500 X72.227 Y68.063
G1 F1350 X59.171 Y81.119 E91.1763
G0 F7500 X58.639 Y81.085
G1 F1350 X71.624 Y68.101 E91.78705
G0 F7500 X71.02 Y68.139
G1 F1350 X58.106 Y81.053 E92.39449
G0 F7500 X57.573 Y81.02
G1 F1350 X70.417 Y68.176 E92.99863
G0 F7500 X69.813 Y68.214
G1 F1350 X57.041 Y80.986 E93.59938
G0 F7500 X56.508 Y80.953
G1 F1350 X69.21 Y68.251 E94.19685
G0 F7500 X68.606 Y68.29
G1 F1350 X55.975 Y80.921 E94.79097
G0 F7500 X55.443 Y80.887
G1 F1350 X68.003 Y68.327 E95.38175
G0 F7500 X67.4 Y68.364
G1 F1350 X54.91 Y80.854 E95.96925
G0 F7500 X54.378 Y80.821
G1 F1350 X66.797 Y68.402 E96.5534
G0 F7500 X66.194 Y68.439
G1 F1350 X53.845 Y80.788 E97.13426
G0 F7500 X53.312 Y80.755
G1 F1350 X65.59 Y68.478 E97.71175
G0 F7500 X64.987 Y68.515
G1 F1350 X52.78 Y80.722 E98.28593
G0 F7500 X52.247 Y80.689
G1 F1350 X64.383 Y68.553 E98.85677
G0 F7500 X63.78 Y68.59
G1 F1350 X51.714 Y80.656 E99.42432
G0 F7500 X51.182 Y80.623
G1 F1350 X63.176 Y68.628 E99.9885
G0 F7500 X62.573 Y68.666
G1 F1350 X50.649 Y80.59 E100.54937
G0 F7500 X50.306 Y80.368
G1 F1350 X61.97 Y68.703 E101.09804
G0 F7500 X61.367 Y68.741
G1 F1350 X50.198 Y79.91 E101.62339
G0 F7500 X50.198 Y79.344
G1 F1350 X60.764 Y68.778 E102.12038
G0 F7500 X60.16 Y68.816
G1 F1350 X50.198 Y78.779 E102.58899
G0 F7500 X50.198 Y78.213
G1 F1350 X59.557 Y68.854 E103.02921
G0 F7500 X58.954 Y68.891
G1 F1350 X50.198 Y77.647 E103.44106
G0 F7500 X50.198 Y77.082
G1 F1350 X58.35 Y68.929 E103.82453
G0 F7500 X57.747 Y68.967
G1 F1350 X50.198 Y76.516 E104.17961
G0 F7500 X50.198 Y75.95
G1 F1350 X57.143 Y69.004 E104.50631
G0 F7500 X56.54 Y69.042
G1 F1350 X50.198 Y75.385 E104.80464
G0 F7500 X50.197 Y74.82
G1 F1350 X55.937 Y69.079 E105.07466
G0 F7500 X55.334 Y69.117
G1 F1350 X50.197 Y74.254 E105.31628
G0 F7500 X50.197 Y73.688
G1 F1350 X54.73 Y69.155 E105.5295
G0 F7500 X54.127 Y69.193
G1 F1350 X50.197 Y73.123 E105.71436
G0 F7500 X50.197 Y72.557
G1 F1350 X53.524 Y69.23 E105.87085
G0 F7500 X52.921 Y69.267
G1 F1350 X50.197 Y71.991 E105.99898
G0 F7500 X50.197 Y71.426
G1 F1350 X52.317 Y69.305 E106.09872
G0 F7500 X51.714 Y69.343
G1 F1350 X50.197 Y70.86 E106.17008
G0 F7500 X50.197 Y70.294
G1 F1350 X51.11 Y69.381 E106.21302
G1 F2700 E101.21302
;MESH:NONMESH
G0 F300 X51.11 Y69.381 Z0.6
G0 F7500 X51.082 Y68.921
G0 X50.324 Y68.748
G0 X49.865 Y67.756
G0 X43.725 Y60.184
;TIME_ELAPSED:202.666052
;LAYER:2
M106 S170
;TYPE:SKIRT
G1 F2700 E106.21302
G1 F1200 X44.474 Y59.68 E106.24305
G1 X45.495 Y59.134 E106.28156
G1 X46.085 Y58.874 E106.303
G1 X46.37 Y58.759 E106.31322
G1 X47.222 Y58.458 E106.34328
G1 X48.028 Y58.249 E106.37097
G1 X48.685 Y58.115 E106.39327
G1 X49.433 Y58.012 E106.41839
G1 X49.93 Y57.966 E106.43499
G1 X72.977 Y56.495 E107.20309
G1 X74.221 Y56.437 E107.24451
G1 X74.791 Y56.423 E107.26348
G1 X75.553 Y56.43 E107.28882
G1 X76.83 Y56.492 E107.33135
G1 X77.228 Y56.521 E107.34462
G1 X78.007 Y56.6 E107.37066
G1 X78.811 Y56.704 E107.39762
G1 X79.47 Y56.807 E107.41981
G1 X80.561 Y57.024 E107.45681
G1 X81.297 Y57.195 E107.48194
G1 X82.357 Y57.488 E107.51852
G1 X82.844 Y57.637 E107.53546
G1 X83.748 Y57.944 E107.56721
G1 X84.187 Y58.106 E107.58277
G1 X84.871 Y58.382 E107.6073
G1 X85.775 Y58.782 E107.64018
G1 X86.638 Y59.196 E107.67202
G1 X87.414 Y59.601 E107.70113
G1 X87.871 Y59.865 E107.71869
G1 X88.878 Y60.477 E107.75788
G1 X89.392 Y60.808 E107.77821
G1 X89.774 Y61.072 E107.79366
G1 X90.48 Y61.593 E107.82284
G1 X91.357 Y62.281 E107.85992
G1 X91.858 Y62.696 E107.88155
G1 X92.189 Y62.986 E107.89619
G1 X92.683 Y63.449 E107.91871
G1 X93.331 Y64.086 E107.94893
G1 X93.834 Y64.605 E107.97297
G1 X94.145 Y64.945 E107.9883
G1 X94.549 Y65.408 E108.00873
G1 X94.883 Y65.812 E108.02617
G1 X95.426 Y66.503 E108.0554
G1 X96.018 Y67.306 E108.08858
G1 X96.465 Y67.957 E108.11484
G1 X96.842 Y68.541 E108.13796
G1 X97.288 Y69.296 E108.16713
G1 X97.704 Y70.098 E108.19718
G1 X97.937 Y70.641 E108.21683
G1 X98.129 Y71.138 E108.23455
G1 X98.404 Y71.998 E108.26458
G1 X98.604 Y72.884 E108.29479
G1 X98.714 Y73.614 E108.31935
G1 X98.79 Y74.514 E108.34939
G1 X98.772 Y75.646 E108.38704
G1 X98.747 Y75.996 E108.39871
G1 X98.643 Y76.893 E108.42875
G1 X98.46 Y77.777 E108.45877
G1 X98.288 Y78.378 E108.47956
G1 X98.016 Y79.153 E108.50688
G1 X97.665 Y79.986 E108.53695
G1 X97.355 Y80.587 E108.55944
G1 X97.075 Y81.063 E108.57781
G1 X96.604 Y81.818 E108.6074
G1 X96.128 Y82.534 E108.636
G1 X95.458 Y83.461 E108.67404
G1 X95.099 Y83.927 E108.69361
G1 X94.793 Y84.298 E108.7096
G1 X94.252 Y84.923 E108.7371
G1 X93.552 Y85.68 E108.77139
G1 X93.266 Y85.974 E108.78503
G1 X92.606 Y86.623 E108.81582
G1 X92.274 Y86.936 E108.83099
G1 X91.864 Y87.293 E108.84908
G1 X90.731 Y88.22 E108.89777
G1 X90.173 Y88.64 E108.921
G1 X89.658 Y89.008 E108.94205
G1 X89.232 Y89.298 E108.95919
G1 X88.375 Y89.836 E108.99284
G1 X88.031 Y90.04 E109.00615
G1 X86.979 Y90.629 E109.04625
G1 X86.285 Y90.985 E109.07219
G1 X85.72 Y91.254 E109.093
G1 X84.752 Y91.671 E109.12806
G1 X84.247 Y91.869 E109.1461
G1 X82.972 Y92.321 E109.19109
G1 X81.936 Y92.628 E109.22703
G1 X80.88 Y92.899 E109.26329
G1 X80.3 Y93.029 E109.28306
G1 X79.277 Y93.217 E109.31766
G1 X78.876 Y93.28 E109.33116
G1 X77.63 Y93.443 E109.37295
G1 X76.748 Y93.522 E109.4024
G1 X75.42 Y93.572 E109.4466
G1 X74.775 Y93.578 E109.46806
G1 X74.3 Y93.567 E109.48386
G1 X72.691 Y93.49 E109.53744
G1 X50.484 Y92.076 E110.27754
G1 X49.963 Y92.035 E110.29492
G1 X49.212 Y91.957 E110.32004
G1 X49.213 Y91.95 E110.32027
G1 X48.528 Y91.858 E110.34326
G1 X47.486 Y91.615 E110.37885
G1 X46.865 Y91.425 E110.40045
G1 X45.959 Y91.086 E110.43262
G1 X45.011 Y90.621 E110.46774
G1 X44.469 Y90.305 E110.48861
G1 X44.195 Y90.133 E110.49937
G1 X43.48 Y89.648 E110.5281
G1 X42.552 Y88.865 E110.56849
G1 X42.136 Y88.464 E110.5877
G1 X41.523 Y87.801 E110.61774
G1 X40.971 Y87.087 E110.64775
G1 X40.365 Y86.115 E110.68585
G1 X39.983 Y85.4 E110.71281
G1 X39.51 Y84.311 E110.7523
G1 X39.26 Y83.567 E110.77841
G1 X39.027 Y82.694 E110.80846
G1 X38.912 Y82.08 E110.82924
G1 X38.82 Y81.381 E110.85269
G1 X38.765 Y80.504 E110.88191
G1 X38.74 Y79.149 E110.92699
G1 X38.741 Y70.382 E111.21858
G1 X38.749 Y69.787 E111.23837
G1 X38.804 Y68.859 E111.26929
G1 X38.838 Y68.535 E111.28013
G1 X39.051 Y67.274 E111.32266
G1 X39.125 Y66.958 E111.33346
G1 X39.369 Y66.089 E111.36348
G1 X39.689 Y65.246 E111.39347
G1 X39.985 Y64.587 E111.4175
G1 X40.401 Y63.785 E111.44755
G1 X40.886 Y63.023 E111.47759
G1 X41.708 Y61.995 E111.52137
G1 X42.353 Y61.328 E111.55223
G1 X43.023 Y60.722 E111.58227
G1 X43.725 Y60.184 E111.61169
G1 F2700 E106.61169
;MESH:3DBenchy.stl
G0 F9000 X50.297 Y67.504
G0 X75 Y82.786
;TYPE:WALL-INNER
G1 F2700 E111.61169
G1 F1500 X75.554 Y82.776 E111.63012
G1 X76.453 Y82.718 E111.66008
G1 X77.007 Y82.653 E111.67864
G1 X77.684 Y82.548 E111.70142
G1 X78.109 Y82.465 E111.71582
G1 X78.669 Y82.334 E111.73495
G1 X79.401 Y82.137 E111.76017
G1 X80.044 Y81.919 E111.78275
G1 X80.668 Y81.68 E111.80497
G1 X81.381 Y81.368 E111.83086
G1 X81.975 Y81.071 E111.85295
G1 X82.303 Y80.894 E111.86534
G1 X82.955 Y80.504 E111.89061
G1 X83.69 Y80.013 E111.92001
G1 X84.481 Y79.409 E111.95311
G1 X85.049 Y78.914 E111.97817
G1 X85.424 Y78.563 E111.99526
G1 X85.968 Y78.007 E112.02113
G1 X86.26 Y77.677 E112.03578
G1 X86.674 Y77.177 E112.05737
G1 X87.056 Y76.68 E112.07822
G1 X87.386 Y76.208 E112.09738
G1 X87.673 Y75.768 E112.11485
G1 X87.913 Y75.358 E112.13065
G1 X87.996 Y75.12 E112.13903
G1 X87.985 Y74.76 E112.15101
G1 X87.621 Y74.153 E112.17455
G1 X87.37 Y73.764 E112.18995
G1 X87.063 Y73.326 E112.20774
G1 X86.74 Y72.9 E112.22552
G1 X86.356 Y72.432 E112.24566
G1 X85.862 Y71.883 E112.27022
G1 X85.395 Y71.405 E112.29245
G1 X85.151 Y71.175 E112.3036
G1 X84.766 Y70.833 E112.32073
G1 X84.164 Y70.34 E112.34661
G1 X83.771 Y70.042 E112.36301
G1 X83.358 Y69.756 E112.37972
G1 X82.731 Y69.353 E112.40451
G1 X82.287 Y69.096 E112.42157
G1 X81.499 Y68.685 E112.45113
G1 X80.692 Y68.316 E112.48065
G1 X80.076 Y68.092 E112.50245
G1 X79.292 Y67.836 E112.52988
G1 X78.517 Y67.626 E112.55659
G1 X78.112 Y67.532 E112.57041
G1 X77.563 Y67.428 E112.589
G1 X76.874 Y67.324 E112.61218
G1 X76.454 Y67.278 E112.62623
G1 X75.812 Y67.232 E112.64764
G1 X75.237 Y67.212 E112.66677
G1 X74.379 Y67.224 E112.69531
G1 X50.447 Y68.75 E113.49291
G1 X49.997 Y68.935 E113.50909
G1 X49.738 Y69.205 E113.52154
G1 X49.573 Y69.574 E113.53498
G1 X49.54 Y69.852 E113.54429
G1 X49.54 Y80.143 E113.88657
G1 X49.58 Y80.469 E113.8975
G1 X49.775 Y80.84 E113.91144
G1 X49.937 Y80.997 E113.91894
G1 X50.216 Y81.164 E113.92975
G1 X50.504 Y81.254 E113.93979
G1 X74.233 Y82.764 E114.73062
G1 X74.956 Y82.787 E114.75468
G1 X75 Y82.786 E114.75614
G0 F9000 X75 Y83.186
;TYPE:WALL-OUTER
G1 F1500 X75.571 Y83.176 E114.77513
G1 X76.489 Y83.116 E114.80573
G1 X77.061 Y83.049 E114.82489
G1 X77.753 Y82.942 E114.84818
G1 X78.193 Y82.856 E114.86309
G1 X78.767 Y82.722 E114.88269
G1 X79.517 Y82.52 E114.90853
G1 X80.18 Y82.295 E114.93181
G1 X80.82 Y82.05 E114.95461
G1 X81.551 Y81.73 E114.98115
G1 X82.159 Y81.426 E115.00376
G1 X82.501 Y81.242 E115.01667
G1 X83.169 Y80.842 E115.04257
G1 X83.92 Y80.34 E115.07261
G1 X84.334 Y80.032 E115.08978
G1 X84.736 Y79.717 E115.10676
G1 X85.317 Y79.211 E115.13239
G1 X85.704 Y78.849 E115.15001
G1 X86.261 Y78.279 E115.17652
G1 X86.564 Y77.937 E115.19172
G1 X86.987 Y77.427 E115.21375
G1 X87.378 Y76.917 E115.23513
G1 X87.678 Y76.491 E115.25246
G1 X88.013 Y75.978 E115.27284
G1 X88.277 Y75.527 E115.29022
G1 X88.39 Y75.205 E115.30157
G1 X88.41 Y74.97 E115.30941
G1 X88.377 Y74.726 E115.3176
G1 X88.283 Y74.48 E115.32636
G1 X87.928 Y73.89 E115.34926
G1 X87.702 Y73.54 E115.36312
G1 X87.386 Y73.09 E115.38141
G1 X87.054 Y72.652 E115.39969
G1 X86.66 Y72.171 E115.42037
G1 X86.154 Y71.609 E115.44552
G1 X85.675 Y71.119 E115.46831
G1 X85.026 Y70.529 E115.49748
G1 X84.412 Y70.026 E115.52388
G1 X84.006 Y69.718 E115.54083
G1 X83.58 Y69.423 E115.55807
G1 X82.939 Y69.011 E115.58341
G1 X82.482 Y68.747 E115.60097
G1 X81.673 Y68.325 E115.63131
G1 X80.844 Y67.946 E115.66163
G1 X80.206 Y67.714 E115.68421
G1 X79.406 Y67.452 E115.71221
G1 X78.615 Y67.238 E115.73946
G1 X78.194 Y67.14 E115.75384
G1 X77.63 Y67.034 E115.77293
G1 X76.926 Y66.927 E115.79661
G1 X76.49 Y66.88 E115.8112
G1 X75.833 Y66.832 E115.83311
G1 X75.244 Y66.812 E115.85271
G1 X74.361 Y66.824 E115.88208
G1 X50.48 Y68.347 E116.67798
G1 X50.264 Y68.392 E116.68532
G1 X49.857 Y68.561 E116.69998
G1 X49.691 Y68.677 E116.70671
G1 X49.401 Y68.978 E116.72061
G1 X49.183 Y69.466 E116.73839
G1 X49.14 Y69.828 E116.75051
G1 X49.14 Y80.167 E117.09439
G1 X49.177 Y80.467 E117.10444
G1 X49.261 Y80.721 E117.11334
G1 X49.451 Y81.082 E117.12691
G1 X49.691 Y81.316 E117.13806
G1 X50.051 Y81.532 E117.15202
G1 X50.431 Y81.649 E117.16525
G1 X74.214 Y83.164 E117.95788
G1 X74.954 Y83.187 E117.9825
G1 X75 Y83.186 E117.98403
G0 F9000 X75 Y82.423
;TYPE:SKIN
G1 F1500 X74.962 Y82.423 E117.9853
G1 X74.254 Y82.404 E118.00885
G1 X50.572 Y80.893 E118.79812
G1 X50.354 Y80.827 E118.8057
G1 X50.092 Y80.669 E118.81587
G1 X49.901 Y80.307 E118.82949
G1 X49.9 Y69.724 E119.18148
G1 X50.041 Y69.407 E119.19302
G1 X50.203 Y69.242 E119.20071
G1 X50.53 Y69.106 E119.21249
G1 X74.4 Y67.584 E120.00802
G1 X75.225 Y67.573 E120.03546
G1 X75.785 Y67.592 E120.0541
G1 X76.426 Y67.636 E120.07547
G1 X76.834 Y67.679 E120.08911
G1 X77.498 Y67.782 E120.11146
G1 X78.031 Y67.88 E120.12949
G1 X78.435 Y67.974 E120.14328
G1 X79.178 Y68.176 E120.16889
G1 X79.962 Y68.434 E120.19634
G1 X80.547 Y68.646 E120.21704
G1 X81.345 Y69.013 E120.24625
G1 X81.778 Y69.229 E120.26235
G1 X82.552 Y69.664 E120.29188
G1 X83.152 Y70.051 E120.31562
G1 X83.558 Y70.334 E120.33208
G1 X83.936 Y70.618 E120.34781
G1 X84.529 Y71.104 E120.37331
G1 X85.148 Y71.668 E120.40116
G1 X85.593 Y72.125 E120.42238
G1 X86.08 Y72.667 E120.44661
G1 X86.415 Y73.069 E120.46402
G1 X86.738 Y73.495 E120.4818
G1 X87.074 Y73.969 E120.50112
G1 X87.274 Y74.275 E120.51328
G1 X87.629 Y74.867 E120.53624
G1 X87.637 Y75.117 E120.54456
G1 X87.37 Y75.57 E120.56205
G1 X87.067 Y76.03 E120.58037
G1 X86.766 Y76.457 E120.59775
G1 X86.387 Y76.955 E120.61856
G1 X85.984 Y77.441 E120.63956
G1 X85.701 Y77.759 E120.65372
G1 X85.175 Y78.301 E120.67884
G1 X84.74 Y78.706 E120.69861
G1 X84.261 Y79.124 E120.71975
G1 X83.487 Y79.713 E120.7521
G1 X82.764 Y80.195 E120.781
G1 X82.203 Y80.539 E120.80289
G1 X81.597 Y80.872 E120.82589
G1 X81.577 Y80.861 E120.82665
G1 X81.226 Y81.039 E120.83974
G1 X80.536 Y81.342 E120.8648
G1 X79.911 Y81.579 E120.88703
G1 X79.293 Y81.792 E120.90877
G1 X78.583 Y81.981 E120.93321
G1 X78.026 Y82.112 E120.95224
G1 X77.613 Y82.19 E120.96622
G1 X76.96 Y82.293 E120.98821
G1 X76.425 Y82.356 E121.00613
G1 X75.531 Y82.416 E121.03593
G1 X75 Y82.423 E121.05359
G0 F9000 X75.004 Y82.687
G0 X77.655 Y82.39
G0 X79.354 Y81.984
G0 X81.312 Y81.223
G0 X82.869 Y80.368
G0 X84.379 Y79.285
G0 X85.851 Y77.897
G0 X87.214 Y76.176
G0 X87.766 Y75.29
G0 X87.828 Y74.814
G0 X86.905 Y73.383
G0 X85.745 Y71.993
G0 X83.984 Y70.33
G0 X83.706 Y70.695
G1 F1500 X86.432 Y73.421 E121.18181
G0 F9000 X86.798 Y73.143
G0 X87.895 Y74.974
G0 X87.433 Y74.988
G1 F1500 X82.065 Y69.62 E121.43431
G0 F9000 X82.289 Y69.221
G0 X81.106 Y68.617
G0 X80.914 Y69.035
G1 F1500 X87.253 Y75.374 E121.73248
G0 F9000 X87.033 Y75.719
G1 F1500 X79.959 Y68.645 E122.06521
G0 F9000 X79.114 Y68.366
G1 F1500 X86.804 Y76.056 E122.42693
G0 F9000 X86.569 Y76.387
G1 F1500 X78.34 Y68.157 E122.81402
G0 F9000 X77.626 Y68.01
G1 F1500 X86.324 Y76.708 E123.22315
G0 F9000 X86.073 Y77.022
G1 F1500 X76.951 Y67.9 E123.65222
G0 F9000 X76.314 Y67.829
G1 F1500 X85.816 Y77.331 E124.09916
G0 F9000 X85.549 Y77.63
G1 F1500 X75.709 Y67.79 E124.56201
G0 F9000 X75.129 Y67.775
G1 F1500 X85.271 Y77.917 E125.03905
G0 F9000 X84.989 Y78.2
G1 F1500 X74.571 Y67.783 E125.52906
G0 F9000 X74.031 Y67.809
G1 F1500 X84.696 Y78.473 E126.03069
G0 F9000 X84.396 Y78.739
G1 F1500 X73.499 Y67.842 E126.54325
G0 F9000 X72.967 Y67.876
G1 F1500 X84.092 Y79.001 E127.06653
G0 F9000 X83.771 Y79.245
G1 F1500 X72.435 Y67.91 E127.59972
G0 F9000 X71.904 Y67.944
G1 F1500 X83.449 Y79.489 E128.14276
G0 F9000 X83.115 Y79.721
G1 F1500 X71.372 Y67.978 E128.69512
G0 F9000 X70.84 Y68.012
G1 F1500 X82.775 Y79.947 E129.2565
G0 F9000 X82.428 Y80.165
G1 F1500 X70.308 Y68.046 E129.82657
G0 F9000 X69.777 Y68.08
G1 F1500 X82.077 Y80.38 E130.40512
G0 F9000 X81.712 Y80.58
G1 F1500 X69.245 Y68.113 E130.99153
G0 F9000 X68.713 Y68.147
G1 F1500 X81.328 Y80.762 E131.5849
G0 F9000 X80.944 Y80.944
G1 F1500 X68.181 Y68.181 E132.18523
G0 F9000 X67.65 Y68.215
G1 F1500 X80.551 Y81.116 E132.79206
G0 F9000 X80.145 Y81.276
G1 F1500 X67.118 Y68.249 E133.40481
G0 F9000 X66.586 Y68.283
G1 F1500 X79.732 Y81.429 E134.02316
G0 F9000 X79.311 Y81.574
G1 F1500 X66.054 Y68.316 E134.64675
G0 F9000 X65.522 Y68.35
G1 F1500 X78.869 Y81.698 E135.27457
G0 F9000 X78.419 Y81.813
G1 F1500 X64.99 Y68.384 E135.90623
G0 F9000 X64.458 Y68.418
G1 F1500 X77.96 Y81.92 E136.54132
G0 F9000 X77.482 Y82.007
G1 F1500 X63.927 Y68.452 E137.17891
G0 F9000 X63.395 Y68.486
G1 F1500 X76.994 Y82.085 E137.81857
G0 F9000 X76.491 Y82.147
G1 F1500 X62.863 Y68.52 E138.45956
G0 F9000 X62.331 Y68.554
G1 F1500 X75.964 Y82.186 E139.10079
G0 F9000 X75.428 Y82.217
G1 F1500 X61.8 Y68.588 E139.74184
G0 F9000 X61.268 Y68.622
G1 F1500 X74.866 Y82.22 E140.38144
G0 F9000 X74.284 Y82.204
G1 F1500 X60.736 Y68.656 E141.0187
G0 F9000 X60.204 Y68.69
G1 F1500 X73.681 Y82.167 E141.65262
G0 F9000 X73.077 Y82.128
G1 F1500 X59.673 Y68.724 E142.2831
G0 F9000 X59.141 Y68.758
G1 F1500 X72.473 Y82.089 E142.91017
G0 F9000 X71.869 Y82.051
G1 F1500 X58.609 Y68.792 E143.53386
G0 F9000 X58.077 Y68.825
G1 F1500 X71.264 Y82.012 E144.15413
G0 F9000 X70.66 Y81.973
G1 F1500 X57.545 Y68.859 E144.771
G0 F9000 X57.013 Y68.893
G1 F1500 X70.056 Y81.935 E145.38448
G0 F9000 X69.451 Y81.896
G1 F1500 X56.482 Y68.927 E145.9945
G0 F9000 X55.95 Y68.961
G1 F1500 X68.847 Y81.858 E146.60114
G0 F9000 X68.243 Y81.819
G1 F1500 X55.418 Y68.995 E147.20436
G0 F9000 X54.886 Y69.028
G1 F1500 X67.639 Y81.781 E147.80422
G0 F9000 X67.034 Y81.742
G1 F1500 X54.355 Y69.062 E148.40063
G0 F9000 X53.823 Y69.096
G1 F1500 X66.431 Y81.704 E148.99367
G0 F9000 X65.826 Y81.665
G1 F1500 X53.291 Y69.13 E149.58328
G0 F9000 X52.759 Y69.164
G1 F1500 X65.222 Y81.627 E150.1695
G0 F9000 X64.618 Y81.588
G1 F1500 X52.228 Y69.198 E150.75229
G0 F9000 X51.696 Y69.232
G1 F1500 X64.014 Y81.55 E151.33169
G0 F9000 X63.409 Y81.511
G1 F1500 X51.164 Y69.266 E151.90766
G0 F9000 X50.632 Y69.299
G1 F1500 X62.805 Y81.473 E152.48026
G0 F9000 X62.201 Y81.434
G1 F1500 X50.248 Y69.481 E153.04249
G0 F9000 X50.1 Y69.899
G1 F1500 X61.597 Y81.396 E153.58328
G0 F9000 X60.992 Y81.357
G1 F1500 X50.1 Y70.465 E154.0956
G0 F9000 X50.1 Y71.03
G1 F1500 X60.388 Y81.319 E154.57954
G0 F9000 X59.784 Y81.28
G1 F1500 X50.1 Y71.596 E155.03505
G0 F9000 X50.1 Y72.162
G1 F1500 X59.18 Y81.242 E155.46214
G0 F9000 X58.575 Y81.203
G1 F1500 X50.1 Y72.727 E155.8608
G0 F9000 X50.1 Y73.293
G1 F1500 X57.971 Y81.165 E156.23106
G0 F9000 X57.367 Y81.126
G1 F1500 X50.1 Y73.859 E156.57287
G0 F9000 X50.1 Y74.424
G1 F1500 X56.763 Y81.087 E156.88628
G0 F9000 X56.158 Y81.049
G1 F1500 X50.1 Y74.99 E157.17125
G0 F9000 X50.1 Y75.556
G1 F1500 X55.555 Y81.01 E157.42782
G0 F9000 X54.95 Y80.972
G1 F1500 X50.1 Y76.121 E157.65597
G0 F9000 X50.1 Y76.687
G1 F1500 X54.346 Y80.933 E157.85569
G0 F9000 X53.742 Y80.894
G1 F1500 X50.1 Y77.253 E158.02697
G0 F9000 X50.1 Y77.819
G1 F1500 X53.138 Y80.856 E158.16985
G0 F9000 X52.533 Y80.817
G1 F1500 X50.1 Y78.384 E158.28429
G0 F9000 X50.1 Y78.95
G1 F1500 X51.929 Y80.779 E158.37032
G0 F9000 X51.325 Y80.74
G1 F1500 X50.1 Y79.516 E158.42792
G0 F9000 X50.1 Y80.081
G1 F1500 X50.721 Y80.702 E158.45713
;MESH:NONMESH
G0 F300 X50.721 Y80.702 Z0.8
G0 F9000 X50.691 Y81.164
G0 X75 Y82.877
G0 X75 Y82.93
;TIME_ELAPSED:276.001346
;LAYER:3
M106 S255
;TYPE:WALL-INNER
;MESH:3DBenchy.stl
G1 F1500 X75.235 Y82.932 E158.46494
G1 X75.681 Y82.916 E158.47979
G1 X76.426 Y82.866 E158.50462
G1 X77.004 Y82.801 E158.52397
G1 X77.699 Y82.692 E158.54736
G1 X78.48 Y82.539 E158.57383
G1 X79.214 Y82.344 E158.59909
G1 X80.105 Y82.057 E158.63023
G1 X80.735 Y81.819 E158.65263
G1 X81.107 Y81.66 E158.66608
G1 X81.825 Y81.326 E158.69242
G1 X82.392 Y81.027 E158.71374
G1 X82.964 Y80.693 E158.73577
G1 X83.719 Y80.201 E158.76574
G1 X84.23 Y79.829 E158.78677
G1 X84.893 Y79.292 E158.81514
G1 X85.311 Y78.924 E158.83367
G1 X85.861 Y78.386 E158.85926
G1 X86.119 Y78.116 E158.87168
G1 X86.554 Y77.631 E158.89335
G1 X86.877 Y77.243 E158.91014
G1 X87.352 Y76.613 E158.93638
G1 X87.605 Y76.257 E158.95091
G1 X88.005 Y75.622 E158.97587
G1 X88.194 Y75.297 E158.98837
G1 X88.248 Y75.102 E158.9951
G1 X88.248 Y74.892 E159.00209
G1 X88.194 Y74.693 E159.00894
G1 X87.853 Y74.122 E159.03107
G1 X87.414 Y73.472 E159.05715
G1 X86.942 Y72.84 E159.08339
G1 X86.379 Y72.163 E159.11267
G1 X85.932 Y71.682 E159.13451
G1 X85.479 Y71.232 E159.15575
G1 X84.81 Y70.636 E159.18555
G1 X84.325 Y70.243 E159.20631
G1 X83.798 Y69.855 E159.22808
G1 X83.157 Y69.423 E159.25379
G1 X82.535 Y69.05 E159.27791
G1 X82.042 Y68.784 E159.29654
G1 X81.663 Y68.593 E159.31066
G1 X80.751 Y68.176 E159.34401
G1 X80.108 Y67.94 E159.3668
G1 X79.45 Y67.727 E159.3898
G1 X78.794 Y67.542 E159.41247
G1 X78.109 Y67.383 E159.43586
G1 X77.708 Y67.304 E159.44945
G1 X76.989 Y67.195 E159.47364
G1 X76.409 Y67.13 E159.49305
G1 X75.989 Y67.096 E159.50706
G1 X75.219 Y67.069 E159.53269
G1 X74.635 Y67.072 E159.55211
G1 X73.924 Y67.104 E159.57579
G1 X50.338 Y68.645 E160.36193
G1 X49.973 Y68.785 E160.37494
G1 X49.751 Y68.983 E160.38483
G1 X49.567 Y69.255 E160.39575
G1 X49.488 Y69.474 E160.40349
G1 X49.444 Y69.752 E160.41286
G1 X49.441 Y73.964 E160.55295
G1 X54.266 Y73.964 E160.71343
G1 X54.432 Y74.023 E160.71929
G1 X54.623 Y74.167 E160.72724
G1 X54.729 Y74.338 E160.73394
G1 X54.769 Y74.495 E160.73932
G1 X54.769 Y75.501 E160.77278
G1 X54.729 Y75.658 E160.77817
G1 X54.623 Y75.829 E160.78486
G1 X54.432 Y75.973 E160.79282
G1 X54.237 Y76.029 E160.79957
G1 X49.44 Y76.032 E160.95912
G1 X49.441 Y80.109 E161.09472
G1 X49.462 Y80.449 E161.10605
G1 X49.596 Y80.825 E161.11932
G1 X49.793 Y81.054 E161.12937
G1 X50.053 Y81.241 E161.14002
G1 X50.434 Y81.356 E161.15326
G1 X74.181 Y82.908 E161.94477
G1 X74.631 Y82.928 E161.95976
G1 X75 Y82.93 E161.97203
G0 F9000 X75 Y83.33
;TYPE:WALL-OUTER
G1 F1500 X75.241 Y83.332 E161.98004
G1 X75.701 Y83.316 E161.99535
G1 X76.462 Y83.264 E162.02072
G1 X77.057 Y83.197 E162.04064
G1 X77.769 Y83.086 E162.06461
G1 X78.57 Y82.929 E162.09175
G1 X79.327 Y82.728 E162.1178
G1 X80.237 Y82.435 E162.1496
G1 X80.885 Y82.19 E162.17264
G1 X81.27 Y82.025 E162.18657
G1 X82.003 Y81.684 E162.21346
G1 X82.586 Y81.377 E162.23538
G1 X83.174 Y81.033 E162.25804
G1 X83.946 Y80.531 E162.28866
G1 X84.471 Y80.148 E162.31028
G1 X84.778 Y79.908 E162.32324
G1 X85.153 Y79.596 E162.33946
G1 X85.583 Y79.217 E162.35853
G1 X86.145 Y78.667 E162.38468
G1 X86.413 Y78.388 E162.39755
G1 X86.856 Y77.893 E162.41964
G1 X87.191 Y77.491 E162.43705
G1 X87.698 Y76.816 E162.46513
G1 X87.937 Y76.48 E162.47884
G1 X88.351 Y75.823 E162.50467
G1 X88.566 Y75.453 E162.5189
G1 X88.648 Y75.156 E162.52915
G1 X88.648 Y74.839 E162.53969
G1 X88.566 Y74.535 E162.55017
G1 X88.191 Y73.908 E162.57447
G1 X87.74 Y73.24 E162.60127
G1 X87.258 Y72.595 E162.62805
G1 X86.678 Y71.897 E162.65824
G1 X86.22 Y71.404 E162.68062
G1 X85.754 Y70.942 E162.70244
G1 X85.067 Y70.33 E162.73305
G1 X84.569 Y69.927 E162.75435
G1 X84.028 Y69.528 E162.77671
G1 X83.372 Y69.085 E162.80304
G1 X82.733 Y68.702 E162.82782
G1 X82.227 Y68.43 E162.84693
G1 X81.837 Y68.233 E162.86146
G1 X80.903 Y67.806 E162.89561
G1 X80.238 Y67.562 E162.91917
G1 X79.566 Y67.344 E162.94267
G1 X78.894 Y67.154 E162.9659
G1 X78.193 Y66.992 E162.98983
G1 X77.777 Y66.91 E163.00393
G1 X77.041 Y66.799 E163.02869
G1 X76.448 Y66.732 E163.04854
G1 X76.012 Y66.696 E163.06309
G1 X75.225 Y66.669 E163.08928
G1 X74.625 Y66.672 E163.10923
G1 X73.898 Y66.705 E163.13344
