;FLAVOR:Marlin
;TIME:7947
;Filament used: 5.02546m
;Layer height: 0.2
;MINX:8.58
;MINY:36
;MINZ:0.2
;MAXX:128.58
;MAXY:114
;MAXZ:5
;TARGET_MACHINE.NAME:Creality Ender-2
;Generated with Cura_SteamEngine 5.11.0
M140 S50
M105
M190 S50
M104 S200
M105
M109 S200
M201 X500.00 Y500.00 Z100.00 E5000.00 ;Setup machine max acceleration
M203 X500.00 Y500.00 Z10.00 E50.00 ;Setup machine max feedrate
M204 P500.00 R1000.00 T500.00 ;Setup Print/Retract/Travel acceleration
M205 X8.00 Y8.00 Z0.40 E5.00 ;Setup Jerk
M220 S100 ;Reset Feedrate
M221 S100 ;Reset Flowrate

G28 ;Home

G92 E0 ;Reset Extruder
G1 Z2.0 F3000 ;Move Z Axis up
G1 X10.1 Y20 Z0.28 F5000.0 ;Move to start position
G1 X10.1 Y100.0 Z0.28 F1500.0 E8 ;Draw the first line
G1 X10.4 Y100.0 Z0.28 F5000.0 ;Move to side a little
G1 X10.4 Y20 Z0.28 F1500.0 E15 ;Draw the second line
G92 E0 ;Reset Extruder
G1 Z2.0 F3000 ;Move Z Axis up

M82 ;absolute extrusion mode
G92 E0
G92 E0
G1 F2700 E-5
;LAYER_COUNT:25
;LAYER:0
M107
G0 F6000 X15.231 Y36.91 Z0.2
;TYPE:SKIRT
G1 F2700 E0
G1 F1200 X16.208 Y36.542 E0.03472
G1 X17.112 Y36.292 E0.06592
G1 X18.114 Y36.109 E0.0998
G1 X19.285 Y36.013 E0.13888
G1 X19.892 Y36 E0.15907
G1 X116.884 Y36 E3.38504
G1 X117.764 Y36.013 E3.41431
G1 X118.736 Y36.072 E3.4467
G1 X119.699 Y36.218 E3.47909
G1 X120.646 Y36.449 E3.51151
G1 X121.534 Y36.749 E3.54269
G1 X122.426 Y37.139 E3.57507
G1 X123.309 Y37.626 E3.60861
G1 X124.06 Y38.128 E3.63865
G1 X124.875 Y38.786 E3.67349
G1 X125.573 Y39.464 E3.70586
G1 X126.209 Y40.201 E3.73823
G1 X126.779 Y40.991 E3.77063
G1 X127.241 Y41.767 E3.80067
G1 X127.695 Y42.709 E3.83545
G1 X128.024 Y43.587 E3.86664
G1 X128.293 Y44.559 E3.90018
G1 X128.47 Y45.525 E3.93285
G1 X128.565 Y46.655 E3.97056
G1 X128.58 Y47.33 E3.99302
G1 X128.579 Y102.416 E5.82519
G1 X128.567 Y103.177 E5.8505
G1 X128.509 Y104.15 E5.88292
G1 X128.363 Y105.113 E5.91532
G1 X128.132 Y106.06 E5.94774
G1 X127.819 Y106.982 E5.98012
G1 X127.427 Y107.873 E6.0125
G1 X126.975 Y108.695 E6.0437
G1 X126.413 Y109.533 E6.07726
G1 X125.823 Y110.263 E6.10848
G1 X125.12 Y110.989 E6.14209
G1 X124.384 Y111.625 E6.17444
G1 X123.594 Y112.195 E6.20684
G1 X122.818 Y112.658 E6.2369
G1 X121.878 Y113.111 E6.2716
G1 X120.965 Y113.453 E6.30403
G1 X120.027 Y113.712 E6.3364
G1 X119.061 Y113.889 E6.36906
G1 X117.925 Y113.985 E6.40698
G1 X117.25 Y114 E6.42943
G1 X20.129 Y113.999 E9.65969
G1 X19.396 Y113.987 E9.68407
G1 X18.424 Y113.928 E9.71646
G1 X17.461 Y113.782 E9.74886
G1 X16.514 Y113.551 E9.78128
G1 X15.626 Y113.251 E9.81245
G1 X14.734 Y112.861 E9.84483
G1 X13.851 Y112.374 E9.87837
G1 X13.1 Y111.872 E9.90842
G1 X12.285 Y111.214 E9.94326
G1 X11.587 Y110.536 E9.97562
G1 X10.951 Y109.799 E10.008
G1 X10.381 Y109.009 E10.0404
G1 X9.919 Y108.233 E10.07044
G1 X9.465 Y107.291 E10.10522
G1 X9.136 Y106.413 E10.1364
G1 X8.867 Y105.44 E10.16998
G1 X8.69 Y104.473 E10.20268
G1 X8.594 Y103.308 E10.24156
G1 X8.58 Y102.658 E10.26318
G1 X8.581 Y47.509 E12.09744
G1 X8.593 Y46.808 E12.12076
G1 X8.653 Y45.835 E12.15319
G1 X8.8 Y44.874 E12.18552
G1 X9.031 Y43.926 E12.21797
G1 X9.333 Y43.037 E12.2492
G1 X9.74 Y42.115 E12.28272
G1 X10.211 Y41.263 E12.3151
G1 X10.756 Y40.454 E12.34755
G1 X11.347 Y39.726 E12.37873
G1 X12.049 Y39.001 E12.4123
G1 X12.759 Y38.387 E12.44352
G1 X13.578 Y37.797 E12.47709
G1 X14.417 Y37.301 E12.50951
G1 X15.231 Y36.91 E12.53954
G0 F6000 X15.404 Y37.271
G1 F1200 X16.315 Y36.928 E12.57192
G1 X17.219 Y36.678 E12.60312
G1 X18.147 Y36.508 E12.63449
G1 X19.294 Y36.413 E12.67277
G1 X19.901 Y36.4 E12.69297
G1 X116.878 Y36.4 E15.91844
G1 X117.74 Y36.412 E15.94711
G1 X118.677 Y36.468 E15.97833
G1 X119.605 Y36.607 E16.00954
G1 X120.518 Y36.828 E16.04078
G1 X121.374 Y37.116 E16.07082
G1 X122.266 Y37.506 E16.1032
G1 X123.087 Y37.959 E16.13439
G1 X123.838 Y38.461 E16.16443
G1 X124.597 Y39.073 E16.19686
G1 X125.271 Y39.726 E16.22807
G1 X125.885 Y40.435 E16.25927
G1 X126.435 Y41.196 E16.2905
G1 X126.897 Y41.972 E16.32054
G1 X127.32 Y42.849 E16.35292
G1 X127.649 Y43.727 E16.38411
G1 X127.9 Y44.632 E16.41534
G1 X128.071 Y45.559 E16.4467
G1 X128.166 Y46.689 E16.48441
G1 X128.18 Y47.33 E16.50574
G1 X128.179 Y102.41 E18.33771
G1 X128.168 Y103.154 E18.36245
G1 X128.113 Y104.091 E18.39367
G1 X127.974 Y105.019 E18.42488
G1 X127.753 Y105.932 E18.45613
G1 X127.453 Y106.821 E18.48733
G1 X127.076 Y107.68 E18.51853
G1 X126.624 Y108.502 E18.54973
G1 X126.101 Y109.282 E18.58097
G1 X125.535 Y109.985 E18.61099
G1 X124.858 Y110.687 E18.64342
G1 X124.15 Y111.301 E18.67459
G1 X123.389 Y111.851 E18.70582
G1 X122.613 Y112.314 E18.73588
G1 X121.737 Y112.737 E18.76823
G1 X120.858 Y113.068 E18.79947
G1 X119.954 Y113.319 E18.83068
G1 X119.027 Y113.49 E18.86203
G1 X117.891 Y113.586 E18.89995
G1 X117.25 Y113.6 E18.92127
G1 X20.135 Y113.599 E22.15133
G1 X19.42 Y113.588 E22.17511
G1 X18.483 Y113.532 E22.20634
G1 X17.555 Y113.393 E22.23755
G1 X16.642 Y113.172 E22.26879
G1 X15.786 Y112.884 E22.29883
G1 X14.894 Y112.494 E22.33121
G1 X14.073 Y112.041 E22.36239
G1 X13.322 Y111.539 E22.39244
G1 X12.563 Y110.927 E22.42487
G1 X11.889 Y110.274 E22.45608
G1 X11.275 Y109.565 E22.48728
G1 X10.725 Y108.804 E22.51851
G1 X10.263 Y108.028 E22.54854
G1 X9.84 Y107.151 E22.58093
G1 X9.511 Y106.273 E22.61211
G1 X9.26 Y105.368 E22.64335
G1 X9.089 Y104.44 E22.67474
G1 X8.993 Y103.275 E22.71361
G1 X8.98 Y102.658 E22.73414
G1 X8.981 Y47.515 E24.5682
G1 X8.992 Y46.832 E24.59092
G1 X9.049 Y45.895 E24.62215
G1 X9.189 Y44.968 E24.65333
G1 X9.41 Y44.055 E24.68457
G1 X9.712 Y43.166 E24.7158
G1 X10.09 Y42.308 E24.74698
G1 X10.543 Y41.486 E24.7782
G1 X11.067 Y40.706 E24.80945
G1 X11.658 Y39.978 E24.84064
G1 X12.311 Y39.304 E24.87185
G1 X13.021 Y38.69 E24.90307
G1 X13.782 Y38.141 E24.93428
G1 X14.59 Y37.662 E24.96553
G1 X15.404 Y37.271 E24.99556
G0 F6000 X15.577 Y37.632
G1 F1200 X16.422 Y37.313 E25.0256
G1 X17.292 Y37.071 E25.05564
G1 X18.18 Y36.907 E25.08567
G1 X19.303 Y36.813 E25.12315
G1 X19.91 Y36.8 E25.14335
G1 X116.873 Y36.8 E28.36835
G1 X117.717 Y36.811 E28.39642
G1 X118.619 Y36.864 E28.42648
G1 X119.512 Y36.996 E28.4565
G1 X120.39 Y37.207 E28.48653
G1 X121.246 Y37.495 E28.51657
G1 X122.073 Y37.857 E28.5466
G1 X122.865 Y38.292 E28.57665
G1 X123.616 Y38.794 E28.6067
G1 X124.319 Y39.361 E28.63674
G1 X124.969 Y39.988 E28.66677
G1 X125.561 Y40.67 E28.69681
G1 X126.091 Y41.401 E28.72684
G1 X126.553 Y42.177 E28.75688
G1 X126.946 Y42.99 E28.78691
G1 X127.264 Y43.835 E28.81694
G1 X127.507 Y44.705 E28.84699
G1 X127.672 Y45.593 E28.87703
G1 X127.767 Y46.723 E28.91474
G1 X127.78 Y47.33 E28.93494
G1 X127.779 Y102.404 E30.76671
G1 X127.769 Y103.131 E30.79089
G1 X127.717 Y104.033 E30.82094
G1 X127.585 Y104.926 E30.85096
G1 X127.374 Y105.805 E30.88103
G1 X127.087 Y106.661 E30.91106
G1 X126.725 Y107.488 E30.94108
G1 X126.291 Y108.28 E30.97112
G1 X125.789 Y109.031 E31.00117
G1 X125.223 Y109.734 E31.03118
G1 X124.596 Y110.385 E31.06125
G1 X123.915 Y110.977 E31.09126
G1 X123.184 Y111.507 E31.12129
G1 X122.408 Y111.97 E31.15134
G1 X121.595 Y112.363 E31.18138
G1 X120.75 Y112.683 E31.21143
G1 X119.881 Y112.926 E31.24144
G1 X118.993 Y113.091 E31.27148
G1 X117.857 Y113.187 E31.3094
G1 X117.25 Y113.2 E31.3296
G1 X20.141 Y113.199 E34.55945
G1 X19.443 Y113.189 E34.58267
G1 X18.541 Y113.136 E34.61272
G1 X17.648 Y113.004 E34.64275
G1 X16.77 Y112.793 E34.67278
G1 X15.914 Y112.505 E34.70282
G1 X15.087 Y112.143 E34.73285
G1 X14.295 Y111.708 E34.7629
G1 X13.544 Y111.206 E34.79295
G1 X12.841 Y110.639 E34.82298
G1 X12.191 Y110.012 E34.85302
G1 X11.599 Y109.33 E34.88306
G1 X11.069 Y108.599 E34.91309
G1 X10.607 Y107.823 E34.94313
G1 X10.214 Y107.01 E34.97316
G1 X9.896 Y106.165 E35.00319
G1 X9.653 Y105.295 E35.03324
G1 X9.488 Y104.407 E35.06328
G1 X9.393 Y103.266 E35.10136
G1 X9.38 Y102.658 E35.12158
G1 X9.381 Y47.521 E36.95545
G1 X9.391 Y46.856 E36.97757
G1 X9.445 Y45.954 E37.00762
G1 X9.578 Y45.061 E37.03765
G1 X9.789 Y44.183 E37.06769
G1 X10.078 Y43.327 E37.09774
G1 X10.441 Y42.5 E37.12777
G1 X10.875 Y41.709 E37.15778
G1 X11.378 Y40.958 E37.18785
G1 X11.946 Y40.256 E37.21788
G1 X12.573 Y39.606 E37.24792
G1 X13.255 Y39.014 E37.27796
G1 X13.987 Y38.485 E37.30799
G1 X14.763 Y38.023 E37.33803
G1 X15.577 Y37.632 E37.36807
G1 F2700 E32.36807
;MESH:Mizzou_logo.stl
G0 F6000 X20.01 Y46.335
G0 X70.925 Y102.4
;TYPE:WALL-INNER
G1 F2700 E37.36807
G1 F1200 X116.98 Y102.4 E38.89986
G1 X116.98 Y47.6 E40.72252
G1 X20.18 Y47.6 E43.9421
G1 X20.18 Y102.4 E45.76475
G1 X70.925 Y102.4 E47.45254
G0 F6000 X70.96 Y102.8
;TYPE:WALL-OUTER
G1 F1200 X117.38 Y102.8 E48.99648
G1 X117.38 Y47.2 E50.84574
G1 X19.78 Y47.2 E54.09193
G1 X19.78 Y102.8 E55.94119
G1 X70.96 Y102.8 E57.64345
G0 F6000 X70.895 Y102.04
;TYPE:SKIN
G1 F1200 X20.54 Y102.04 E59.31826
G1 X20.54 Y47.96 E61.11697
G1 X116.62 Y47.96 E64.3126
G1 X116.62 Y102.04 E66.11131
G1 X70.895 Y102.04 E67.63213
G1 F2700 E62.63213
G0 F6000 X70.895 Y102.3
G0 X20.352 Y102.228
G0 X20.28 Y101.633
G0 X20.74 Y101.633
G1 F2700 E67.63213
G1 F1200 X20.947 Y101.84 E67.64187
G0 F6000 X21.512 Y101.84
G1 F1200 X20.74 Y101.067 E67.6782
G0 F6000 X20.74 Y100.502
G1 F1200 X22.078 Y101.84 E67.74114
G0 F6000 X22.644 Y101.84
G1 F1200 X20.74 Y99.936 E67.8307
G0 F6000 X20.74 Y99.37
G1 F1200 X23.209 Y101.84 E67.94685
G0 F6000 X23.775 Y101.84
G1 F1200 X20.74 Y98.805 E68.08961
G0 F6000 X20.74 Y98.239
G1 F1200 X24.341 Y101.84 E68.25899
G0 F6000 X24.906 Y101.84
G1 F1200 X20.74 Y97.673 E68.45497
G0 F6000 X20.74 Y97.108
G1 F1200 X25.472 Y101.84 E68.67755
G0 F6000 X26.038 Y101.84
G1 F1200 X20.74 Y96.542 E68.92675
G0 F6000 X20.74 Y95.976
G1 F1200 X26.603 Y101.84 E69.20255
G0 F6000 X27.169 Y101.84
G1 F1200 X20.74 Y95.411 E69.50495
G0 F6000 X20.74 Y94.845
G1 F1200 X27.735 Y101.84 E69.83398
G0 F6000 X28.301 Y101.84
G1 F1200 X20.74 Y94.279 E70.18962
G0 F6000 X20.74 Y93.714
G1 F1200 X28.866 Y101.84 E70.57184
G0 F6000 X29.432 Y101.84
G1 F1200 X20.74 Y93.148 E70.98069
G0 F6000 X20.74 Y92.582
G1 F1200 X29.998 Y101.84 E71.41616
G0 F6000 X30.563 Y101.84
G1 F1200 X20.74 Y92.017 E71.8782
G0 F6000 X20.74 Y91.451
G1 F1200 X31.129 Y101.84 E72.36687
G0 F6000 X31.695 Y101.84
G1 F1200 X20.74 Y90.885 E72.88216
G0 F6000 X20.74 Y90.319
G1 F1200 X32.26 Y101.84 E73.42405
G0 F6000 X32.826 Y101.84
G1 F1200 X20.74 Y89.754 E73.99253
G0 F6000 X20.74 Y89.188
G1 F1200 X33.392 Y101.84 E74.58765
G0 F6000 X33.957 Y101.84
G1 F1200 X20.74 Y88.622 E75.20936
G0 F6000 X20.74 Y88.057
G1 F1200 X34.523 Y101.84 E75.85767
G0 F6000 X35.089 Y101.84
G1 F1200 X20.74 Y87.491 E76.5326
G0 F6000 X20.74 Y86.925
G1 F1200 X35.654 Y101.84 E77.23413
G0 F6000 X36.22 Y101.84
G1 F1200 X20.74 Y86.36 E77.96226
G0 F6000 X20.74 Y85.794
G1 F1200 X36.786 Y101.84 E78.71702
G0 F6000 X37.352 Y101.84
G1 F1200 X20.74 Y85.228 E79.4984
G0 F6000 X20.74 Y84.663
G1 F1200 X37.917 Y101.84 E80.30635
G0 F6000 X38.483 Y101.84
G1 F1200 X20.74 Y84.097 E81.14093
G0 F6000 X20.74 Y83.531
G1 F1200 X39.049 Y101.84 E82.00212
G0 F6000 X39.614 Y101.84
G1 F1200 X20.74 Y82.966 E82.8899
G0 F6000 X20.74 Y82.4
G1 F1200 X40.18 Y101.84 E83.8043
G0 F6000 X40.746 Y101.84
G1 F1200 X20.74 Y81.834 E84.74532
G0 F6000 X20.74 Y81.268
G1 F1200 X41.311 Y101.84 E85.71294
G0 F6000 X41.877 Y101.84
G1 F1200 X20.74 Y80.703 E86.70716
G0 F6000 X20.74 Y80.137
G1 F1200 X42.443 Y101.84 E87.728
G0 F6000 X43.008 Y101.84
G1 F1200 X20.74 Y79.571 E88.77544
G0 F6000 X20.74 Y79.006
G1 F1200 X43.574 Y101.84 E89.84948
G0 F6000 X44.14 Y101.84
G1 F1200 X20.74 Y78.44 E90.95015
G0 F6000 X20.74 Y77.874
G1 F1200 X44.705 Y101.84 E92.07741
G0 F6000 X45.271 Y101.84
G1 F1200 X20.74 Y77.309 E93.23128
G0 F6000 X20.74 Y76.743
G1 F1200 X45.837 Y101.84 E94.41176
G0 F6000 X46.402 Y101.84
G1 F1200 X20.74 Y76.177 E95.61885
G0 F6000 X20.74 Y75.612
G1 F1200 X46.968 Y101.84 E96.85253
G0 F6000 X47.534 Y101.84
G1 F1200 X20.74 Y75.046 E98.11284
G0 F6000 X20.74 Y74.48
G1 F1200 X48.1 Y101.84 E99.39977
G0 F6000 X48.665 Y101.84
G1 F1200 X20.74 Y73.915 E100.71328
G0 F6000 X20.74 Y73.349
G1 F1200 X49.231 Y101.84 E102.05341
G0 F6000 X49.797 Y101.84
G1 F1200 X20.74 Y72.783 E103.42016
G0 F6000 X20.74 Y72.218
G1 F1200 X50.362 Y101.84 E104.81349
G0 F6000 X50.928 Y101.84
G1 F1200 X20.74 Y71.652 E106.23344
G0 F6000 X20.74 Y71.086
G1 F1200 X51.494 Y101.84 E107.68001
G0 F6000 X52.059 Y101.84
G1 F1200 X20.74 Y70.52 E109.15318
G0 F6000 X20.74 Y69.955
G1 F1200 X52.625 Y101.84 E110.65296
G0 F6000 X53.191 Y101.84
G1 F1200 X20.74 Y69.389 E112.17935
G0 F6000 X20.74 Y68.823
G1 F1200 X53.756 Y101.84 E113.73235
G0 F6000 X54.322 Y101.84
G1 F1200 X20.74 Y68.258 E115.31194
G0 F6000 X20.74 Y67.692
G1 F1200 X54.888 Y101.84 E116.91816
G0 F6000 X55.453 Y101.84
G1 F1200 X20.74 Y67.126 E118.55097
G0 F6000 X20.74 Y66.561
G1 F1200 X56.019 Y101.84 E120.21039
G0 F6000 X56.585 Y101.84
G1 F1200 X20.74 Y65.995 E121.89643
G0 F6000 X20.74 Y65.429
G1 F1200 X57.15 Y101.84 E123.60907
G0 F6000 X57.716 Y101.84
G1 F1200 X20.74 Y64.864 E125.34831
G0 F6000 X20.74 Y64.298
G1 F1200 X58.282 Y101.84 E127.11417
G0 F6000 X58.848 Y101.84
G1 F1200 X20.74 Y63.732 E128.90665
G0 F6000 X20.74 Y63.167
G1 F1200 X59.413 Y101.84 E130.72571
G0 F6000 X59.979 Y101.84
G1 F1200 X20.74 Y62.601 E132.57139
G0 F6000 X20.74 Y62.035
G1 F1200 X60.545 Y101.84 E134.4437
G0 F6000 X61.11 Y101.84
G1 F1200 X20.74 Y61.469 E136.3426
G0 F6000 X20.74 Y60.904
G1 F1200 X61.676 Y101.84 E138.2681
G0 F6000 X62.242 Y101.84
G1 F1200 X20.74 Y60.338 E140.22023
G0 F6000 X20.74 Y59.772
G1 F1200 X62.807 Y101.84 E142.19896
G0 F6000 X63.373 Y101.84
G1 F1200 X20.74 Y59.207 E144.20428
G0 F6000 X20.74 Y58.641
G1 F1200 X63.939 Y101.84 E146.23623
G0 F6000 X64.504 Y101.84
G1 F1200 X20.74 Y58.075 E148.29478
G0 F6000 X20.74 Y57.51
G1 F1200 X65.07 Y101.84 E150.37993
G0 F6000 X65.636 Y101.84
G1 F1200 X20.74 Y56.944 E152.4917
G0 F6000 X20.74 Y56.378
G1 F1200 X66.201 Y101.84 E154.63007
G0 F6000 X66.767 Y101.84
G1 F1200 X20.74 Y55.813 E156.79504
G0 F6000 X20.74 Y55.247
G1 F1200 X67.333 Y101.84 E158.98663
G0 F6000 X67.899 Y101.84
G1 F1200 X20.74 Y54.681 E161.20484
G0 F6000 X20.74 Y54.116
G1 F1200 X68.464 Y101.84 E163.44963
G0 F6000 X69.03 Y101.84
G1 F1200 X20.74 Y53.55 E165.72105
G0 F6000 X20.74 Y52.984
G1 F1200 X69.596 Y101.84 E168.01908
G0 F6000 X70.161 Y101.84
G1 F1200 X20.74 Y52.419 E170.3437
G0 F6000 X20.74 Y51.853
G1 F1200 X70.727 Y101.84 E172.69493
G0 F6000 X71.293 Y101.84
G1 F1200 X20.74 Y51.287 E175.07279
G0 F6000 X20.74 Y50.721
G1 F1200 X71.858 Y101.84 E177.47725
G0 F6000 X72.424 Y101.84
G1 F1200 X20.74 Y50.156 E179.9083
G0 F6000 X20.74 Y49.59
G1 F1200 X72.99 Y101.84 E182.36598
G0 F6000 X73.555 Y101.84
G1 F1200 X20.74 Y49.024 E184.85026
G0 F6000 X20.74 Y48.459
G1 F1200 X74.121 Y101.84 E187.36114
G0 F6000 X74.687 Y101.84
G1 F1200 X21.007 Y48.16 E189.88608
G0 F6000 X21.573 Y48.16
G1 F1200 X75.252 Y101.84 E192.411
G0 F6000 X75.818 Y101.84
G1 F1200 X22.139 Y48.16 E194.93592
G0 F6000 X22.704 Y48.16
G1 F1200 X76.384 Y101.84 E197.46086
G0 F6000 X76.949 Y101.84
G1 F1200 X23.27 Y48.16 E199.98578
G0 F6000 X23.836 Y48.16
G1 F1200 X77.515 Y101.84 E202.5107
G0 F6000 X78.081 Y101.84
G1 F1200 X24.402 Y48.16 E205.03562
G0 F6000 X24.967 Y48.16
G1 F1200 X78.647 Y101.84 E207.56056
G0 F6000 X79.212 Y101.84
G1 F1200 X25.533 Y48.16 E210.08548
G0 F6000 X26.099 Y48.16
G1 F1200 X79.778 Y101.84 E212.6104
G0 F6000 X80.344 Y101.84
G1 F1200 X26.664 Y48.16 E215.13535
G0 F6000 X27.23 Y48.16
G1 F1200 X80.909 Y101.84 E217.66026
G0 F6000 X81.475 Y101.84
G1 F1200 X27.796 Y48.16 E220.18518
G0 F6000 X28.361 Y48.16
G1 F1200 X82.041 Y101.84 E222.71013
G0 F6000 X82.606 Y101.84
G1 F1200 X28.927 Y48.16 E225.23504
G0 F6000 X29.493 Y48.16
G1 F1200 X83.172 Y101.84 E227.75996
G0 F6000 X83.738 Y101.84
G1 F1200 X30.058 Y48.16 E230.28491
G0 F6000 X30.624 Y48.16
G1 F1200 X84.303 Y101.84 E232.80983
G0 F6000 X84.869 Y101.84
G1 F1200 X31.19 Y48.16 E235.33474
G0 F6000 X31.755 Y48.16
G1 F1200 X85.435 Y101.84 E237.85969
G0 F6000 X86 Y101.84
G1 F1200 X32.321 Y48.16 E240.38461
G0 F6000 X32.887 Y48.16
G1 F1200 X86.566 Y101.84 E242.90953
G0 F6000 X87.132 Y101.84
G1 F1200 X33.453 Y48.16 E245.43444
G0 F6000 X34.018 Y48.16
G1 F1200 X87.698 Y101.84 E247.95939
G0 F6000 X88.263 Y101.84
G1 F1200 X34.584 Y48.16 E250.48431
G0 F6000 X35.15 Y48.16
G1 F1200 X88.829 Y101.84 E253.00923
G0 F6000 X89.395 Y101.84
G1 F1200 X35.715 Y48.16 E255.53417
G0 F6000 X36.281 Y48.16
G1 F1200 X89.96 Y101.84 E258.05909
G0 F6000 X90.526 Y101.84
G1 F1200 X36.847 Y48.16 E260.58401
G0 F6000 X37.412 Y48.16
G1 F1200 X91.092 Y101.84 E263.10895
G0 F6000 X91.657 Y101.84
G1 F1200 X37.978 Y48.16 E265.63387
G0 F6000 X38.544 Y48.16
G1 F1200 X92.223 Y101.84 E268.15879
G0 F6000 X92.789 Y101.84
G1 F1200 X39.109 Y48.16 E270.68373
G0 F6000 X39.675 Y48.16
G1 F1200 X93.354 Y101.84 E273.20865
G0 F6000 X93.92 Y101.84
G1 F1200 X40.241 Y48.16 E275.73357
G0 F6000 X40.806 Y48.16
G1 F1200 X94.486 Y101.84 E278.25851
G0 F6000 X95.051 Y101.84
G1 F1200 X41.372 Y48.16 E280.78343
G0 F6000 X41.938 Y48.16
G1 F1200 X95.617 Y101.84 E283.30835
G0 F6000 X96.183 Y101.84
G1 F1200 X42.503 Y48.16 E285.83329
G0 F6000 X43.069 Y48.16
G1 F1200 X96.748 Y101.84 E288.35821
G0 F6000 X97.314 Y101.84
G1 F1200 X43.635 Y48.16 E290.88313
G0 F6000 X44.201 Y48.16
G1 F1200 X97.88 Y101.84 E293.40805
G0 F6000 X98.446 Y101.84
G1 F1200 X44.766 Y48.16 E295.93299
G0 F6000 X45.332 Y48.16
G1 F1200 X99.011 Y101.84 E298.45791
G0 F6000 X99.577 Y101.84
G1 F1200 X45.898 Y48.16 E300.98283
G0 F6000 X46.463 Y48.16
G1 F1200 X100.143 Y101.84 E303.50777
G0 F6000 X100.708 Y101.84
G1 F1200 X47.029 Y48.16 E306.03269
G0 F6000 X47.595 Y48.16
G1 F1200 X101.274 Y101.84 E308.55761
G0 F6000 X101.84 Y101.84
G1 F1200 X48.16 Y48.16 E311.08255
G0 F6000 X48.726 Y48.16
G1 F1200 X102.405 Y101.84 E313.60747
G0 F6000 X102.971 Y101.84
G1 F1200 X49.292 Y48.16 E316.13239
G0 F6000 X49.857 Y48.16
G1 F1200 X103.537 Y101.84 E318.65733
G0 F6000 X104.102 Y101.84
G1 F1200 X50.423 Y48.16 E321.18225
G0 F6000 X50.989 Y48.16
G1 F1200 X104.668 Y101.84 E323.70717
G0 F6000 X105.234 Y101.84
G1 F1200 X51.554 Y48.16 E326.23211
G0 F6000 X52.12 Y48.16
G1 F1200 X105.799 Y101.84 E328.75703
G0 F6000 X106.365 Y101.84
G1 F1200 X52.686 Y48.16 E331.28195
G0 F6000 X53.252 Y48.16
G1 F1200 X106.931 Y101.84 E333.80687
G0 F6000 X107.496 Y101.84
G1 F1200 X53.817 Y48.16 E336.33179
G0 F6000 X54.383 Y48.16
G1 F1200 X108.062 Y101.84 E338.85671
G0 F6000 X108.628 Y101.84
G1 F1200 X54.949 Y48.16 E341.38163
G0 F6000 X55.514 Y48.16
G1 F1200 X109.194 Y101.84 E343.90657
G0 F6000 X109.759 Y101.84
G1 F1200 X56.08 Y48.16 E346.43149
G0 F6000 X56.646 Y48.16
G1 F1200 X110.325 Y101.84 E348.95641
G0 F6000 X110.891 Y101.84
G1 F1200 X57.211 Y48.16 E351.48135
G0 F6000 X57.777 Y48.16
G1 F1200 X111.456 Y101.84 E354.00627
G0 F6000 X112.022 Y101.84
G1 F1200 X58.343 Y48.16 E356.53119
G0 F6000 X58.908 Y48.16
G1 F1200 X112.588 Y101.84 E359.05613
G0 F6000 X113.153 Y101.84
G1 F1200 X59.474 Y48.16 E361.58105
G0 F6000 X60.04 Y48.16
G1 F1200 X113.719 Y101.84 E364.10597
G0 F6000 X114.285 Y101.84
G1 F1200 X60.605 Y48.16 E366.63091
G0 F6000 X61.171 Y48.16
G1 F1200 X114.85 Y101.84 E369.15583
G0 F6000 X115.416 Y101.84
G1 F1200 X61.737 Y48.16 E371.68075
G0 F6000 X62.302 Y48.16
G1 F1200 X115.982 Y101.84 E374.2057
G0 F6000 X116.42 Y101.712
G1 F1200 X62.868 Y48.16 E376.72462
G0 F6000 X63.434 Y48.16
G1 F1200 X116.42 Y101.147 E379.21694
G0 F6000 X116.42 Y100.581
G1 F1200 X64 Y48.16 E381.68264
G0 F6000 X64.565 Y48.16
G1 F1200 X116.42 Y100.015 E384.12174
G0 F6000 X116.42 Y99.45
G1 F1200 X65.131 Y48.16 E386.53424
G0 F6000 X65.697 Y48.16
G1 F1200 X116.42 Y98.884 E388.92012
G0 F6000 X116.42 Y98.318
G1 F1200 X66.262 Y48.16 E391.2794
G0 F6000 X66.828 Y48.16
G1 F1200 X116.42 Y97.753 E393.61208
G0 F6000 X116.42 Y97.187
G1 F1200 X67.394 Y48.16 E395.91813
G0 F6000 X67.959 Y48.16
G1 F1200 X116.42 Y96.621 E398.19759
G0 F6000 X116.42 Y96.056
G1 F1200 X68.525 Y48.16 E400.45045
G0 F6000 X69.091 Y48.16
G1 F1200 X116.42 Y95.49 E402.67668
G0 F6000 X116.42 Y94.924
G1 F1200 X69.656 Y48.16 E404.87632
G0 F6000 X70.222 Y48.16
G1 F1200 X116.42 Y94.358 E407.04933
G0 F6000 X116.42 Y93.793
G1 F1200 X70.788 Y48.16 E409.19574
G0 F6000 X71.353 Y48.16
G1 F1200 X116.42 Y93.227 E411.31556
G0 F6000 X116.42 Y92.661
G1 F1200 X71.919 Y48.16 E413.40875
G0 F6000 X72.485 Y48.16
G1 F1200 X116.42 Y92.096 E415.47534
G0 F6000 X116.42 Y91.53
G1 F1200 X73.05 Y48.16 E417.51533
G0 F6000 X73.616 Y48.16
G1 F1200 X116.42 Y90.964 E419.5287
G0 F6000 X116.42 Y90.399
G1 F1200 X74.182 Y48.16 E421.51547
G0 F6000 X74.748 Y48.16
G1 F1200 X116.42 Y89.833 E423.47561
G0 F6000 X116.42 Y89.267
G1 F1200 X75.313 Y48.16 E425.40916
G0 F6000 X75.879 Y48.16
G1 F1200 X116.42 Y88.702 E427.31611
G0 F6000 X116.42 Y88.136
G1 F1200 X76.445 Y48.16 E429.19643
G0 F6000 X77.01 Y48.16
G1 F1200 X116.42 Y87.57 E431.05016
G0 F6000 X116.42 Y87.005
G1 F1200 X77.576 Y48.16 E432.87729
G0 F6000 X78.142 Y48.16
G1 F1200 X116.42 Y86.439 E434.67779
G0 F6000 X116.42 Y85.873
G1 F1200 X78.707 Y48.16 E436.45169
G0 F6000 X79.273 Y48.16
G1 F1200 X116.42 Y85.307 E438.19897
G0 F6000 X116.42 Y84.742
G1 F1200 X79.839 Y48.16 E439.91966
G0 F6000 X80.404 Y48.16
G1 F1200 X116.42 Y84.176 E441.61374
G0 F6000 X116.42 Y83.61
G1 F1200 X80.97 Y48.16 E443.2812
G0 F6000 X81.536 Y48.16
G1 F1200 X116.42 Y83.045 E444.92206
G0 F6000 X116.42 Y82.479
G1 F1200 X82.101 Y48.16 E446.53632
G0 F6000 X82.667 Y48.16
G1 F1200 X116.42 Y81.913 E448.12396
G0 F6000 X116.42 Y81.348
G1 F1200 X83.233 Y48.16 E449.68499
G0 F6000 X83.799 Y48.16
G1 F1200 X116.42 Y80.782 E451.21941
G0 F6000 X116.42 Y80.216
G1 F1200 X84.364 Y48.16 E452.72722
G0 F6000 X84.93 Y48.16
G1 F1200 X116.42 Y79.651 E454.20844
G0 F6000 X116.42 Y79.085
G1 F1200 X85.496 Y48.16 E455.66303
G0 F6000 X86.061 Y48.16
G1 F1200 X116.42 Y78.519 E457.09103
G0 F6000 X116.42 Y77.954
G1 F1200 X86.627 Y48.16 E458.49242
G0 F6000 X87.193 Y48.16
G1 F1200 X116.42 Y77.388 E459.8672
G0 F6000 X116.42 Y76.822
G1 F1200 X87.758 Y48.16 E461.21537
G0 F6000 X88.324 Y48.16
G1 F1200 X116.42 Y76.257 E462.53694
G0 F6000 X116.42 Y75.691
G1 F1200 X88.89 Y48.16 E463.83189
G0 F6000 X89.455 Y48.16
G1 F1200 X116.42 Y75.125 E465.10024
G0 F6000 X116.42 Y74.559
G1 F1200 X90.021 Y48.16 E466.34197
G0 F6000 X90.587 Y48.16
G1 F1200 X116.42 Y73.994 E467.5571
G0 F6000 X116.42 Y73.428
G1 F1200 X91.152 Y48.16 E468.74563
G0 F6000 X91.718 Y48.16
G1 F1200 X116.42 Y72.862 E469.90754
G0 F6000 X116.42 Y72.297
G1 F1200 X92.284 Y48.16 E471.04284
G0 F6000 X92.849 Y48.16
G1 F1200 X116.42 Y71.731 E472.15155
G0 F6000 X116.42 Y71.165
G1 F1200 X93.415 Y48.16 E473.23363
G0 F6000 X93.981 Y48.16
G1 F1200 X116.42 Y70.6 E474.28912
G0 F6000 X116.42 Y70.034
G1 F1200 X94.547 Y48.16 E475.31798
G0 F6000 X95.112 Y48.16
G1 F1200 X116.42 Y69.468 E476.32025
G0 F6000 X116.42 Y68.903
G1 F1200 X95.678 Y48.16 E477.29591
G0 F6000 X96.244 Y48.16
G1 F1200 X116.42 Y68.337 E478.24495
G0 F6000 X116.42 Y67.771
G1 F1200 X96.809 Y48.16 E479.16739
G0 F6000 X97.375 Y48.16
G1 F1200 X116.42 Y67.206 E480.06323
G0 F6000 X116.42 Y66.64
G1 F1200 X97.941 Y48.16 E480.93245
G0 F6000 X98.506 Y48.16
G1 F1200 X116.42 Y66.074 E481.77507
G0 F6000 X116.42 Y65.508
G1 F1200 X99.072 Y48.16 E482.59107
G0 F6000 X99.638 Y48.16
G1 F1200 X116.42 Y64.943 E483.38047
G0 F6000 X116.42 Y64.377
G1 F1200 X100.203 Y48.16 E484.14326
G0 F6000 X100.769 Y48.16
G1 F1200 X116.42 Y63.811 E484.87944
G0 F6000 X116.42 Y63.246
G1 F1200 X101.335 Y48.16 E485.58901
G0 F6000 X101.9 Y48.16
G1 F1200 X116.42 Y62.68 E486.27199
G0 F6000 X116.42 Y62.114
G1 F1200 X102.466 Y48.16 E486.92834
G0 F6000 X103.032 Y48.16
G1 F1200 X116.42 Y61.549 E487.5581
G0 F6000 X116.42 Y60.983
G1 F1200 X103.598 Y48.16 E488.16123
G0 F6000 X104.163 Y48.16
G1 F1200 X116.42 Y60.417 E488.73776
G0 F6000 X116.42 Y59.852
G1 F1200 X104.729 Y48.16 E489.28769
G0 F6000 X105.295 Y48.16
G1 F1200 X116.42 Y59.286 E489.811
G0 F6000 X116.42 Y58.72
G1 F1200 X105.86 Y48.16 E490.30771
G0 F6000 X106.426 Y48.16
G1 F1200 X116.42 Y58.155 E490.77782
G0 F6000 X116.42 Y57.589
G1 F1200 X106.992 Y48.16 E491.22131
G0 F6000 X107.557 Y48.16
G1 F1200 X116.42 Y57.023 E491.6382
G0 F6000 X116.42 Y56.458
G1 F1200 X108.123 Y48.16 E492.02849
G0 F6000 X108.689 Y48.16
G1 F1200 X116.42 Y55.892 E492.39215
G0 F6000 X116.42 Y55.326
G1 F1200 X109.254 Y48.16 E492.72922
G0 F6000 X109.82 Y48.16
G1 F1200 X116.42 Y54.76 E493.03966
G0 F6000 X116.42 Y54.195
G1 F1200 X110.386 Y48.16 E493.32351
G0 F6000 X110.951 Y48.16
G1 F1200 X116.42 Y53.629 E493.58075
G0 F6000 X116.42 Y53.063
G1 F1200 X111.517 Y48.16 E493.81138
G0 F6000 X112.083 Y48.16
G1 F1200 X116.42 Y52.498 E494.0154
G0 F6000 X116.42 Y51.932
G1 F1200 X112.648 Y48.16 E494.19282
G0 F6000 X113.214 Y48.16
G1 F1200 X116.42 Y51.366 E494.34362
G0 F6000 X116.42 Y50.801
G1 F1200 X113.78 Y48.16 E494.46782
G0 F6000 X114.346 Y48.16
G1 F1200 X116.42 Y50.235 E494.5654
G0 F6000 X116.42 Y49.669
G1 F1200 X114.911 Y48.16 E494.63638
G0 F6000 X115.477 Y48.16
G1 F1200 X116.42 Y49.104 E494.68076
G0 F6000 X116.42 Y48.538
G1 F1200 X116.043 Y48.16 E494.69852
G1 F2700 E489.69852
;MESH:NONMESH
G0 F300 X116.043 Y48.16 Z0.4
G0 F6000 X116.043 Y47.7
G0 X20.01 Y47.43
G0 X20.01 Y46.335
G0 X15.577 Y37.632
;TIME_ELAPSED:771.520120
;LAYER:1
M106 S85
;TYPE:SKIRT
G1 F2700 E494.69852
G1 F1200 X16.422 Y37.313 E494.72856
G1 X17.292 Y37.071 E494.75859
G1 X18.18 Y36.907 E494.78863
G1 X19.303 Y36.813 E494.82611
G1 X19.91 Y36.8 E494.8463
G1 X116.873 Y36.8 E498.0713
G1 X117.717 Y36.811 E498.09938
G1 X118.619 Y36.864 E498.12943
G1 X119.512 Y36.996 E498.15945
G1 X120.39 Y37.207 E498.18949
G1 X121.246 Y37.495 E498.21953
G1 X122.073 Y37.857 E498.24955
G1 X122.865 Y38.292 E498.27961
G1 X123.616 Y38.794 E498.30965
G1 X124.319 Y39.361 E498.33969
G1 X124.969 Y39.988 E498.36973
G1 X125.561 Y40.67 E498.39977
G1 X126.091 Y41.401 E498.4298
G1 X126.553 Y42.177 E498.45984
G1 X126.946 Y42.99 E498.48987
G1 X127.264 Y43.835 E498.5199
G1 X127.507 Y44.705 E498.54994
G1 X127.672 Y45.593 E498.57998
G1 X127.767 Y46.723 E498.6177
G1 X127.78 Y47.33 E498.63789
G1 X127.779 Y102.404 E500.46966
G1 X127.769 Y103.131 E500.49384
G1 X127.717 Y104.033 E500.52389
G1 X127.585 Y104.926 E500.55392
G1 X127.374 Y105.805 E500.58398
G1 X127.087 Y106.661 E500.61401
G1 X126.725 Y107.488 E500.64404
G1 X126.291 Y108.28 E500.67408
G1 X125.789 Y109.031 E500.70412
G1 X125.223 Y109.734 E500.73414
G1 X124.596 Y110.385 E500.7642
G1 X123.915 Y110.977 E500.79421
G1 X123.184 Y111.507 E500.82424
G1 X122.408 Y111.97 E500.8543
G1 X121.595 Y112.363 E500.88433
G1 X120.75 Y112.683 E500.91439
G1 X119.881 Y112.926 E500.9444
G1 X118.993 Y113.091 E500.97444
G1 X117.857 Y113.187 E501.01236
G1 X117.25 Y113.2 E501.03255
G1 X20.141 Y113.199 E504.26241
G1 X19.443 Y113.189 E504.28563
G1 X18.541 Y113.136 E504.31568
G1 X17.648 Y113.004 E504.3457
G1 X16.77 Y112.793 E504.37574
G1 X15.914 Y112.505 E504.40578
G1 X15.087 Y112.143 E504.4358
G1 X14.295 Y111.708 E504.46586
G1 X13.544 Y111.206 E504.4959
G1 X12.841 Y110.639 E504.52594
G1 X12.191 Y110.012 E504.55598
G1 X11.599 Y109.33 E504.58601
G1 X11.069 Y108.599 E504.61605
G1 X10.607 Y107.823 E504.64608
G1 X10.214 Y107.01 E504.67612
G1 X9.896 Y106.165 E504.70615
G1 X9.653 Y105.295 E504.73619
G1 X9.488 Y104.407 E504.76623
G1 X9.393 Y103.266 E504.80431
G1 X9.38 Y102.658 E504.82454
G1 X9.381 Y47.521 E506.6584
G1 X9.391 Y46.856 E506.68052
G1 X9.445 Y45.954 E506.71058
G1 X9.578 Y45.061 E506.74061
G1 X9.789 Y44.183 E506.77064
G1 X10.078 Y43.327 E506.80069
G1 X10.441 Y42.5 E506.83073
G1 X10.875 Y41.709 E506.86074
G1 X11.378 Y40.958 E506.8908
G1 X11.946 Y40.256 E506.92084
G1 X12.573 Y39.606 E506.95087
G1 X13.255 Y39.014 E506.98091
G1 X13.987 Y38.485 E507.01095
G1 X14.763 Y38.023 E507.04099
G1 X15.577 Y37.632 E507.07102
G1 F2700 E502.07102
;MESH:Mizzou_logo.stl
G0 F7500 X20.01 Y46.335
G0 X70.925 Y102.4
;TYPE:WALL-INNER
G1 F2700 E507.07102
G1 F1350 X116.98 Y102.4 E508.60282
G1 X116.98 Y47.6 E510.42547
G1 X20.18 Y47.6 E513.64505
G1 X20.18 Y102.4 E515.46771
G1 X70.925 Y102.4 E517.1555
G0 F7500 X70.96 Y102.8
;TYPE:WALL-OUTER
G1 F1350 X117.38 Y102.8 E518.69943
G1 X117.38 Y47.2 E520.54869
G1 X19.78 Y47.2 E523.79488
G1 X19.78 Y102.8 E525.64415
G1 X70.96 Y102.8 E527.3464
G0 F7500 X70.895 Y102.04
;TYPE:SKIN
G1 F1350 X20.54 Y102.04 E529.02121
G1 X20.54 Y47.96 E530.81992
G1 X116.62 Y47.96 E534.01556
G1 X116.62 Y102.04 E535.81426
G1 X70.895 Y102.04 E537.33508
G1 F2700 E532.33508
G0 F7500 X70.895 Y102.3
G0 X115.949 Y102.3
G0 X115.949 Y101.84
G1 F2700 E537.33508
G1 F1350 X116.42 Y101.369 E537.35724
G0 F7500 X116.42 Y100.803
G1 F1350 X115.384 Y101.84 E537.40599
G0 F7500 X114.818 Y101.84
G1 F1350 X116.42 Y100.237 E537.48137
G0 F7500 X116.42 Y99.672
G1 F1350 X114.252 Y101.84 E537.58335
G0 F7500 X113.687 Y101.84
G1 F1350 X116.42 Y99.106 E537.71192
G0 F7500 X116.42 Y98.54
G1 F1350 X113.121 Y101.84 E537.86712
G0 F7500 X112.555 Y101.84
G1 F1350 X116.42 Y97.975 E538.04892
G0 F7500 X116.42 Y97.409
G1 F1350 X111.989 Y101.84 E538.25734
G0 F7500 X111.424 Y101.84
G1 F1350 X116.42 Y96.843 E538.49236
G0 F7500 X116.42 Y96.278
G1 F1350 X110.858 Y101.84 E538.75398
G0 F7500 X110.292 Y101.84
G1 F1350 X116.42 Y95.712 E539.04222
G0 F7500 X116.42 Y95.146
G1 F1350 X109.727 Y101.84 E539.35706
G0 F7500 X109.161 Y101.84
G1 F1350 X116.42 Y94.58 E539.69853
G0 F7500 X116.42 Y94.015
G1 F1350 X108.595 Y101.84 E540.06659
G0 F7500 X108.03 Y101.84
G1 F1350 X116.42 Y93.449 E540.46125
G0 F7500 X116.42 Y92.883
G1 F1350 X107.464 Y101.84 E540.88254
G0 F7500 X106.898 Y101.84
G1 F1350 X116.42 Y92.318 E541.33043
G0 F7500 X116.42 Y91.752
G1 F1350 X106.333 Y101.84 E541.80491
G0 F7500 X105.767 Y101.84
G1 F1350 X116.42 Y91.186 E542.30602
G0 F7500 X116.42 Y90.621
G1 F1350 X105.201 Y101.84 E542.83373
G0 F7500 X104.636 Y101.84
G1 F1350 X116.42 Y90.055 E543.38803
G0 F7500 X116.42 Y89.489
G1 F1350 X104.07 Y101.84 E543.96896
G0 F7500 X103.504 Y101.84
G1 F1350 X116.42 Y88.924 E544.57649
G0 F7500 X116.42 Y88.358
G1 F1350 X102.938 Y101.84 E545.21064
G0 F7500 X102.373 Y101.84
G1 F1350 X116.42 Y87.792 E545.87139
G0 F7500 X116.42 Y87.227
G1 F1350 X101.807 Y101.84 E546.55875
G0 F7500 X101.241 Y101.84
G1 F1350 X116.42 Y86.661 E547.27272
G0 F7500 X116.42 Y86.095
G1 F1350 X100.676 Y101.84 E548.01329
G0 F7500 X100.11 Y101.84
G1 F1350 X116.42 Y85.53 E548.78046
G0 F7500 X116.42 Y84.964
G1 F1350 X99.544 Y101.84 E549.57426
G0 F7500 X98.979 Y101.84
G1 F1350 X116.42 Y84.398 E550.39465
G0 F7500 X116.42 Y83.832
G1 F1350 X98.413 Y101.84 E551.24167
G0 F7500 X97.847 Y101.84
G1 F1350 X116.42 Y83.267 E552.11529
G0 F7500 X116.42 Y82.701
G1 F1350 X97.282 Y101.84 E553.01551
G0 F7500 X96.716 Y101.84
G1 F1350 X116.42 Y82.135 E553.94234
G0 F7500 X116.42 Y81.57
G1 F1350 X96.15 Y101.84 E554.89578
G0 F7500 X95.585 Y101.84
G1 F1350 X116.42 Y81.004 E555.87582
G0 F7500 X116.42 Y80.438
G1 F1350 X95.019 Y101.84 E556.88248
G0 F7500 X94.453 Y101.84
G1 F1350 X116.42 Y79.873 E557.91574
G0 F7500 X116.42 Y79.307
G1 F1350 X93.888 Y101.84 E558.9756
G0 F7500 X93.322 Y101.84
G1 F1350 X116.42 Y78.741 E560.06208
G0 F7500 X116.42 Y78.176
G1 F1350 X92.756 Y101.84 E561.17517
G0 F7500 X92.19 Y101.84
G1 F1350 X116.42 Y77.61 E562.31487
G0 F7500 X116.42 Y77.044
G1 F1350 X91.625 Y101.84 E563.48118
G0 F7500 X91.059 Y101.84
G1 F1350 X116.42 Y76.479 E564.67408
G0 F7500 X116.42 Y75.913
G1 F1350 X90.493 Y101.84 E565.89361
G0 F7500 X89.928 Y101.84
G1 F1350 X116.42 Y75.347 E567.13973
G0 F7500 X116.42 Y74.781
G1 F1350 X89.362 Y101.84 E568.41248
G0 F7500 X88.796 Y101.84
G1 F1350 X116.42 Y74.216 E569.71183
G0 F7500 X116.42 Y73.65
G1 F1350 X88.231 Y101.84 E571.03778
G0 F7500 X87.665 Y101.84
G1 F1350 X116.42 Y73.084 E572.39035
G0 F7500 X116.42 Y72.519
G1 F1350 X87.099 Y101.84 E573.76952
G0 F7500 X86.534 Y101.84
G1 F1350 X116.42 Y71.953 E575.17529
G0 F7500 X116.42 Y71.387
G1 F1350 X85.968 Y101.84 E576.60768
G0 F7500 X85.402 Y101.84
G1 F1350 X116.42 Y70.822 E578.06667
G0 F7500 X116.42 Y70.256
G1 F1350 X84.837 Y101.84 E579.55226
G0 F7500 X84.271 Y101.84
G1 F1350 X116.42 Y69.69 E581.06448
G0 F7500 X116.42 Y69.125
G1 F1350 X83.705 Y101.84 E582.60329
G0 F7500 X83.139 Y101.84
G1 F1350 X116.42 Y68.559 E584.16873
G0 F7500 X116.42 Y67.993
G1 F1350 X82.574 Y101.84 E585.76076
G0 F7500 X82.008 Y101.84
G1 F1350 X116.42 Y67.428 E587.3794
G0 F7500 X116.42 Y66.862
G1 F1350 X81.442 Y101.84 E589.02465
G0 F7500 X80.877 Y101.84
G1 F1350 X116.42 Y66.296 E590.69651
G0 F7500 X116.42 Y65.731
G1 F1350 X80.311 Y101.84 E592.39497
G0 F7500 X79.745 Y101.84
G1 F1350 X116.42 Y65.165 E594.12005
G0 F7500 X116.42 Y64.599
G1 F1350 X79.18 Y101.84 E595.87173
G0 F7500 X78.614 Y101.84
G1 F1350 X116.42 Y64.033 E597.65003
G0 F7500 X116.42 Y63.468
G1 F1350 X78.048 Y101.84 E599.45493
G0 F7500 X77.483 Y101.84
G1 F1350 X116.42 Y62.902 E601.28643
G0 F7500 X116.42 Y62.336
G1 F1350 X76.917 Y101.84 E603.14455
G0 F7500 X76.351 Y101.84
G1 F1350 X116.42 Y61.771 E605.02928
G0 F7500 X116.42 Y61.205
G1 F1350 X75.786 Y101.84 E606.9406
G0 F7500 X75.22 Y101.84
G1 F1350 X116.42 Y60.639 E608.87854
G0 F7500 X116.42 Y60.074
G1 F1350 X74.654 Y101.84 E610.84309
G0 F7500 X74.089 Y101.84
G1 F1350 X116.42 Y59.508 E612.83423
G0 F7500 X116.42 Y58.942
G1 F1350 X73.523 Y101.84 E614.852
G0 F7500 X72.957 Y101.84
G1 F1350 X116.42 Y58.377 E616.89637
G0 F7500 X116.42 Y57.811
G1 F1350 X72.391 Y101.84 E618.96735
G0 F7500 X71.826 Y101.84
G1 F1350 X116.42 Y57.245 E621.06494
G0 F7500 X116.42 Y56.68
G1 F1350 X71.26 Y101.84 E623.18913
G0 F7500 X70.694 Y101.84
G1 F1350 X116.42 Y56.114 E625.33994
G0 F7500 X116.42 Y55.548
G1 F1350 X70.129 Y101.84 E627.51735
G0 F7500 X69.563 Y101.84
G1 F1350 X116.42 Y54.983 E629.72136
G0 F7500 X116.42 Y54.417
G1 F1350 X68.997 Y101.84 E631.95199
G0 F7500 X68.432 Y101.84
G1 F1350 X116.42 Y53.851 E634.20923
G0 F7500 X116.42 Y53.285
G1 F1350 X67.866 Y101.84 E636.49308
G0 F7500 X67.3 Y101.84
G1 F1350 X116.42 Y52.72 E638.80354
G0 F7500 X116.42 Y52.154
G1 F1350 X66.735 Y101.84 E641.14059
G0 F7500 X66.169 Y101.84
G1 F1350 X116.42 Y51.588 E643.50427
G0 F7500 X116.42 Y51.023
G1 F1350 X65.603 Y101.84 E645.89454
G0 F7500 X65.038 Y101.84
G1 F1350 X116.42 Y50.457 E648.31142
G0 F7500 X116.42 Y49.891
G1 F1350 X64.472 Y101.84 E650.75491
G0 F7500 X63.906 Y101.84
G1 F1350 X116.42 Y49.326 E653.22501
G0 F7500 X116.42 Y48.76
G1 F1350 X63.341 Y101.84 E655.72171
G0 F7500 X62.775 Y101.84
G1 F1350 X116.42 Y48.194 E658.24503
G0 F7500 X115.888 Y48.16
G1 F1350 X62.209 Y101.84 E660.76995
G0 F7500 X61.643 Y101.84
G1 F1350 X115.323 Y48.16 E663.29489
G0 F7500 X114.757 Y48.16
G1 F1350 X61.078 Y101.84 E665.81981
G0 F7500 X60.512 Y101.84
G1 F1350 X114.191 Y48.16 E668.34473
G0 F7500 X113.626 Y48.16
G1 F1350 X59.946 Y101.84 E670.86967
G0 F7500 X59.381 Y101.84
G1 F1350 X113.06 Y48.16 E673.39459
G0 F7500 X112.494 Y48.16
G1 F1350 X58.815 Y101.84 E675.91951
G0 F7500 X58.249 Y101.84
G1 F1350 X111.929 Y48.16 E678.44445
G0 F7500 X111.363 Y48.16
G1 F1350 X57.684 Y101.84 E680.96937
G0 F7500 X57.118 Y101.84
G1 F1350 X110.797 Y48.16 E683.49429
G0 F7500 X110.232 Y48.16
G1 F1350 X56.552 Y101.84 E686.01923
G0 F7500 X55.987 Y101.84
G1 F1350 X109.666 Y48.16 E688.54415
G0 F7500 X109.1 Y48.16
G1 F1350 X55.421 Y101.84 E691.06907
G0 F7500 X54.855 Y101.84
G1 F1350 X108.535 Y48.16 E693.59401
G0 F7500 X107.969 Y48.16
G1 F1350 X54.29 Y101.84 E696.11893
G0 F7500 X53.724 Y101.84
G1 F1350 X107.403 Y48.16 E698.64385
G0 F7500 X106.837 Y48.16
G1 F1350 X53.158 Y101.84 E701.16877
G0 F7500 X52.592 Y101.84
G1 F1350 X106.272 Y48.16 E703.69371
G0 F7500 X105.706 Y48.16
G1 F1350 X52.027 Y101.84 E706.21863
G0 F7500 X51.461 Y101.84
G1 F1350 X105.14 Y48.16 E708.74355
G0 F7500 X104.575 Y48.16
G1 F1350 X50.895 Y101.84 E711.26849
G0 F7500 X50.33 Y101.84
G1 F1350 X104.009 Y48.16 E713.79341
G0 F7500 X103.443 Y48.16
G1 F1350 X49.764 Y101.84 E716.31833
G0 F7500 X49.198 Y101.84
G1 F1350 X102.878 Y48.16 E718.84328
G0 F7500 X102.312 Y48.16
G1 F1350 X48.633 Y101.84 E721.36819
G0 F7500 X48.067 Y101.84
G1 F1350 X101.746 Y48.16 E723.89311
G0 F7500 X101.181 Y48.16
G1 F1350 X47.501 Y101.84 E726.41806
G0 F7500 X46.936 Y101.84
G1 F1350 X100.615 Y48.16 E728.94298
G0 F7500 X100.049 Y48.16
G1 F1350 X46.37 Y101.84 E731.46789
G0 F7500 X45.804 Y101.84
G1 F1350 X99.484 Y48.16 E733.99284
G0 F7500 X98.918 Y48.16
G1 F1350 X45.239 Y101.84 E736.51776
G0 F7500 X44.673 Y101.84
G1 F1350 X98.352 Y48.16 E739.04268
G0 F7500 X97.787 Y48.16
G1 F1350 X44.107 Y101.84 E741.56762
G0 F7500 X43.542 Y101.84
G1 F1350 X97.221 Y48.16 E744.09254
G0 F7500 X96.655 Y48.16
G1 F1350 X42.976 Y101.84 E746.61746
G0 F7500 X42.41 Y101.84
G1 F1350 X96.089 Y48.16 E749.14238
G0 F7500 X95.524 Y48.16
G1 F1350 X41.844 Y101.84 E751.66732
G0 F7500 X41.279 Y101.84
G1 F1350 X94.958 Y48.16 E754.19224
G0 F7500 X94.392 Y48.16
G1 F1350 X40.713 Y101.84 E756.71716
G0 F7500 X40.147 Y101.84
G1 F1350 X93.827 Y48.16 E759.2421
G0 F7500 X93.261 Y48.16
G1 F1350 X39.582 Y101.84 E761.76702
G0 F7500 X39.016 Y101.84
G1 F1350 X92.695 Y48.16 E764.29194
G0 F7500 X92.13 Y48.16
G1 F1350 X38.45 Y101.84 E766.81688
G0 F7500 X37.885 Y101.84
G1 F1350 X91.564 Y48.16 E769.3418
G0 F7500 X90.998 Y48.16
G1 F1350 X37.319 Y101.84 E771.86672
G0 F7500 X36.753 Y101.84
G1 F1350 X90.433 Y48.16 E774.39166
G0 F7500 X89.867 Y48.16
G1 F1350 X36.188 Y101.84 E776.91658
G0 F7500 X35.622 Y101.84
G1 F1350 X89.301 Y48.16 E779.4415
G0 F7500 X88.736 Y48.16
G1 F1350 X35.056 Y101.84 E781.96644
G0 F7500 X34.491 Y101.84
G1 F1350 X88.17 Y48.16 E784.49136
G0 F7500 X87.604 Y48.16
G1 F1350 X33.925 Y101.84 E787.01628
G0 F7500 X33.359 Y101.84
G1 F1350 X87.038 Y48.16 E789.5412
G0 F7500 X86.473 Y48.16
G1 F1350 X32.793 Y101.84 E792.06614
G0 F7500 X32.228 Y101.84
G1 F1350 X85.907 Y48.16 E794.59106
G0 F7500 X85.341 Y48.16
G1 F1350 X31.662 Y101.84 E797.11598
G0 F7500 X31.096 Y101.84
G1 F1350 X84.776 Y48.16 E799.64092
G0 F7500 X84.21 Y48.16
G1 F1350 X30.531 Y101.84 E802.16584
G0 F7500 X29.965 Y101.84
G1 F1350 X83.644 Y48.16 E804.69076
G0 F7500 X83.079 Y48.16
G1 F1350 X29.399 Y101.84 E807.2157
G0 F7500 X28.834 Y101.84
G1 F1350 X82.513 Y48.16 E809.74062
G0 F7500 X81.947 Y48.16
G1 F1350 X28.268 Y101.84 E812.26554
G0 F7500 X27.702 Y101.84
G1 F1350 X81.382 Y48.16 E814.79048
G0 F7500 X80.816 Y48.16
G1 F1350 X27.137 Y101.84 E817.3154
G0 F7500 X26.571 Y101.84
G1 F1350 X80.25 Y48.16 E819.84032
G0 F7500 X79.685 Y48.16
G1 F1350 X26.005 Y101.84 E822.36526
G0 F7500 X25.44 Y101.84
G1 F1350 X79.119 Y48.16 E824.89018
G0 F7500 X78.553 Y48.16
G1 F1350 X24.874 Y101.84 E827.4151
G0 F7500 X24.308 Y101.84
G1 F1350 X77.988 Y48.16 E829.94005
G0 F7500 X77.422 Y48.16
G1 F1350 X23.743 Y101.84 E832.46496
G0 F7500 X23.177 Y101.84
G1 F1350 X76.856 Y48.16 E834.98988
G0 F7500 X76.29 Y48.16
G1 F1350 X22.611 Y101.84 E837.5148
G0 F7500 X22.045 Y101.84
G1 F1350 X75.725 Y48.16 E840.03975
G0 F7500 X75.159 Y48.16
G1 F1350 X21.48 Y101.84 E842.56466
G0 F7500 X20.914 Y101.84
G1 F1350 X74.593 Y48.16 E845.08958
G0 F7500 X74.028 Y48.16
G1 F1350 X20.74 Y101.448 E847.59609
G0 F7500 X20.74 Y100.882
G1 F1350 X73.462 Y48.16 E850.07597
G0 F7500 X72.896 Y48.16
G1 F1350 X20.74 Y100.317 E852.52925
G0 F7500 X20.74 Y99.751
G1 F1350 X72.331 Y48.16 E854.95593
G0 F7500 X71.765 Y48.16
G1 F1350 X20.74 Y99.185 E857.35599
G0 F7500 X20.74 Y98.619
G1 F1350 X71.199 Y48.16 E859.72943
G0 F7500 X70.634 Y48.16
G1 F1350 X20.74 Y98.054 E862.07629
G0 F7500 X20.74 Y97.488
G1 F1350 X70.068 Y48.16 E864.39653
G0 F7500 X69.502 Y48.16
G1 F1350 X20.74 Y96.922 E866.69014
G0 F7500 X20.74 Y96.357
G1 F1350 X68.937 Y48.16 E868.95718
G0 F7500 X68.371 Y48.16
G1 F1350 X20.74 Y95.791 E871.1976
G0 F7500 X20.74 Y95.225
G1 F1350 X67.805 Y48.16 E873.41139
G0 F7500 X67.239 Y48.16
G1 F1350 X20.74 Y94.66 E875.59859
G0 F7500 X20.74 Y94.094
G1 F1350 X66.674 Y48.16 E877.75918
G0 F7500 X66.108 Y48.16
G1 F1350 X20.74 Y93.528 E879.89315
G0 F7500 X20.74 Y92.963
G1 F1350 X65.542 Y48.16 E882.00052
G0 F7500 X64.977 Y48.16
G1 F1350 X20.74 Y92.397 E884.0813
G0 F7500 X20.74 Y91.831
G1 F1350 X64.411 Y48.16 E886.13545
G0 F7500 X63.845 Y48.16
G1 F1350 X20.74 Y91.266 E888.163
G0 F7500 X20.74 Y90.7
G1 F1350 X63.28 Y48.16 E890.16395
G0 F7500 X62.714 Y48.16
G1 F1350 X20.74 Y90.134 E892.13828
G0 F7500 X20.74 Y89.569
G1 F1350 X62.148 Y48.16 E894.08601
G0 F7500 X61.583 Y48.16
G1 F1350 X20.74 Y89.003 E896.00714
G0 F7500 X20.74 Y88.437
G1 F1350 X61.017 Y48.16 E897.90164
G0 F7500 X60.451 Y48.16
G1 F1350 X20.74 Y87.871 E899.76953
G0 F7500 X20.74 Y87.306
G1 F1350 X59.886 Y48.16 E901.61083
G0 F7500 X59.32 Y48.16
G1 F1350 X20.74 Y86.74 E903.42552
G0 F7500 X20.74 Y86.174
G1 F1350 X58.754 Y48.16 E905.21358
G0 F7500 X58.189 Y48.16
G1 F1350 X20.74 Y85.609 E906.97507
G0 F7500 X20.74 Y85.043
G1 F1350 X57.623 Y48.16 E908.70993
G0 F7500 X57.057 Y48.16
G1 F1350 X20.74 Y84.477 E910.41817
G0 F7500 X20.74 Y83.912
G1 F1350 X56.491 Y48.16 E912.09981
G0 F7500 X55.926 Y48.16
G1 F1350 X20.74 Y83.346 E913.75485
G0 F7500 X20.74 Y82.78
G1 F1350 X55.36 Y48.16 E915.38327
G0 F7500 X54.794 Y48.16
G1 F1350 X20.74 Y82.215 E916.98509
G0 F7500 X20.74 Y81.649
G1 F1350 X54.229 Y48.16 E918.56031
G0 F7500 X53.663 Y48.16
G1 F1350 X20.74 Y81.083 E920.10891
G0 F7500 X20.74 Y80.518
G1 F1350 X53.097 Y48.16 E921.6309
G0 F7500 X52.532 Y48.16
G1 F1350 X20.74 Y79.952 E923.1263
G0 F7500 X20.74 Y79.386
G1 F1350 X51.966 Y48.16 E924.59508
G0 F7500 X51.4 Y48.16
G1 F1350 X20.74 Y78.82 E926.03723
G0 F7500 X20.74 Y78.255
G1 F1350 X50.835 Y48.16 E927.45281
G0 F7500 X50.269 Y48.16
G1 F1350 X20.74 Y77.689 E928.84176
G0 F7500 X20.74 Y77.123
G1 F1350 X49.703 Y48.16 E930.20409
G0 F7500 X49.138 Y48.16
G1 F1350 X20.74 Y76.558 E931.53985
G0 F7500 X20.74 Y75.992
G1 F1350 X48.572 Y48.16 E932.84898
G0 F7500 X48.006 Y48.16
G1 F1350 X20.74 Y75.426 E934.13149
G0 F7500 X20.74 Y74.861
G1 F1350 X47.441 Y48.16 E935.38742
G0 F7500 X46.875 Y48.16
G1 F1350 X20.74 Y74.295 E936.61673
G0 F7500 X20.74 Y73.729
G1 F1350 X46.309 Y48.16 E937.81942
G0 F7500 X45.743 Y48.16
G1 F1350 X20.74 Y73.164 E938.99551
G0 F7500 X20.74 Y72.598
G1 F1350 X45.178 Y48.16 E940.14499
G0 F7500 X44.612 Y48.16
G1 F1350 X20.74 Y72.032 E941.26786
G0 F7500 X20.74 Y71.467
G1 F1350 X44.046 Y48.16 E942.36413
G0 F7500 X43.481 Y48.16
G1 F1350 X20.74 Y70.901 E943.43379
G0 F7500 X20.74 Y70.335
G1 F1350 X42.915 Y48.16 E944.47684
G0 F7500 X42.349 Y48.16
G1 F1350 X20.74 Y69.77 E945.49328
G0 F7500 X20.74 Y69.204
G1 F1350 X41.784 Y48.16 E946.48313
G0 F7500 X41.218 Y48.16
G1 F1350 X20.74 Y68.638 E947.44635
G0 F7500 X20.74 Y68.072
G1 F1350 X40.652 Y48.16 E948.38295
G0 F7500 X40.087 Y48.16
G1 F1350 X20.74 Y67.507 E949.29297
G0 F7500 X20.74 Y66.941
G1 F1350 X39.521 Y48.16 E950.17637
G0 F7500 X38.955 Y48.16
G1 F1350 X20.74 Y66.375 E951.03315
G0 F7500 X20.74 Y65.81
G1 F1350 X38.39 Y48.16 E951.86335
G0 F7500 X37.824 Y48.16
G1 F1350 X20.74 Y65.244 E952.66693
G0 F7500 X20.74 Y64.678
G1 F1350 X37.258 Y48.16 E953.44389
G0 F7500 X36.692 Y48.16
G1 F1350 X20.74 Y64.113 E954.19424
G0 F7500 X20.74 Y63.547
G1 F1350 X36.127 Y48.16 E954.918
G0 F7500 X35.561 Y48.16
G1 F1350 X20.74 Y62.981 E955.61514
G0 F7500 X20.74 Y62.416
G1 F1350 X34.995 Y48.16 E956.28567
G0 F7500 X34.43 Y48.16
G1 F1350 X20.74 Y61.85 E956.92961
G0 F7500 X20.74 Y61.284
G1 F1350 X33.864 Y48.16 E957.54692
G0 F7500 X33.298 Y48.16
G1 F1350 X20.74 Y60.719 E958.13763
G0 F7500 X20.74 Y60.153
G1 F1350 X32.733 Y48.16 E958.70175
G0 F7500 X32.167 Y48.16
G1 F1350 X20.74 Y59.587 E959.23924
G0 F7500 X20.74 Y59.021
G1 F1350 X31.601 Y48.16 E959.75011
G0 F7500 X31.036 Y48.16
G1 F1350 X20.74 Y58.456 E960.2344
G0 F7500 X20.74 Y57.89
G1 F1350 X30.47 Y48.16 E960.69207
G0 F7500 X29.904 Y48.16
G1 F1350 X20.74 Y57.324 E961.12311
G0 F7500 X20.74 Y56.759
G1 F1350 X29.339 Y48.16 E961.52759
G0 F7500 X28.773 Y48.16
G1 F1350 X20.74 Y56.193 E961.90543
G0 F7500 X20.74 Y55.627
G1 F1350 X28.207 Y48.16 E962.25666
G0 F7500 X27.642 Y48.16
G1 F1350 X20.74 Y55.062 E962.58131
G0 F7500 X20.74 Y54.496
G1 F1350 X27.076 Y48.16 E962.87933
G0 F7500 X26.51 Y48.16
G1 F1350 X20.74 Y53.93 E963.15074
G0 F7500 X20.74 Y53.365
G1 F1350 X25.944 Y48.16 E963.39554
G0 F7500 X25.379 Y48.16
G1 F1350 X20.74 Y52.799 E963.61374
G0 F7500 X20.74 Y52.233
G1 F1350 X24.813 Y48.16 E963.80533
G0 F7500 X24.247 Y48.16
G1 F1350 X20.74 Y51.668 E963.97031
G0 F7500 X20.74 Y51.102
G1 F1350 X23.682 Y48.16 E964.10869
G0 F7500 X23.116 Y48.16
G1 F1350 X20.74 Y50.536 E964.22045
G0 F7500 X20.74 Y49.971
G1 F1350 X22.55 Y48.16 E964.30561
G0 F7500 X21.985 Y48.16
G1 F1350 X20.74 Y49.405 E964.36417
G0 F7500 X20.74 Y48.839
G1 F1350 X21.419 Y48.16 E964.39611
G0 F7500 X20.853 Y48.16
G1 F1350 X20.74 Y48.273 E964.40142
G1 F2700 E959.40142
;MESH:NONMESH
G0 F300 X20.74 Y48.273 Z0.6
G0 F7500 X20.28 Y48.273
G0 X20.004 Y47.424
G0 X20.004 Y46.335
G0 X15.577 Y37.632
;TIME_ELAPSED:1424.744413
;LAYER:2
M106 S170
;TYPE:SKIRT
G1 F2700 E964.40142
G1 F1200 X16.422 Y37.313 E964.43147
G1 X17.292 Y37.071 E964.4615
G1 X18.18 Y36.907 E964.49153
G1 X19.303 Y36.813 E964.52902
G1 X19.91 Y36.8 E964.54921
G1 X116.873 Y36.8 E967.77421
G1 X117.717 Y36.811 E967.80229
G1 X118.619 Y36.864 E967.83234
G1 X119.512 Y36.996 E967.86236
G1 X120.39 Y37.207 E967.8924
G1 X121.246 Y37.495 E967.92244
G1 X122.073 Y37.857 E967.95246
G1 X122.865 Y38.292 E967.98251
G1 X123.616 Y38.794 E968.01256
G1 X124.319 Y39.361 E968.0426
G1 X124.969 Y39.988 E968.07264
G1 X125.561 Y40.67 E968.10267
G1 X126.091 Y41.401 E968.13271
G1 X126.553 Y42.177 E968.16274
G1 X126.946 Y42.99 E968.19278
G1 X127.264 Y43.835 E968.22281
G1 X127.507 Y44.705 E968.25285
G1 X127.672 Y45.593 E968.28289
G1 X127.767 Y46.723 E968.32061
G1 X127.78 Y47.33 E968.3408
G1 X127.779 Y102.404 E970.17257
G1 X127.769 Y103.131 E970.19675
G1 X127.717 Y104.033 E970.2268
G1 X127.585 Y104.926 E970.25683
G1 X127.374 Y105.805 E970.28689
G1 X127.087 Y106.661 E970.31692
G1 X126.725 Y107.488 E970.34695
G1 X126.291 Y108.28 E970.37698
G1 X125.789 Y109.031 E970.40703
G1 X125.223 Y109.734 E970.43705
G1 X124.596 Y110.385 E970.46711
G1 X123.915 Y110.977 E970.49712
G1 X123.184 Y111.507 E970.52715
G1 X122.408 Y111.97 E970.55721
G1 X121.595 Y112.363 E970.58724
G1 X120.75 Y112.683 E970.61729
G1 X119.881 Y112.926 E970.64731
G1 X118.993 Y113.091 E970.67735
G1 X117.857 Y113.187 E970.71526
G1 X117.25 Y113.2 E970.73546
G1 X20.141 Y113.199 E973.96532
G1 X19.443 Y113.189 E973.98853
G1 X18.541 Y113.136 E974.01859
G1 X17.648 Y113.004 E974.04861
G1 X16.77 Y112.793 E974.07865
G1 X15.914 Y112.505 E974.10868
G1 X15.087 Y112.143 E974.13871
G1 X14.295 Y111.708 E974.16876
G1 X13.544 Y111.206 E974.19881
G1 X12.841 Y110.639 E974.22885
G1 X12.191 Y110.012 E974.25889
G1 X11.599 Y109.33 E974.28892
G1 X11.069 Y108.599 E974.31895
G1 X10.607 Y107.823 E974.34899
G1 X10.214 Y107.01 E974.37903
G1 X9.896 Y106.165 E974.40906
G1 X9.653 Y105.295 E974.4391
G1 X9.488 Y104.407 E974.46914
G1 X9.393 Y103.266 E974.50722
G1 X9.38 Y102.658 E974.52745
G1 X9.381 Y47.521 E976.36131
G1 X9.391 Y46.856 E976.38343
G1 X9.445 Y45.954 E976.41349
G1 X9.578 Y45.061 E976.44352
G1 X9.789 Y44.183 E976.47355
G1 X10.078 Y43.327 E976.5036
G1 X10.441 Y42.5 E976.53364
G1 X10.875 Y41.709 E976.56365
G1 X11.378 Y40.958 E976.59371
G1 X11.946 Y40.256 E976.62374
G1 X12.573 Y39.606 E976.65378
G1 X13.255 Y39.014 E976.68382
G1 X13.987 Y38.485 E976.71386
G1 X14.763 Y38.023 E976.7439
G1 X15.577 Y37.632 E976.77393
G1 F2700 E971.77393
;MESH:Mizzou_logo.stl
G0 F9000 X20.01 Y46.335
G0 X70.925 Y102.4
;TYPE:WALL-INNER
G1 F2700 E976.77393
G1 F1500 X116.98 Y102.4 E978.30573
G1 X116.98 Y47.6 E980.12838
G1 X20.18 Y47.6 E983.34796
G1 X20.18 Y102.4 E985.17062
G1 X70.925 Y102.4 E986.8584
G0 F9000 X70.96 Y102.8
;TYPE:WALL-OUTER
G1 F1500 X117.38 Y102.8 E988.40234
G1 X117.38 Y47.2 E990.2516
G1 X19.78 Y47.2 E993.49779
G1 X19.78 Y102.8 E995.34706
G1 X70.96 Y102.8 E997.04931
G0 F9000 X70.895 Y102.04
;TYPE:SKIN
G1 F1500 X20.54 Y102.04 E998.72412
G1 X20.54 Y47.96 E1000.52283
G1 X116.62 Y47.96 E1003.71846
G1 X116.62 Y102.04 E1005.51717
G1 X70.895 Y102.04 E1007.03799
G1 F2700 E1002.03799
G0 F9000 X70.895 Y102.3
G0 X20.352 Y102.228
G0 X20.28 Y101.633
G0 X20.74 Y101.633
G1 F2700 E1007.03799
G1 F1500 X20.947 Y101.84 E1007.04773
G0 F9000 X21.512 Y101.84
G1 F1500 X20.74 Y101.067 E1007.08407
G0 F9000 X20.74 Y100.502
G1 F1500 X22.078 Y101.84 E1007.147
G0 F9000 X22.644 Y101.84
G1 F1500 X20.74 Y99.936 E1007.23656
G0 F9000 X20.74 Y99.37
G1 F1500 X23.209 Y101.84 E1007.35272
G0 F9000 X23.775 Y101.84
G1 F1500 X20.74 Y98.805 E1007.49547
G0 F9000 X20.74 Y98.239
G1 F1500 X24.341 Y101.84 E1007.66485
G0 F9000 X24.906 Y101.84
G1 F1500 X20.74 Y97.673 E1007.86083
G0 F9000 X20.74 Y97.108
G1 F1500 X25.472 Y101.84 E1008.08341
G0 F9000 X26.038 Y101.84
G1 F1500 X20.74 Y96.542 E1008.33261
G0 F9000 X20.74 Y95.976
G1 F1500 X26.603 Y101.84 E1008.60841
G0 F9000 X27.169 Y101.84
G1 F1500 X20.74 Y95.411 E1008.91082
G0 F9000 X20.74 Y94.845
G1 F1500 X27.735 Y101.84 E1009.23984
G0 F9000 X28.301 Y101.84
G1 F1500 X20.74 Y94.279 E1009.59548
G0 F9000 X20.74 Y93.714
G1 F1500 X28.866 Y101.84 E1009.97771
G0 F9000 X29.432 Y101.84
G1 F1500 X20.74 Y93.148 E1010.38655
G0 F9000 X20.74 Y92.582
G1 F1500 X29.998 Y101.84 E1010.82202
G0 F9000 X30.563 Y101.84
G1 F1500 X20.74 Y92.017 E1011.28406
G0 F9000 X20.74 Y91.451
G1 F1500 X31.129 Y101.84 E1011.77273
G0 F9000 X31.695 Y101.84
G1 F1500 X20.74 Y90.885 E1012.28802
G0 F9000 X20.74 Y90.319
G1 F1500 X32.26 Y101.84 E1012.82991
G0 F9000 X32.826 Y101.84
G1 F1500 X20.74 Y89.754 E1013.3984
G0 F9000 X20.74 Y89.188
G1 F1500 X33.392 Y101.84 E1013.99351
G0 F9000 X33.957 Y101.84
G1 F1500 X20.74 Y88.622 E1014.61522
G0 F9000 X20.74 Y88.057
G1 F1500 X34.523 Y101.84 E1015.26353
G0 F9000 X35.089 Y101.84
G1 F1500 X20.74 Y87.491 E1015.93846
G0 F9000 X20.74 Y86.925
G1 F1500 X35.654 Y101.84 E1016.63999
G0 F9000 X36.22 Y101.84
G1 F1500 X20.74 Y86.36 E1017.36813
G0 F9000 X20.74 Y85.794
G1 F1500 X36.786 Y101.84 E1018.12288
G0 F9000 X37.352 Y101.84
G1 F1500 X20.74 Y85.228 E1018.90426
G0 F9000 X20.74 Y84.663
G1 F1500 X37.917 Y101.84 E1019.71221
G0 F9000 X38.483 Y101.84
G1 F1500 X20.74 Y84.097 E1020.54679
G0 F9000 X20.74 Y83.531
G1 F1500 X39.049 Y101.84 E1021.40799
G0 F9000 X39.614 Y101.84
G1 F1500 X20.74 Y82.966 E1022.29576
G0 F9000 X20.74 Y82.4
G1 F1500 X40.18 Y101.84 E1023.21016
G0 F9000 X40.746 Y101.84
G1 F1500 X20.74 Y81.834 E1024.15118
G0 F9000 X20.74 Y81.268
G1 F1500 X41.311 Y101.84 E1025.1188
G0 F9000 X41.877 Y101.84
G1 F1500 X20.74 Y80.703 E1026.11302
G0 F9000 X20.74 Y80.137
G1 F1500 X42.443 Y101.84 E1027.13386
G0 F9000 X43.008 Y101.84
G1 F1500 X20.74 Y79.571 E1028.18131
G0 F9000 X20.74 Y79.006
G1 F1500 X43.574 Y101.84 E1029.25535
G0 F9000 X44.14 Y101.84
G1 F1500 X20.74 Y78.44 E1030.35601
G0 F9000 X20.74 Y77.874
G1 F1500 X44.705 Y101.84 E1031.48328
G0 F9000 X45.271 Y101.84
G1 F1500 X20.74 Y77.309 E1032.63714
G0 F9000 X20.74 Y76.743
G1 F1500 X45.837 Y101.84 E1033.81762
G0 F9000 X46.402 Y101.84
G1 F1500 X20.74 Y76.177 E1035.02471
G0 F9000 X20.74 Y75.612
G1 F1500 X46.968 Y101.84 E1036.25839
G0 F9000 X47.534 Y101.84
G1 F1500 X20.74 Y75.046 E1037.5187
G0 F9000 X20.74 Y74.48
G1 F1500 X48.1 Y101.84 E1038.80563
G0 F9000 X48.665 Y101.84
G1 F1500 X20.74 Y73.915 E1040.11914
G0 F9000 X20.74 Y73.349
G1 F1500 X49.231 Y101.84 E1041.45927
G0 F9000 X49.797 Y101.84
G1 F1500 X20.74 Y72.783 E1042.82602
G0 F9000 X20.74 Y72.218
G1 F1500 X50.362 Y101.84 E1044.21935
G0 F9000 X50.928 Y101.84
G1 F1500 X20.74 Y71.652 E1045.6393
G0 F9000 X20.74 Y71.086
G1 F1500 X51.494 Y101.84 E1047.08587
G0 F9000 X52.059 Y101.84
G1 F1500 X20.74 Y70.52 E1048.55905
G0 F9000 X20.74 Y69.955
G1 F1500 X52.625 Y101.84 E1050.05882
G0 F9000 X53.191 Y101.84
G1 F1500 X20.74 Y69.389 E1051.58521
G0 F9000 X20.74 Y68.823
G1 F1500 X53.756 Y101.84 E1053.13821
G0 F9000 X54.322 Y101.84
G1 F1500 X20.74 Y68.258 E1054.7178
G0 F9000 X20.74 Y67.692
G1 F1500 X54.888 Y101.84 E1056.32402
G0 F9000 X55.453 Y101.84
G1 F1500 X20.74 Y67.126 E1057.95684
G0 F9000 X20.74 Y66.561
G1 F1500 X56.019 Y101.84 E1059.61625
G0 F9000 X56.585 Y101.84
G1 F1500 X20.74 Y65.995 E1061.30229
G0 F9000 X20.74 Y65.429
G1 F1500 X57.15 Y101.84 E1063.01493
G0 F9000 X57.716 Y101.84
G1 F1500 X20.74 Y64.864 E1064.75417
G0 F9000 X20.74 Y64.298
G1 F1500 X58.282 Y101.84 E1066.52003
G0 F9000 X58.848 Y101.84
G1 F1500 X20.74 Y63.732 E1068.31251
G0 F9000 X20.74 Y63.167
G1 F1500 X59.413 Y101.84 E1070.13157
G0 F9000 X59.979 Y101.84
G1 F1500 X20.74 Y62.601 E1071.97725
G0 F9000 X20.74 Y62.035
G1 F1500 X60.545 Y101.84 E1073.84956
G0 F9000 X61.11 Y101.84
G1 F1500 X20.74 Y61.469 E1075.74846
G0 F9000 X20.74 Y60.904
G1 F1500 X61.676 Y101.84 E1077.67397
G0 F9000 X62.242 Y101.84
G1 F1500 X20.74 Y60.338 E1079.62609
G0 F9000 X20.74 Y59.772
G1 F1500 X62.807 Y101.84 E1081.60482
G0 F9000 X63.373 Y101.84
G1 F1500 X20.74 Y59.207 E1083.61015
G0 F9000 X20.74 Y58.641
G1 F1500 X63.939 Y101.84 E1085.6421
G0 F9000 X64.504 Y101.84
G1 F1500 X20.74 Y58.075 E1087.70064
G0 F9000 X20.74 Y57.51
G1 F1500 X65.07 Y101.84 E1089.78579
G0 F9000 X65.636 Y101.84
G1 F1500 X20.74 Y56.944 E1091.89756
G0 F9000 X20.74 Y56.378
G1 F1500 X66.201 Y101.84 E1094.03593
G0 F9000 X66.767 Y101.84
G1 F1500 X20.74 Y55.813 E1096.2009
G0 F9000 X20.74 Y55.247
G1 F1500 X67.333 Y101.84 E1098.39249
G0 F9000 X67.899 Y101.84
G1 F1500 X20.74 Y54.681 E1100.61071
G0 F9000 X20.74 Y54.116
G1 F1500 X68.464 Y101.84 E1102.8555
G0 F9000 X69.03 Y101.84
G1 F1500 X20.74 Y53.55 E1105.12691
G0 F9000 X20.74 Y52.984
G1 F1500 X69.596 Y101.84 E1107.42495
G0 F9000 X70.161 Y101.84
G1 F1500 X20.74 Y52.419 E1109.74956
G0 F9000 X20.74 Y51.853
G1 F1500 X70.727 Y101.84 E1112.10079
G0 F9000 X71.293 Y101.84
G1 F1500 X20.74 Y51.287 E1114.47865
G0 F9000 X20.74 Y50.721
G1 F1500 X71.858 Y101.84 E1116.88311
G0 F9000 X72.424 Y101.84
G1 F1500 X20.74 Y50.156 E1119.31417
G0 F9000 X20.74 Y49.59
G1 F1500 X72.99 Y101.84 E1121.77185
G0 F9000 X73.555 Y101.84
G1 F1500 X20.74 Y49.024 E1124.25613
G0 F9000 X20.74 Y48.459
G1 F1500 X74.121 Y101.84 E1126.767
G0 F9000 X74.687 Y101.84
G1 F1500 X21.007 Y48.16 E1129.29195
G0 F9000 X21.573 Y48.16
G1 F1500 X75.252 Y101.84 E1131.81687
G0 F9000 X75.818 Y101.84
G1 F1500 X22.139 Y48.16 E1134.34178
G0 F9000 X22.704 Y48.16
G1 F1500 X76.384 Y101.84 E1136.86673
G0 F9000 X76.949 Y101.84
G1 F1500 X23.27 Y48.16 E1139.39165
G0 F9000 X23.836 Y48.16
G1 F1500 X77.515 Y101.84 E1141.91657
G0 F9000 X78.081 Y101.84
G1 F1500 X24.402 Y48.16 E1144.44148
G0 F9000 X24.967 Y48.16
G1 F1500 X78.647 Y101.84 E1146.96643
G0 F9000 X79.212 Y101.84
G1 F1500 X25.533 Y48.16 E1149.49135
G0 F9000 X26.099 Y48.16
G1 F1500 X79.778 Y101.84 E1152.01627
G0 F9000 X80.344 Y101.84
G1 F1500 X26.664 Y48.16 E1154.54121
G0 F9000 X27.23 Y48.16
G1 F1500 X80.909 Y101.84 E1157.06613
G0 F9000 X81.475 Y101.84
G1 F1500 X27.796 Y48.16 E1159.59105
G0 F9000 X28.361 Y48.16
G1 F1500 X82.041 Y101.84 E1162.11599
G0 F9000 X82.606 Y101.84
G1 F1500 X28.927 Y48.16 E1164.64091
G0 F9000 X29.493 Y48.16
G1 F1500 X83.172 Y101.84 E1167.16583
G0 F9000 X83.738 Y101.84
G1 F1500 X30.058 Y48.16 E1169.69077
G0 F9000 X30.624 Y48.16
G1 F1500 X84.303 Y101.84 E1172.21569
G0 F9000 X84.869 Y101.84
G1 F1500 X31.19 Y48.16 E1174.74061
G0 F9000 X31.755 Y48.16
G1 F1500 X85.435 Y101.84 E1177.26555
G0 F9000 X86 Y101.84
G1 F1500 X32.321 Y48.16 E1179.79047
G0 F9000 X32.887 Y48.16
G1 F1500 X86.566 Y101.84 E1182.31539
G0 F9000 X87.132 Y101.84
G1 F1500 X33.453 Y48.16 E1184.84031
G0 F9000 X34.018 Y48.16
G1 F1500 X87.698 Y101.84 E1187.36525
G0 F9000 X88.263 Y101.84
G1 F1500 X34.584 Y48.16 E1189.89017
G0 F9000 X35.15 Y48.16
G1 F1500 X88.829 Y101.84 E1192.41509
G0 F9000 X89.395 Y101.84
G1 F1500 X35.715 Y48.16 E1194.94003
G0 F9000 X36.281 Y48.16
G1 F1500 X89.96 Y101.84 E1197.46495
G0 F9000 X90.526 Y101.84
G1 F1500 X36.847 Y48.16 E1199.98987
G0 F9000 X37.412 Y48.16
G1 F1500 X91.092 Y101.84 E1202.51481
G0 F9000 X91.657 Y101.84
G1 F1500 X37.978 Y48.16 E1205.03973
G0 F9000 X38.544 Y48.16
G1 F1500 X92.223 Y101.84 E1207.56465
G0 F9000 X92.789 Y101.84
G1 F1500 X39.109 Y48.16 E1210.08959
G0 F9000 X39.675 Y48.16
G1 F1500 X93.354 Y101.84 E1212.61451
G0 F9000 X93.92 Y101.84
G1 F1500 X40.241 Y48.16 E1215.13943
G0 F9000 X40.806 Y48.16
G1 F1500 X94.486 Y101.84 E1217.66437
G0 F9000 X95.051 Y101.84
G1 F1500 X41.372 Y48.16 E1220.18929
G0 F9000 X41.938 Y48.16
G1 F1500 X95.617 Y101.84 E1222.71421
G0 F9000 X96.183 Y101.84
G1 F1500 X42.503 Y48.16 E1225.23915
G0 F9000 X43.069 Y48.16
G1 F1500 X96.748 Y101.84 E1227.76407
G0 F9000 X97.314 Y101.84
G1 F1500 X43.635 Y48.16 E1230.28899
G0 F9000 X44.201 Y48.16
G1 F1500 X97.88 Y101.84 E1232.81391
G0 F9000 X98.446 Y101.84
G1 F1500 X44.766 Y48.16 E1235.33885
G0 F9000 X45.332 Y48.16
G1 F1500 X99.011 Y101.84 E1237.86377
G0 F9000 X99.577 Y101.84
G1 F1500 X45.898 Y48.16 E1240.38869
G0 F9000 X46.463 Y48.16
G1 F1500 X100.143 Y101.84 E1242.91364
G0 F9000 X100.708 Y101.84
G1 F1500 X47.029 Y48.16 E1245.43855
G0 F9000 X47.595 Y48.16
G1 F1500 X101.274 Y101.84 E1247.96347
G0 F9000 X101.84 Y101.84
G1 F1500 X48.16 Y48.16 E1250.48842
G0 F9000 X48.726 Y48.16
G1 F1500 X102.405 Y101.84 E1253.01334
G0 F9000 X102.971 Y101.84
G1 F1500 X49.292 Y48.16 E1255.53825
G0 F9000 X49.857 Y48.16
G1 F1500 X103.537 Y101.84 E1258.0632
G0 F9000 X104.102 Y101.84
G1 F1500 X50.423 Y48.16 E1260.58812
G0 F9000 X50.989 Y48.16
G1 F1500 X104.668 Y101.84 E1263.11304
G0 F9000 X105.234 Y101.84
G1 F1500 X51.554 Y48.16 E1265.63798
G0 F9000 X52.12 Y48.16
G1 F1500 X105.799 Y101.84 E1268.1629
G0 F9000 X106.365 Y101.84
G1 F1500 X52.686 Y48.16 E1270.68782
G0 F9000 X53.252 Y48.16
G1 F1500 X106.931 Y101.84 E1273.21274
G0 F9000 X107.496 Y101.84
G1 F1500 X53.817 Y48.16 E1275.73765
G0 F9000 X54.383 Y48.16
G1 F1500 X108.062 Y101.84 E1278.26257
G0 F9000 X108.628 Y101.84
G1 F1500 X54.949 Y48.16 E1280.78749
G0 F9000 X55.514 Y48.16
G1 F1500 X109.194 Y101.84 E1283.31244
G0 F9000 X109.759 Y101.84
G1 F1500 X56.08 Y48.16 E1285.83735
G0 F9000 X56.646 Y48.16
G1 F1500 X110.325 Y101.84 E1288.36227
G0 F9000 X110.891 Y101.84
G1 F1500 X57.211 Y48.16 E1290.88722
G0 F9000 X57.777 Y48.16
G1 F1500 X111.456 Y101.84 E1293.41214
G0 F9000 X112.022 Y101.84
G1 F1500 X58.343 Y48.16 E1295.93705
G0 F9000 X58.908 Y48.16
G1 F1500 X112.588 Y101.84 E1298.462
G0 F9000 X113.153 Y101.84
G1 F1500 X59.474 Y48.16 E1300.98692
G0 F9000 X60.04 Y48.16
G1 F1500 X113.719 Y101.84 E1303.51184
G0 F9000 X114.285 Y101.84
G1 F1500 X60.605 Y48.16 E1306.03678
G0 F9000 X61.171 Y48.16
G1 F1500 X114.85 Y101.84 E1308.5617
G0 F9000 X115.416 Y101.84
G1 F1500 X61.737 Y48.16 E1311.08662
G0 F9000 X62.302 Y48.16
G1 F1500 X115.982 Y101.84 E1313.61156
G0 F9000 X116.42 Y101.712
G1 F1500 X62.868 Y48.16 E1316.13048
G0 F9000 X63.434 Y48.16
G1 F1500 X116.42 Y101.147 E1318.6228
G0 F9000 X116.42 Y100.581
G1 F1500 X64 Y48.16 E1321.0885
G0 F9000 X64.565 Y48.16
G1 F1500 X116.42 Y100.015 E1323.5276
G0 F9000 X116.42 Y99.45
G1 F1500 X65.131 Y48.16 E1325.9401
G0 F9000 X65.697 Y48.16
G1 F1500 X116.42 Y98.884 E1328.32598
G0 F9000 X116.42 Y98.318
G1 F1500 X66.262 Y48.16 E1330.68526
G0 F9000 X66.828 Y48.16
G1 F1500 X116.42 Y97.753 E1333.01794
G0 F9000 X116.42 Y97.187
G1 F1500 X67.394 Y48.16 E1335.324
G0 F9000 X67.959 Y48.16
G1 F1500 X116.42 Y96.621 E1337.60345
G0 F9000 X116.42 Y96.056
G1 F1500 X68.525 Y48.16 E1339.85631
G0 F9000 X69.091 Y48.16
G1 F1500 X116.42 Y95.49 E1342.08254
G0 F9000 X116.42 Y94.924
G1 F1500 X69.656 Y48.16 E1344.28218
G0 F9000 X70.222 Y48.16
G1 F1500 X116.42 Y94.358 E1346.45519
G0 F9000 X116.42 Y93.793
G1 F1500 X70.788 Y48.16 E1348.6016
G0 F9000 X71.353 Y48.16
G1 F1500 X116.42 Y93.227 E1350.72142
G0 F9000 X116.42 Y92.661
G1 F1500 X71.919 Y48.16 E1352.81461
G0 F9000 X72.485 Y48.16
G1 F1500 X116.42 Y92.096 E1354.8812
G0 F9000 X116.42 Y91.53
G1 F1500 X73.05 Y48.16 E1356.92119
G0 F9000 X73.616 Y48.16
G1 F1500 X116.42 Y90.964 E1358.93456
G0 F9000 X116.42 Y90.399
G1 F1500 X74.182 Y48.16 E1360.92133
G0 F9000 X74.748 Y48.16
G1 F1500 X116.42 Y89.833 E1362.88148
G0 F9000 X116.42 Y89.267
G1 F1500 X75.313 Y48.16 E1364.81502
G0 F9000 X75.879 Y48.16
G1 F1500 X116.42 Y88.702 E1366.72197
G0 F9000 X116.42 Y88.136
G1 F1500 X76.445 Y48.16 E1368.6023
G0 F9000 X77.01 Y48.16
G1 F1500 X116.42 Y87.57 E1370.45602
G0 F9000 X116.42 Y87.005
G1 F1500 X77.576 Y48.16 E1372.28315
G0 F9000 X78.142 Y48.16
G1 F1500 X116.42 Y86.439 E1374.08365
G0 F9000 X116.42 Y85.873
G1 F1500 X78.707 Y48.16 E1375.85756
G0 F9000 X79.273 Y48.16
G1 F1500 X116.42 Y85.307 E1377.60484
G0 F9000 X116.42 Y84.742
G1 F1500 X79.839 Y48.16 E1379.32552
G0 F9000 X80.404 Y48.16
G1 F1500 X116.42 Y84.176 E1381.0196
G0 F9000 X116.42 Y83.61
G1 F1500 X80.97 Y48.16 E1382.68706
G0 F9000 X81.536 Y48.16
G1 F1500 X116.42 Y83.045 E1384.32792
G0 F9000 X116.42 Y82.479
G1 F1500 X82.101 Y48.16 E1385.94218
G0 F9000 X82.667 Y48.16
G1 F1500 X116.42 Y81.913 E1387.52982
G0 F9000 X116.42 Y81.348
G1 F1500 X83.233 Y48.16 E1389.09086
G0 F9000 X83.799 Y48.16
G1 F1500 X116.42 Y80.782 E1390.62527
G0 F9000 X116.42 Y80.216
G1 F1500 X84.364 Y48.16 E1392.13309
G0 F9000 X84.93 Y48.16
G1 F1500 X116.42 Y79.651 E1393.6143
G0 F9000 X116.42 Y79.085
G1 F1500 X85.496 Y48.16 E1395.0689
G0 F9000 X86.061 Y48.16
G1 F1500 X116.42 Y78.519 E1396.49689
G0 F9000 X116.42 Y77.954
G1 F1500 X86.627 Y48.16 E1397.89829
G0 F9000 X87.193 Y48.16
G1 F1500 X116.42 Y77.388 E1399.27306
G0 F9000 X116.42 Y76.822
G1 F1500 X87.758 Y48.16 E1400.62123
G0 F9000 X88.324 Y48.16
G1 F1500 X116.42 Y76.257 E1401.94281
G0 F9000 X116.42 Y75.691
G1 F1500 X88.89 Y48.16 E1403.23776
G0 F9000 X89.455 Y48.16
G1 F1500 X116.42 Y75.125 E1404.50611
G0 F9000 X116.42 Y74.559
G1 F1500 X90.021 Y48.16 E1405.74783
G0 F9000 X90.587 Y48.16
G1 F1500 X116.42 Y73.994 E1406.96296
G0 F9000 X116.42 Y73.428
G1 F1500 X91.152 Y48.16 E1408.15149
G0 F9000 X91.718 Y48.16
G1 F1500 X116.42 Y72.862 E1409.3134
G0 F9000 X116.42 Y72.297
G1 F1500 X92.284 Y48.16 E1410.44871
G0 F9000 X92.849 Y48.16
G1 F1500 X116.42 Y71.731 E1411.55741
G0 F9000 X116.42 Y71.165
G1 F1500 X93.415 Y48.16 E1412.6395
G0 F9000 X93.981 Y48.16
G1 F1500 X116.42 Y70.6 E1413.69498
G0 F9000 X116.42 Y70.034
G1 F1500 X94.547 Y48.16 E1414.72385
G0 F9000 X95.112 Y48.16
G1 F1500 X116.42 Y69.468 E1415.72611
G0 F9000 X116.42 Y68.903
G1 F1500 X95.678 Y48.16 E1416.70177
G0 F9000 X96.244 Y48.16
G1 F1500 X116.42 Y68.337 E1417.65081
G0 F9000 X116.42 Y67.771
G1 F1500 X96.809 Y48.16 E1418.57325
G0 F9000 X97.375 Y48.16
G1 F1500 X116.42 Y67.206 E1419.4691
G0 F9000 X116.42 Y66.64
G1 F1500 X97.941 Y48.16 E1420.33832
G0 F9000 X98.506 Y48.16
G1 F1500 X116.42 Y66.074 E1421.18093
G0 F9000 X116.42 Y65.508
G1 F1500 X99.072 Y48.16 E1421.99693
G0 F9000 X99.638 Y48.16
G1 F1500 X116.42 Y64.943 E1422.78633
G0 F9000 X116.42 Y64.377
G1 F1500 X100.203 Y48.16 E1423.54913
G0 F9000 X100.769 Y48.16
G1 F1500 X116.42 Y63.811 E1424.2853
G0 F9000 X116.42 Y63.246
G1 F1500 X101.335 Y48.16 E1424.99488
G0 F9000 X101.9 Y48.16
G1 F1500 X116.42 Y62.68 E1425.67785
G0 F9000 X116.42 Y62.114
G1 F1500 X102.466 Y48.16 E1426.33421
G0 F9000 X103.032 Y48.16
G1 F1500 X116.42 Y61.549 E1426.96396
G0 F9000 X116.42 Y60.983
G1 F1500 X103.598 Y48.16 E1427.56709
G0 F9000 X104.163 Y48.16
G1 F1500 X116.42 Y60.417 E1428.14362
G0 F9000 X116.42 Y59.852
G1 F1500 X104.729 Y48.16 E1428.69356
G0 F9000 X105.295 Y48.16
G1 F1500 X116.42 Y59.286 E1429.21687
G0 F9000 X116.42 Y58.72
G1 F1500 X105.86 Y48.16 E1429.71358
G0 F9000 X106.426 Y48.16
G1 F1500 X116.42 Y58.155 E1430.18369
G0 F9000 X116.42 Y57.589
G1 F1500 X106.992 Y48.16 E1430.62717
G0 F9000 X107.557 Y48.16
G1 F1500 X116.42 Y57.023 E1431.04406
G0 F9000 X116.42 Y56.458
G1 F1500 X108.123 Y48.16 E1431.43435
G0 F9000 X108.689 Y48.16
G1 F1500 X116.42 Y55.892 E1431.79802
G0 F9000 X116.42 Y55.326
G1 F1500 X109.254 Y48.16 E1432.13508
G0 F9000 X109.82 Y48.16
G1 F1500 X116.42 Y54.76 E1432.44553
G0 F9000 X116.42 Y54.195
G1 F1500 X110.386 Y48.16 E1432.72937
G0 F9000 X110.951 Y48.16
G1 F1500 X116.42 Y53.629 E1432.98662
G0 F9000 X116.42 Y53.063
G1 F1500 X111.517 Y48.16 E1433.21724
G0 F9000 X112.083 Y48.16
G1 F1500 X116.42 Y52.498 E1433.42126
G0 F9000 X116.42 Y51.932
G1 F1500 X112.648 Y48.16 E1433.59869
G0 F9000 X113.214 Y48.16
G1 F1500 X116.42 Y51.366 E1433.74949
G0 F9000 X116.42 Y50.801
G1 F1500 X113.78 Y48.16 E1433.87369
G0 F9000 X114.346 Y48.16
G1 F1500 X116.42 Y50.235 E1433.97126
G0 F9000 X116.42 Y49.669
G1 F1500 X114.911 Y48.16 E1434.04224
G0 F9000 X115.477 Y48.16
G1 F1500 X116.42 Y49.104 E1434.08662
G0 F9000 X116.42 Y48.538
G1 F1500 X116.043 Y48.16 E1434.10438
G1 F2700 E1429.10438
;MESH:NONMESH
G0 F300 X116.043 Y48.16 Z0.8
G0 F9000 X116.043 Y47.7
G0 X116.808 Y47.772
G0 X116.808 Y102.228
G0 X70.925 Y102.4
;TIME_ELAPSED:2019.228151
;LAYER:3
M106 S255
;TYPE:WALL-INNER
;MESH:Mizzou_logo.stl
G1 F2700 E1434.10438
G1 F1500 X116.98 Y102.4 E1435.63617
G1 X116.98 Y47.6 E1437.45883
G1 X20.18 Y47.6 E1440.67841
G1 X20.18 Y102.4 E1442.50107
G1 X70.925 Y102.4 E1444.18885
G0 F9000 X70.96 Y102.8
;TYPE:WALL-OUTER
G1 F1500 X117.38 Y102.8 E1445.73279
G1 X117.38 Y47.2 E1447.58205
G1 X19.78 Y47.2 E1450.82824
G1 X19.78 Y102.8 E1452.6775
G1 X70.96 Y102.8 E1454.37976
G0 F9000 X70.895 Y102.04
;TYPE:SKIN
G1 F1500 X20.54 Y102.04 E1456.05457
G1 X20.54 Y47.96 E1457.85328
G1 X116.62 Y47.96 E1461.04891
G1 X116.62 Y102.04 E1462.84762
G1 X70.895 Y102.04 E1464.36844
G1 F2700 E1459.36844
G0 F9000 X70.895 Y102.3
G0 X115.949 Y102.3
G0 X115.949 Y101.84
G1 F2700 E1464.36844
G1 F1500 X116.42 Y101.369 E1464.3906
G0 F9000 X116.42 Y100.803
G1 F1500 X115.384 Y101.84 E1464.43935
G0 F9000 X114.818 Y101.84
G1 F1500 X116.42 Y100.237 E1464.51473
G0 F9000 X116.42 Y99.672
G1 F1500 X114.252 Y101.84 E1464.6167
G0 F9000 X113.687 Y101.84
G1 F1500 X116.42 Y99.106 E1464.74528
G0 F9000 X116.42 Y98.54
G1 F1500 X113.121 Y101.84 E1464.90048
G0 F9000 X112.555 Y101.84
G1 F1500 X116.42 Y97.975 E1465.08227
G0 F9000 X116.42 Y97.409
G1 F1500 X111.989 Y101.84 E1465.29069
G0 F9000 X111.424 Y101.84
G1 F1500 X116.42 Y96.843 E1465.52571
G0 F9000 X116.42 Y96.278
G1 F1500 X110.858 Y101.84 E1465.78733
G0 F9000 X110.292 Y101.84
G1 F1500 X116.42 Y95.712 E1466.07558
G0 F9000 X116.42 Y95.146
G1 F1500 X109.727 Y101.84 E1466.39042
G0 F9000 X109.161 Y101.84
G1 F1500 X116.42 Y94.58 E1466.73188
G0 F9000 X116.42 Y94.015
G1 F1500 X108.595 Y101.84 E1467.09995
G0 F9000 X108.03 Y101.84
G1 F1500 X116.42 Y93.449 E1467.49461
G0 F9000 X116.42 Y92.883
G1 F1500 X107.464 Y101.84 E1467.9159
G0 F9000 X106.898 Y101.84
G1 F1500 X116.42 Y92.318 E1468.36378
G0 F9000 X116.42 Y91.752
G1 F1500 X106.333 Y101.84 E1468.83827
G0 F9000 X105.767 Y101.84
G1 F1500 X116.42 Y91.186 E1469.33938
G0 F9000 X116.42 Y90.621
G1 F1500 X105.201 Y101.84 E1469.86708
G0 F9000 X104.636 Y101.84
G1 F1500 X116.42 Y90.055 E1470.42139
G0 F9000 X116.42 Y89.489
G1 F1500 X104.07 Y101.84 E1471.00232
G0 F9000 X103.504 Y101.84
G1 F1500 X116.42 Y88.924 E1471.60985
G0 F9000 X116.42 Y88.358
G1 F1500 X102.938 Y101.84 E1472.244
G0 F9000 X102.373 Y101.84
G1 F1500 X116.42 Y87.792 E1472.90475
G0 F9000 X116.42 Y87.227
G1 F1500 X101.807 Y101.84 E1473.5921
G0 F9000 X101.241 Y101.84
G1 F1500 X116.42 Y86.661 E1474.30608
G0 F9000 X116.42 Y86.095
G1 F1500 X100.676 Y101.84 E1475.04665
G0 F9000 X100.11 Y101.84
G1 F1500 X116.42 Y85.53 E1475.81382
G0 F9000 X116.42 Y84.964
G1 F1500 X99.544 Y101.84 E1476.60762
G0 F9000 X98.979 Y101.84
G1 F1500 X116.42 Y84.398 E1477.42801
G0 F9000 X116.42 Y83.832
G1 F1500 X98.413 Y101.84 E1478.27503
G0 F9000 X97.847 Y101.84
G1 F1500 X116.42 Y83.267 E1479.14865
G0 F9000 X116.42 Y82.701
G1 F1500 X97.282 Y101.84 E1480.04886
G0 F9000 X96.716 Y101.84
G1 F1500 X116.42 Y82.135 E1480.9757
G0 F9000 X116.42 Y81.57
G1 F1500 X96.15 Y101.84 E1481.92914
G0 F9000 X95.585 Y101.84
G1 F1500 X116.42 Y81.004 E1482.90918
G0 F9000 X116.42 Y80.438
G1 F1500 X95.019 Y101.84 E1483.91584
G0 F9000 X94.453 Y101.84
G1 F1500 X116.42 Y79.873 E1484.9491
G0 F9000 X116.42 Y79.307
G1 F1500 X93.888 Y101.84 E1486.00896
G0 F9000 X93.322 Y101.84
G1 F1500 X116.42 Y78.741 E1487.09544
G0 F9000 X116.42 Y78.176
G1 F1500 X92.756 Y101.84 E1488.20852
G0 F9000 X92.19 Y101.84
G1 F1500 X116.42 Y77.61 E1489.34823
G0 F9000 X116.42 Y77.044
G1 F1500 X91.625 Y101.84 E1490.51453
G0 F9000 X91.059 Y101.84
G1 F1500 X116.42 Y76.479 E1491.70744
G0 F9000 X116.42 Y75.913
G1 F1500 X90.493 Y101.84 E1492.92696
G0 F9000 X89.928 Y101.84
G1 F1500 X116.42 Y75.347 E1494.17309
G0 F9000 X116.42 Y74.781
G1 F1500 X89.362 Y101.84 E1495.44584
G0 F9000 X88.796 Y101.84
G1 F1500 X116.42 Y74.216 E1496.74519
G0 F9000 X116.42 Y73.65
G1 F1500 X88.231 Y101.84 E1498.07113
G0 F9000 X87.665 Y101.84
G1 F1500 X116.42 Y73.084 E1499.4237
G0 F9000 X116.42 Y72.519
G1 F1500 X87.099 Y101.84 E1500.80287
G0 F9000 X86.534 Y101.84
G1 F1500 X116.42 Y71.953 E1502.20864
G0 F9000 X116.42 Y71.387
G1 F1500 X85.968 Y101.84 E1503.64104
G0 F9000 X85.402 Y101.84
G1 F1500 X116.42 Y70.822 E1505.10003
G0 F9000 X116.42 Y70.256
G1 F1500 X84.837 Y101.84 E1506.58562
G0 F9000 X84.271 Y101.84
G1 F1500 X116.42 Y69.69 E1508.09783
G0 F9000 X116.42 Y69.125
G1 F1500 X83.705 Y101.84 E1509.63665
G0 F9000 X83.139 Y101.84
G1 F1500 X116.42 Y68.559 E1511.20208
G0 F9000 X116.42 Y67.993
G1 F1500 X82.574 Y101.84 E1512.79412
G0 F9000 X82.008 Y101.84
G1 F1500 X116.42 Y67.428 E1514.41275
G0 F9000 X116.42 Y66.862
G1 F1500 X81.442 Y101.84 E1516.05801
G0 F9000 X80.877 Y101.84
G1 F1500 X116.42 Y66.296 E1517.72987
G0 F9000 X116.42 Y65.731
G1 F1500 X80.311 Y101.84 E1519.42832
G0 F9000 X79.745 Y101.84
G1 F1500 X116.42 Y65.165 E1521.1534
G0 F9000 X116.42 Y64.599
G1 F1500 X79.18 Y101.84 E1522.90508
G0 F9000 X78.614 Y101.84
G1 F1500 X116.42 Y64.033 E1524.68338
G0 F9000 X116.42 Y63.468
G1 F1500 X78.048 Y101.84 E1526.48829
G0 F9000 X77.483 Y101.84
G1 F1500 X116.42 Y62.902 E1528.31979
G0 F9000 X116.42 Y62.336
G1 F1500 X76.917 Y101.84 E1530.17791
G0 F9000 X76.351 Y101.84
G1 F1500 X116.42 Y61.771 E1532.06263
G0 F9000 X116.42 Y61.205
G1 F1500 X75.786 Y101.84 E1533.97396
G0 F9000 X75.22 Y101.84
G1 F1500 X116.42 Y60.639 E1535.9119
G0 F9000 X116.42 Y60.074
G1 F1500 X74.654 Y101.84 E1537.87645
G0 F9000 X74.089 Y101.84
G1 F1500 X116.42 Y59.508 E1539.86759
G0 F9000 X116.42 Y58.942
G1 F1500 X73.523 Y101.84 E1541.88536
G0 F9000 X72.957 Y101.84
G1 F1500 X116.42 Y58.377 E1543.92972
G0 F9000 X116.42 Y57.811
G1 F1500 X72.391 Y101.84 E1546.00071
G0 F9000 X71.826 Y101.84
G1 F1500 X116.42 Y57.245 E1548.0983
G0 F9000 X116.42 Y56.68
G1 F1500 X71.26 Y101.84 E1550.22249
G0 F9000 X70.694 Y101.84
G1 F1500 X116.42 Y56.114 E1552.3733
G0 F9000 X116.42 Y55.548
G1 F1500 X70.129 Y101.84 E1554.55071
G0 F9000 X69.563 Y101.84
G1 F1500 X116.42 Y54.983 E1556.75472
G0 F9000 X116.42 Y54.417
G1 F1500 X68.997 Y101.84 E1558.98535
G0 F9000 X68.432 Y101.84
G1 F1500 X116.42 Y53.851 E1561.24258
G0 F9000 X116.42 Y53.285
G1 F1500 X67.866 Y101.84 E1563.52644
G0 F9000 X67.3 Y101.84
G1 F1500 X116.42 Y52.72 E1565.83689
G0 F9000 X116.42 Y52.154
G1 F1500 X66.735 Y101.84 E1568.17395
G0 F9000 X66.169 Y101.84
G1 F1500 X116.42 Y51.588 E1570.53762
G0 F9000 X116.42 Y51.023
G1 F1500 X65.603 Y101.84 E1572.9279
G0 F9000 X65.038 Y101.84
G1 F1500 X116.42 Y50.457 E1575.34477
G0 F9000 X116.42 Y49.891
G1 F1500 X64.472 Y101.84 E1577.78827
G0 F9000 X63.906 Y101.84
G1 F1500 X116.42 Y49.326 E1580.25837
G0 F9000 X116.42 Y48.76
G1 F1500 X63.341 Y101.84 E1582.75507
G0 F9000 X62.775 Y101.84
G1 F1500 X116.42 Y48.194 E1585.27839
G0 F9000 X115.888 Y48.16
G1 F1500 X62.209 Y101.84 E1587.8033
G0 F9000 X61.643 Y101.84
G1 F1500 X115.323 Y48.16 E1590.32825
G0 F9000 X114.757 Y48.16
G1 F1500 X61.078 Y101.84 E1592.85317
G0 F9000 X60.512 Y101.84
G1 F1500 X114.191 Y48.16 E1595.37809
G0 F9000 X113.626 Y48.16
G1 F1500 X59.946 Y101.84 E1597.90303
G0 F9000 X59.381 Y101.84
G1 F1500 X113.06 Y48.16 E1600.42795
G0 F9000 X112.494 Y48.16
G1 F1500 X58.815 Y101.84 E1602.95287
G0 F9000 X58.249 Y101.84
G1 F1500 X111.929 Y48.16 E1605.47781
G0 F9000 X111.363 Y48.16
G1 F1500 X57.684 Y101.84 E1608.00273
G0 F9000 X57.118 Y101.84
G1 F1500 X110.797 Y48.16 E1610.52765
G0 F9000 X110.232 Y48.16
G1 F1500 X56.552 Y101.84 E1613.05259
G0 F9000 X55.987 Y101.84
G1 F1500 X109.666 Y48.16 E1615.57751
G0 F9000 X109.1 Y48.16
G1 F1500 X55.421 Y101.84 E1618.10243
G0 F9000 X54.855 Y101.84
G1 F1500 X108.535 Y48.16 E1620.62737
G0 F9000 X107.969 Y48.16
G1 F1500 X54.29 Y101.84 E1623.15229
G0 F9000 X53.724 Y101.84
G1 F1500 X107.403 Y48.16 E1625.67721
G0 F9000 X106.837 Y48.16
G1 F1500 X53.158 Y101.84 E1628.20213
G0 F9000 X52.592 Y101.84
G1 F1500 X106.272 Y48.16 E1630.72707
G0 F9000 X105.706 Y48.16
G1 F1500 X52.027 Y101.84 E1633.25199
G0 F9000 X51.461 Y101.84
G1 F1500 X105.14 Y48.16 E1635.77691
G0 F9000 X104.575 Y48.16
G1 F1500 X50.895 Y101.84 E1638.30185
G0 F9000 X50.33 Y101.84
G1 F1500 X104.009 Y48.16 E1640.82677
G0 F9000 X103.443 Y48.16
G1 F1500 X49.764 Y101.84 E1643.35169
G0 F9000 X49.198 Y101.84
G1 F1500 X102.878 Y48.16 E1645.87663
G0 F9000 X102.312 Y48.16
G1 F1500 X48.633 Y101.84 E1648.40155
G0 F9000 X48.067 Y101.84
G1 F1500 X101.746 Y48.16 E1650.92647
G0 F9000 X101.181 Y48.16
G1 F1500 X47.501 Y101.84 E1653.45141
G0 F9000 X46.936 Y101.84
G1 F1500 X100.615 Y48.16 E1655.97633
G0 F9000 X100.049 Y48.16
G1 F1500 X46.37 Y101.84 E1658.50125
G0 F9000 X45.804 Y101.84
G1 F1500 X99.484 Y48.16 E1661.02619
G0 F9000 X98.918 Y48.16
G1 F1500 X45.239 Y101.84 E1663.55111
G0 F9000 X44.673 Y101.84
G1 F1500 X98.352 Y48.16 E1666.07603
G0 F9000 X97.787 Y48.16
G1 F1500 X44.107 Y101.84 E1668.60097
G0 F9000 X43.542 Y101.84
G1 F1500 X97.221 Y48.16 E1671.12589
G0 F9000 X96.655 Y48.16
G1 F1500 X42.976 Y101.84 E1673.65081
G0 F9000 X42.41 Y101.84
G1 F1500 X96.089 Y48.16 E1676.17573
G0 F9000 X95.524 Y48.16
G1 F1500 X41.844 Y101.84 E1678.70067
G0 F9000 X41.279 Y101.84
G1 F1500 X94.958 Y48.16 E1681.22559
G0 F9000 X94.392 Y48.16
G1 F1500 X40.713 Y101.84 E1683.75051
G0 F9000 X40.147 Y101.84
G1 F1500 X93.827 Y48.16 E1686.27546
G0 F9000 X93.261 Y48.16
G1 F1500 X39.582 Y101.84 E1688.80037
G0 F9000 X39.016 Y101.84
G1 F1500 X92.695 Y48.16 E1691.32529
G0 F9000 X92.13 Y48.16
G1 F1500 X38.45 Y101.84 E1693.85024
G0 F9000 X37.885 Y101.84
G1 F1500 X91.564 Y48.16 E1696.37516
G0 F9000 X90.998 Y48.16
G1 F1500 X37.319 Y101.84 E1698.90007
G0 F9000 X36.753 Y101.84
G1 F1500 X90.433 Y48.16 E1701.42502
G0 F9000 X89.867 Y48.16
G1 F1500 X36.188 Y101.84 E1703.94994
G0 F9000 X35.622 Y101.84
G1 F1500 X89.301 Y48.16 E1706.47486
G0 F9000 X88.736 Y48.16
G1 F1500 X35.056 Y101.84 E1708.9998
G0 F9000 X34.491 Y101.84
G1 F1500 X88.17 Y48.16 E1711.52472
G0 F9000 X87.604 Y48.16
G1 F1500 X33.925 Y101.84 E1714.04964
G0 F9000 X33.359 Y101.84
G1 F1500 X87.038 Y48.16 E1716.57456
G0 F9000 X86.473 Y48.16
G1 F1500 X32.793 Y101.84 E1719.0995
G0 F9000 X32.228 Y101.84
G1 F1500 X85.907 Y48.16 E1721.62442
G0 F9000 X85.341 Y48.16
G1 F1500 X31.662 Y101.84 E1724.14934
G0 F9000 X31.096 Y101.84
G1 F1500 X84.776 Y48.16 E1726.67428
G0 F9000 X84.21 Y48.16
G1 F1500 X30.531 Y101.84 E1729.1992
G0 F9000 X29.965 Y101.84
G1 F1500 X83.644 Y48.16 E1731.72412
G0 F9000 X83.079 Y48.16
G1 F1500 X29.399 Y101.84 E1734.24906
G0 F9000 X28.834 Y101.84
G1 F1500 X82.513 Y48.16 E1736.77398
G0 F9000 X81.947 Y48.16
G1 F1500 X28.268 Y101.84 E1739.2989
G0 F9000 X27.702 Y101.84
G1 F1500 X81.382 Y48.16 E1741.82384
G0 F9000 X80.816 Y48.16
G1 F1500 X27.137 Y101.84 E1744.34876
G0 F9000 X26.571 Y101.84
G1 F1500 X80.25 Y48.16 E1746.87368
G0 F9000 X79.685 Y48.16
G1 F1500 X26.005 Y101.84 E1749.39862
G0 F9000 X25.44 Y101.84
G1 F1500 X79.119 Y48.16 E1751.92354
G0 F9000 X78.553 Y48.16
G1 F1500 X24.874 Y101.84 E1754.44846
G0 F9000 X24.308 Y101.84
G1 F1500 X77.988 Y48.16 E1756.9734
G0 F9000 X77.422 Y48.16
G1 F1500 X23.743 Y101.84 E1759.49832
G0 F9000 X23.177 Y101.84
G1 F1500 X76.856 Y48.16 E1762.02324
G0 F9000 X76.29 Y48.16
G1 F1500 X22.611 Y101.84 E1764.54816
G0 F9000 X22.045 Y101.84
G1 F1500 X75.725 Y48.16 E1767.0731
G0 F9000 X75.159 Y48.16
G1 F1500 X21.48 Y101.84 E1769.59802
G0 F9000 X20.914 Y101.84
G1 F1500 X74.593 Y48.16 E1772.12294
G0 F9000 X74.028 Y48.16
G1 F1500 X20.74 Y101.448 E1774.62944
G0 F9000 X20.74 Y100.882
G1 F1500 X73.462 Y48.16 E1777.10933
G0 F9000 X72.896 Y48.16
G1 F1500 X20.74 Y100.317 E1779.56261
G0 F9000 X20.74 Y99.751
G1 F1500 X72.331 Y48.16 E1781.98929
G0 F9000 X71.765 Y48.16
G1 F1500 X20.74 Y99.185 E1784.38935
G0 F9000 X20.74 Y98.619
G1 F1500 X71.199 Y48.16 E1786.76279
G0 F9000 X70.634 Y48.16
G1 F1500 X20.74 Y98.054 E1789.10965
G0 F9000 X20.74 Y97.488
G1 F1500 X70.068 Y48.16 E1791.42988
G0 F9000 X69.502 Y48.16
G1 F1500 X20.74 Y96.922 E1793.7235
G0 F9000 X20.74 Y96.357
G1 F1500 X68.937 Y48.16 E1795.99054
G0 F9000 X68.371 Y48.16
G1 F1500 X20.74 Y95.791 E1798.23096
G0 F9000 X20.74 Y95.225
G1 F1500 X67.805 Y48.16 E1800.44475
G0 F9000 X67.239 Y48.16
G1 F1500 X20.74 Y94.66 E1802.63194
G0 F9000 X20.74 Y94.094
G1 F1500 X66.674 Y48.16 E1804.79254
G0 F9000 X66.108 Y48.16
G1 F1500 X20.74 Y93.528 E1806.92651
G0 F9000 X20.74 Y92.963
G1 F1500 X65.542 Y48.16 E1809.03388
G0 F9000 X64.977 Y48.16
G1 F1500 X20.74 Y92.397 E1811.11465
G0 F9000 X20.74 Y91.831
G1 F1500 X64.411 Y48.16 E1813.1688
G0 F9000 X63.845 Y48.16
G1 F1500 X20.74 Y91.266 E1815.19635
G0 F9000 X20.74 Y90.7
G1 F1500 X63.28 Y48.16 E1817.19731
G0 F9000 X62.714 Y48.16
G1 F1500 X20.74 Y90.134 E1819.17163
G0 F9000 X20.74 Y89.569
G1 F1500 X62.148 Y48.16 E1821.11936
G0 F9000 X61.583 Y48.16
G1 F1500 X20.74 Y89.003 E1823.04049
G0 F9000 X20.74 Y88.437
G1 F1500 X61.017 Y48.16 E1824.935
G0 F9000 X60.451 Y48.16
G1 F1500 X20.74 Y87.871 E1826.80288
G0 F9000 X20.74 Y87.306
G1 F1500 X59.886 Y48.16 E1828.64419
G0 F9000 X59.32 Y48.16
G1 F1500 X20.74 Y86.74 E1830.45887
G0 F9000 X20.74 Y86.174
G1 F1500 X58.754 Y48.16 E1832.24694
G0 F9000 X58.189 Y48.16
G1 F1500 X20.74 Y85.609 E1834.00842
G0 F9000 X20.74 Y85.043
G1 F1500 X57.623 Y48.16 E1835.74329
G0 F9000 X57.057 Y48.16
G1 F1500 X20.74 Y84.477 E1837.45153
G0 F9000 X20.74 Y83.912
G1 F1500 X56.491 Y48.16 E1839.13317
G0 F9000 X55.926 Y48.16
G1 F1500 X20.74 Y83.346 E1840.78821
G0 F9000 X20.74 Y82.78
G1 F1500 X55.36 Y48.16 E1842.41663
G0 F9000 X54.794 Y48.16
G1 F1500 X20.74 Y82.215 E1844.01845
G0 F9000 X20.74 Y81.649
G1 F1500 X54.229 Y48.16 E1845.59367
G0 F9000 X53.663 Y48.16
G1 F1500 X20.74 Y81.083 E1847.14226
G0 F9000 X20.74 Y80.518
G1 F1500 X53.097 Y48.16 E1848.66426
G0 F9000 X52.532 Y48.16
G1 F1500 X20.74 Y79.952 E1850.15966
G0 F9000 X20.74 Y79.386
G1 F1500 X51.966 Y48.16 E1851.62844
G0 F9000 X51.4 Y48.16
G1 F1500 X20.74 Y78.82 E1853.07059
G0 F9000 X20.74 Y78.255
G1 F1500 X50.835 Y48.16 E1854.48616
G0 F9000 X50.269 Y48.16
G1 F1500 X20.74 Y77.689 E1855.87512
G0 F9000 X20.74 Y77.123
G1 F1500 X49.703 Y48.16 E1857.23745
G0 F9000 X49.138 Y48.16
G1 F1500 X20.74 Y76.558 E1858.5732
G0 F9000 X20.74 Y75.992
G1 F1500 X48.572 Y48.16 E1859.88234
G0 F9000 X48.006 Y48.16
G1 F1500 X20.74 Y75.426 E1861.16484
G0 F9000 X20.74 Y74.861
G1 F1500 X47.441 Y48.16 E1862.42078
G0 F9000 X46.875 Y48.16
G1 F1500 X20.74 Y74.295 E1863.65009
G0 F9000 X20.74 Y73.729
G1 F1500 X46.309 Y48.16 E1864.85277
G0 F9000 X45.743 Y48.16
G1 F1500 X20.74 Y73.164 E1866.02886
G0 F9000 X20.74 Y72.598
G1 F1500 X45.178 Y48.16 E1867.17835
G0 F9000 X44.612 Y48.16
G1 F1500 X20.74 Y72.032 E1868.30122
G0 F9000 X20.74 Y71.467
G1 F1500 X44.046 Y48.16 E1869.39748
G0 F9000 X43.481 Y48.16
G1 F1500 X20.74 Y70.901 E1870.46715
G0 F9000 X20.74 Y70.335
G1 F1500 X42.915 Y48.16 E1871.51019
G0 F9000 X42.349 Y48.16
G1 F1500 X20.74 Y69.77 E1872.52664
G0 F9000 X20.74 Y69.204
G1 F1500 X41.784 Y48.16 E1873.51648
G0 F9000 X41.218 Y48.16
G1 F1500 X20.74 Y68.638 E1874.47971
G0 F9000 X20.74 Y68.072
G1 F1500 X40.652 Y48.16 E1875.41631
G0 F9000 X40.087 Y48.16
G1 F1500 X20.74 Y67.507 E1876.32633
G0 F9000 X20.74 Y66.941
G1 F1500 X39.521 Y48.16 E1877.20973
G0 F9000 X38.955 Y48.16
G1 F1500 X20.74 Y66.375 E1878.06651
G0 F9000 X20.74 Y65.81
G1 F1500 X38.39 Y48.16 E1878.89671
G0 F9000 X37.824 Y48.16
G1 F1500 X20.74 Y65.244 E1879.70029
G0 F9000 X20.74 Y64.678
G1 F1500 X37.258 Y48.16 E1880.47725
G0 F9000 X36.692 Y48.16
G1 F1500 X20.74 Y64.113 E1881.2276
G0 F9000 X20.74 Y63.547
G1 F1500 X36.127 Y48.16 E1881.95136
G0 F9000 X35.561 Y48.16
G1 F1500 X20.74 Y62.981 E1882.64849
G0 F9000 X20.74 Y62.416
G1 F1500 X34.995 Y48.16 E1883.31903
G0 F9000 X34.43 Y48.16
G1 F1500 X20.74 Y61.85 E1883.96296
G0 F9000 X20.74 Y61.284
G1 F1500 X33.864 Y48.16 E1884.58028
G0 F9000 X33.298 Y48.16
G1 F1500 X20.74 Y60.719 E1885.17099
G0 F9000 X20.74 Y60.153
G1 F1500 X32.733 Y48.16 E1885.7351
G0 F9000 X32.167 Y48.16
G1 F1500 X20.74 Y59.587 E1886.2726
G0 F9000 X20.74 Y59.021
G1 F1500 X31.601 Y48.16 E1886.78346
G0 F9000 X31.036 Y48.16
G1 F1500 X20.74 Y58.456 E1887.26776
G0 F9000 X20.74 Y57.89
G1 F1500 X30.47 Y48.16 E1887.72542
G0 F9000 X29.904 Y48.16
G1 F1500 X20.74 Y57.324 E1888.15647
G0 F9000 X20.74 Y56.759
G1 F1500 X29.339 Y48.16 E1888.56094
G0 F9000 X28.773 Y48.16
G1 F1500 X20.74 Y56.193 E1888.93879
G0 F9000 X20.74 Y55.627
G1 F1500 X28.207 Y48.16 E1889.29001
G0 F9000 X27.642 Y48.16
G1 F1500 X20.74 Y55.062 E1889.61466
G0 F9000 X20.74 Y54.496
G1 F1500 X27.076 Y48.16 E1889.91269
G0 F9000 X26.51 Y48.16
G1 F1500 X20.74 Y53.93 E1890.18409
G0 F9000 X20.74 Y53.365
G1 F1500 X25.944 Y48.16 E1890.4289
G0 F9000 X25.379 Y48.16
G1 F1500 X20.74 Y52.799 E1890.6471
G0 F9000 X20.74 Y52.233
G1 F1500 X24.813 Y48.16 E1890.83868
G0 F9000 X24.247 Y48.16
G1 F1500 X20.74 Y51.668 E1891.00366
G0 F9000 X20.74 Y51.102
G1 F1500 X23.682 Y48.16 E1891.14205
G0 F9000 X23.116 Y48.16
G1 F1500 X20.74 Y50.536 E1891.25381
G0 F9000 X20.74 Y49.971
G1 F1500 X22.55 Y48.16 E1891.33897
G0 F9000 X21.985 Y48.16
G1 F1500 X20.74 Y49.405 E1891.39753
G0 F9000 X20.74 Y48.839
G1 F1500 X21.419 Y48.16 E1891.42947
G0 F9000 X20.853 Y48.16
G1 F1500 X20.74 Y48.273 E1891.43478
G1 F2700 E1886.43478
;MESH:NONMESH
G0 F300 X20.74 Y48.273 Z1
G0 F9000 X20.28 Y48.273
G0 X20.352 Y102.228
G0 X70.925 Y102.4
;TIME_ELAPSED:2593.672651
;LAYER:4
;TYPE:WALL-INNER
;MESH:Mizzou_logo.stl
G1 F2700 E1891.43478
G1 F1500 X116.98 Y102.4 E1892.96658
G1 X116.98 Y47.6 E1894.78923
G1 X20.18 Y47.6 E1898.00881
G1 X20.18 Y102.4 E1899.83147
G1 X70.925 Y102.4 E1901.51925
G0 F9000 X70.96 Y102.8
;TYPE:WALL-OUTER
G1 F1500 X117.38 Y102.8 E1903.06319
G1 X117.38 Y47.2 E1904.91245
G1 X19.78 Y47.2 E1908.15864
G1 X19.78 Y102.8 E1910.00791
G1 X70.96 Y102.8 E1911.71016
G1 F2700 E1906.71016
G0 F9000 X70.96 Y102.49
G0 X74.254 Y102.2
G0 X73.159 Y97.405
G0 X74.254 Y97.064
G0 X74.301 Y97.28
;TYPE:FILL
G1 F2700 E1911.71016
G1 F3000 X74.928 Y94.94 E1911.79073
G0 F9000 X74.943 Y95.16
G0 X74.652 Y96.92
G0 X74.733 Y97.123
G1 F3000 X72.641 Y95.031 E1911.88913
G0 F9000 X72.64 Y95.25
G0 X71.612 Y95.215
G0 X68.735 Y94.987
G0 X68.762 Y94.769
G1 F3000 X68.366 Y96.248 E1911.94006
G0 F9000 X68.38 Y96.029
G0 X67.771 Y94.784
G0 X67.82 Y94.57
G1 F3000 X62.922 Y95.883 E1912.10872
G0 F9000 X62.264 Y95.838
G1 F3000 X62.784 Y93.895 E1912.17562
G0 F9000 X62.995 Y93.871
G1 F3000 X65.162 Y96.037 E1912.27752
G0 F9000 X65.177 Y95.819
G0 X56.722 Y94.817
G0 X56.308 Y94.618
G0 X56.428 Y94.435
G1 F3000 X56.256 Y95.078 E1912.29966
G0 F9000 X55.587 Y94.947
G1 F3000 X53.956 Y93.316 E1912.37638
G0 F9000 X53.92 Y93.532
G0 X51.006 Y93.074
G0 X51.036 Y92.856
G1 F3000 X48.989 Y93.404 E1912.44686
G0 F9000 X49.045 Y93.192
G0 X50.449 Y93.563
G0 X50.393 Y93.776
G1 F3000 X50.654 Y92.802 E1912.4804
G0 F9000 X50.624 Y93.02
G0 X49.008 Y92.719
G0 X49.811 Y89.32
G0 X50.022 Y89.383
G1 F3000 X40.848 Y80.209 E1912.91192
G0 F9000 X40.997 Y80.368
G0 X42.009 Y79.418
G0 X41.86 Y79.258
G1 F3000 X39.164 Y89.32 E1913.25838
G0 F9000 X39.794 Y89.657
G1 F3000 X50.919 Y86.676 E1913.64146
G0 F9000 X50.71 Y86.601
G0 X49.152 Y84.851
G0 X49.451 Y83.695
G0 X50.358 Y81.329
G0 X50.555 Y81.43
G1 F3000 X45.381 Y76.256 E1913.88482
G0 F9000 X45.519 Y76.426
G0 X46.598 Y75.622
G0 X46.47 Y75.444
G1 F3000 X55.201 Y73.105 E1914.18546
G0 F9000 X55.015 Y72.989
G0 X56.16 Y71.471
G0 X56.334 Y71.604
G1 F3000 X57.007 Y69.093 E1914.27192
G0 F9000 X57.11 Y69.288
G0 X55.926 Y69.922
G0 X55.823 Y69.727
G1 F3000 X56.924 Y70.828 E1914.32371
G0 F9000 X56.749 Y70.694
G0 X55.421 Y72.522
G0 X53.298 Y75.759
G0 X53.485 Y75.875
G1 F3000 X50.376 Y72.766 E1914.46995
G0 F9000 X49.695 Y73.2
G1 F3000 X44.677 Y91.928 E1915.11482
G0 F9000 X44.764 Y91.727
G0 X43.721 Y91.279
G0 X43.634 Y91.48
G1 F3000 X32.089 Y79.935 E1915.65786
G0 F9000 X32.218 Y80.111
G0 X33.582 Y79.109
G0 X33.453 Y78.932
G1 F3000 X39.174 Y77.399 E1915.85485
G0 F9000 X38.796 Y78.157
G1 F3000 X36.996 Y76.356 E1915.93954
G0 F9000 X36.295 Y76.843
G1 F3000 X33.92 Y85.708 E1916.24479
G0 F9000 X33.336 Y85.175
G1 F3000 X51.067 Y80.424 E1916.85533
G1 F2700 E1911.85533
G0 F9000 X50.872 Y80.324
G0 X51.793 Y78.738
G0 X61.509 Y82.771
G0 X61.495 Y83.691
G0 X61.278 Y83.668
G1 F2700 E1916.85533
G1 F3000 X64.315 Y86.705 E1916.99818
G0 F9000 X64.743 Y86.584
G1 F3000 X68.063 Y74.194 E1917.42481
G0 F9000 X67.988 Y73.407
G1 F3000 X65.74 Y71.16 E1917.53053
G0 F9000 X65.951 Y71.221
G0 X66.323 Y70.265
G0 X66.123 Y70.178
G1 F3000 X67.963 Y69.685 E1917.59389
G0 F9000 X67.745 Y69.669
G0 X67.722 Y70.846
G0 X67.844 Y73.802
G0 X68.041 Y75.126
G0 X68.334 Y76.253
G0 X68.835 Y77.362
G0 X69.525 Y78.142
G0 X70.448 Y78.148
G0 X70.904 Y77.577
G0 X73.281 Y70.11
G0 X73.083 Y70.017
G1 F3000 X79.489 Y76.423 E1917.8952
G0 F9000 X79.903 Y76.371
G1 F3000 X80.045 Y75.842 E1917.91342
G0 F9000 X79.974 Y76.05
G0 X79.553 Y75.835
G0 X79.619 Y74.535
G0 X80.355 Y74.254
G0 X80.414 Y74.466
G1 F3000 X80.6 Y73.771 E1917.93735
G0 F9000 X80.551 Y73.985
G0 X78.33 Y73.3
G0 X78.413 Y73.097
G1 F3000 X71.246 Y75.017 E1918.18413
G0 F9000 X71.453 Y75.084
G0 X71.175 Y76.423
G0 X70.96 Y76.38
G1 F3000 X73.684 Y79.103 E1918.31224
G0 F9000 X73.465 Y79.084
G0 X73.449 Y80.098
G0 X74.788 Y80.48
G0 X74.838 Y80.267
G1 F3000 X65.378 Y82.801 E1918.63797
G0 F9000 X65.595 Y82.765
G0 X65.672 Y83.621
G0 X64.564 Y84.17
G0 X63.709 Y83.356
G0 X63.869 Y83.206
G1 F3000 X61.254 Y83.906 E1918.72801
G0 F9000 X61.471 Y83.929
G0 X61.118 Y85.359
G0 X60.678 Y86.006
G0 X58.148 Y88.966
G0 X57.967 Y88.842
G1 F3000 X58.46 Y89.335 E1918.7512
G0 F9000 X57.9 Y88.942
G1 F3000 X57.618 Y89.995 E1918.78745
G0 F9000 X57.571 Y89.87
G0 X63.686 Y83.244
G0 X64.564 Y84.17
G0 X65.672 Y83.621
G0 X65.235 Y78.907
G0 X65.015 Y78.919
G1 F3000 X71.776 Y85.681 E1919.10549
G0 F9000 X71.623 Y85.524
G0 X70.963 Y86.258
G0 X70.925 Y86.697
G1 F3000 X75.344 Y70.204 E1919.6734
G0 F9000 X75.16 Y70.32
G0 X74.317 Y67.976
G0 X74.531 Y67.925
G1 F3000 X73.995 Y68.069 E1919.69186
G1 F2700 E1914.69186
G0 F9000 X74.193 Y68.162
G0 X74.388 Y67.93
G0 X77.54 Y67.565
G0 X77.592 Y67.142
G0 X77.373 Y67.164
G1 F2700 E1919.69186
G1 F3000 X80.341 Y66.369 E1919.79406
G0 F9000 X80.128 Y66.427
G0 X80.349 Y66.963
G0 X81.448 Y66.937
G0 X82.675 Y66.589
G0 X82.577 Y66.393
G1 F3000 X81.34 Y71.009 E1919.953
G0 F9000 X81.376 Y70.793
G0 X82.637 Y70.871
G0 X82.642 Y71.091
G1 F3000 X77.703 Y66.151 E1920.18534
G1 F2700 E1915.18534
G0 F9000 X77.658 Y66.365
G0 X78.083 Y66.372
G0 X80.193 Y62.678
G0 X81.735 Y61.645
G0 X81.862 Y61.825
G1 F2700 E1920.18534
G1 F3000 X81.417 Y61.38 E1920.20627
G1 F2700 E1915.20627
G0 F9000 X81.473 Y61.587
G0 X82.426 Y61.249
G0 X87.078 Y63.769
G0 X86.844 Y64.748
G0 X86.635 Y64.682
G1 F2700 E1920.20627
G1 F3000 X87.991 Y64.319 E1920.25296
G1 X88.175 Y64.27
G1 X92.768 Y63.039 E1920.41112
G0 F9000 X93.625 Y62.809
G1 F3000 X100.025 Y61.094 E1920.63149
G0 F9000 X99.903 Y61.275
G0 X102.11 Y62.765
G0 X102.232 Y62.585
G1 F3000 X100.051 Y70.724 E1920.91175
G0 F9000 X100.206 Y70.569
G0 X102.051 Y72.883
G0 X101.575 Y73.003
G0 X101.381 Y72.859
G1 F3000 X108.746 Y80.224 E1921.25818
G0 F9000 X108.543 Y80.139
G0 X109.655 Y77.04
G0 X109.867 Y77.092
G1 F3000 X102.324 Y79.113 E1921.51791
G0 F9000 X102.542 Y79.114
G0 X101.927 Y81.785
G0 X101.729 Y81.692
G1 F3000 X105.063 Y85.026 E1921.67473
G0 F9000 X105.677 Y84.427
G1 F3000 X93.857 Y87.594 E1922.08173
G0 F9000 X94.073 Y87.628
G0 X93.948 Y88.04
G0 X93.463 Y88.783
G0 X92.676 Y89.631
G0 X92.532 Y89.466
G1 F3000 X94.582 Y91.516 E1922.17815
G1 X94.466 Y91.568
G1 X96.178 Y85.179 E1922.39815
G0 F9000 X96.598 Y85.047
G1 F3000 X100.236 Y88.685 E1922.56927
G0 F9000 X100.13 Y88.492
G0 X101.59 Y87.518
G0 X101.715 Y87.699
G1 F3000 X107.202 Y67.218 E1923.27449
G0 F9000 X107.027 Y67.35
G0 X105.767 Y65.87
G0 X105.931 Y65.724
G1 F3000 X97.941 Y67.864 E1923.54961
G0 F9000 X98.127 Y67.748
G0 X96.875 Y66.411
G0 X95.745 Y65.62
G0 X94.316 Y64.9
G0 X93.461 Y65.815
G0 X94.694 Y68.703
G0 X94.909 Y68.677
G1 F3000 X93.442 Y69.07 E1923.60012
G0 F9000 X94.302 Y68.998
G1 F3000 X94.661 Y67.659 E1923.64623
G0 F9000 X94.457 Y67.741
G0 X93.461 Y65.815
G0 X94.316 Y64.9
G0 X95.329 Y65.341
G0 X95.23 Y65.535
G1 F3000 X96.867 Y59.425 E1923.85662
G0 F9000 X96.765 Y59.619
G0 X95.854 Y59.142
G0 X95.955 Y58.948
G1 F3000 X109.907 Y72.9 E1924.51288
G0 F9000 X109.694 Y72.952
G0 X109.151 Y71.094
G0 X109.357 Y71.017
G1 F3000 X101.448 Y73.136 E1924.78521
G1 F2700 E1919.78521
G0 F9000 X101.644 Y73.035
G0 X101.815 Y73.417
G0 X101.97 Y74.476
G0 X97.322 Y78.41
G0 X97.683 Y79.132
G0 X97.84 Y78.978
G1 F2700 E1924.78521
G1 F3000 X97.306 Y80.97 E1924.8538
G0 F9000 X96.343 Y80.716
G1 F3000 X98.827 Y80.05 E1924.93934
G1 F2700 E1919.93934
G0 F9000 X98.658 Y80.192
G0 X95.493 Y80.277
G0 X84.752 Y81.362
G0 X84.202 Y81.33
G0 X84.809 Y81.244
G1 F2700 E1924.93934
G1 F3000 X84.744 Y81.487 E1924.9477
G1 X84.573 Y81.507
G1 X84.281 Y81.215 E1924.96144
G0 F9000 X84.262 Y81.374
G0 X78.683 Y81.092
G0 X78.697 Y80.873
G1 F3000 X78.326 Y82.258 E1925.00913
G0 F9000 X78.284 Y82.042
G0 X77.042 Y82.287
G0 X77.084 Y82.503
G1 F3000 X74.851 Y80.271 E1925.11414
G0 F9000 X74.802 Y80.483
G0 X73.449 Y80.098
G0 X69.525 Y78.142
G0 X68.904 Y77.44
G0 X68.164 Y75.841
G0 X68.377 Y75.786
G1 F3000 X64.957 Y76.702 E1925.2319
G1 F2700 E1920.2319
G0 F9000 X65.178 Y76.702
G0 X67.05 Y68.397
G0 X69.749 Y56.077
G0 X67.244 Y55.431
G0 X67.196 Y55.644
G1 F2700 E1925.2319
G1 F3000 X65.497 Y53.946 E1925.31179
G0 F9000 X65.505 Y54.165
G0 X67.305 Y54.09
G0 X67.297 Y53.87
G1 F3000 X66.843 Y55.567 E1925.37022
G0 F9000 X66.891 Y55.352
G0 X71.191 Y56.187
G0 X71.162 Y56.405
G1 F3000 X73.208 Y55.857 E1925.44067
G0 F9000 X72.91 Y56.105
G1 F3000 X73.583 Y53.593 E1925.52716
G1 X73.629 Y53.592
G1 X74.291 Y54.254 E1925.5583
G1 F2700 E1920.5583
G0 F9000 X74.091 Y54.163
G0 X88.151 Y60.531
G0 X89.335 Y61.114
G0 X89.448 Y60.926
G1 F2700 E1925.5583
G1 F3000 X93.991 Y65.47 E1925.77201
G0 F9000 X93.83 Y65.319
G0 X89.175 Y64.817
G0 X89.152 Y65.035
G1 F3000 X90.145 Y61.33 E1925.89959
G0 F9000 X90.035 Y61.519
G0 X88.656 Y64.83
G0 X88.143 Y64.786
G0 X88.434 Y66.945
G0 X88.65 Y66.909
G1 F3000 X88.39 Y67.88 E1925.93302
G1 F2700 E1920.93302
G0 F9000 X88.521 Y67.704
G0 X88.143 Y64.786
G0 X94.316 Y64.9
G0 X95.745 Y65.62
G0 X96.875 Y66.411
G0 X97.881 Y67.471
G0 X102.051 Y72.883
G0 X102.592 Y77.557
G0 X102.48 Y79.362
G0 X101.974 Y81.541
G0 X101.597 Y82.357
G0 X101.027 Y83.086
G0 X92.296 Y89.884
G0 X90.964 Y90.852
G0 X88.097 Y92.696
G0 X88.006 Y92.496
G1 F2700 E1925.93302
G1 F3000 X87.654 Y93.809 E1925.97824
G0 F9000 X88.23 Y93.649
G1 F3000 X87.371 Y92.79 E1926.01864
G0 F9000 X87.461 Y92.988
G0 X86.714 Y93.266
G0 X84.881 Y93.767
G0 X81.348 Y94.479
G0 X81.322 Y94.26
G1 F3000 X81.046 Y95.29 E1926.05411
G0 F9000 X81.326 Y95.231
G1 F3000 X80.462 Y94.367 E1926.09475
G1 F2700 E1921.09475
G0 F9000 X80.486 Y94.586
G0 X77.231 Y94.929
G0 X73.707 Y95.191
G0 X70.827 Y95.188
G0 X57.459 Y94.926
G0 X56.722 Y94.817
G0 X49.008 Y92.719
G0 X49.152 Y84.851
G0 X51.619 Y72.137
G0 X48.458 Y65.024
G0 X45.196 Y66.298
G0 X45.278 Y66.503
G1 F2700 E1926.09475
G1 F3000 X45.744 Y64.762 E1926.15469
G0 F9000 X45.751 Y64.982
G0 X44.372 Y66.642
G0 X44.456 Y66.846
G1 F3000 X38.513 Y60.902 E1926.43426
G0 F9000 X38.618 Y61.094
G0 X41.028 Y59.767
G0 X40.922 Y59.574
G1 F3000 X38.196 Y69.749 E1926.78461
G0 F9000 X38.65 Y69.525
G1 F3000 X33.612 Y64.487 E1927.02159
G0 F9000 X33.318 Y64.773
G1 F3000 X30.955 Y73.59 E1927.32519
G0 F9000 X31.537 Y73.234
G1 F3000 X28.156 Y74.14 E1927.44161
G0 F9000 X28.373 Y74.174
G0 X32.93 Y72.204
G0 X33.035 Y72.396
G1 F3000 X29.8 Y69.16 E1927.5938
G0 F9000 X29.987 Y69.274
G0 X31.333 Y67.259
G0 X31.164 Y67.122
G1 F3000 X43.299 Y63.871 E1928.01164
G0 F9000 X43.085 Y63.922
G0 X46.311 Y62.138
G0 X46.392 Y62.342
G1 F3000 X47.892 Y56.744 E1928.2044
G0 F9000 X47.962 Y56.953
G0 X44.274 Y58.307
G0 X44.197 Y58.102
G1 F3000 X47.852 Y61.757 E1928.37632
G1 F2700 E1923.37632
G0 F9000 X47.771 Y61.554
G0 X52.789 Y59.909
G0 X52.789 Y46.335
G0 X118.233 Y46.347
G0 X118.245 Y80.276
G0 X94.946 Y80.276
G0 X95.392 Y80.261
G0 X97.523 Y80.767
G0 X97.496 Y81.028
;TYPE:SKIN
G1 F2700 E1928.37632
G1 F1500 X98.181 Y80.95 E1928.39925
G1 X98.529 Y80.596 E1928.41576
G1 X98.917 Y80.468 E1928.42935
G1 X98.985 Y80.407 E1928.43239
G1 X99.02 Y80.289 E1928.43648
G1 X98.985 Y80.177 E1928.44038
G1 X98.405 Y79.49 E1928.47029
G1 X97.746 Y78.822 E1928.5015
G1 X97.477 Y78.351 E1928.51954
G1 X97.384 Y78.286 E1928.52331
G1 X97.271 Y78.281 E1928.52707
G1 X97.183 Y78.329 E1928.53041
G1 X96.71 Y78.933 E1928.55592
G1 X96.132 Y79.431 E1928.5813
G1 X95.355 Y79.866 E1928.61092
G1 X95.265 Y79.976 E1928.61565
G1 X95.285 Y80.296 E1928.62631
G1 X95.352 Y80.416 E1928.63088
G1 X96.275 Y80.731 E1928.66332
G1 X96.806 Y80.961 E1928.68256
G1 X97.496 Y81.028 E1928.70562
G1 F2700 E1923.70562
G0 F9000 X97.523 Y80.767
G0 X97.322 Y78.41
G0 X96.564 Y72.781
G0 X96.379 Y72.68
G1 F2700 E1928.70562
G1 F1500 X96.668 Y72.603 E1928.71557
G1 X96.768 Y72.479 E1928.72087
G1 X96.853 Y71.88 E1928.74099
G1 X96.806 Y71.772 E1928.74491
G1 X96.694 Y71.693 E1928.74947
G1 X96.105 Y71.73 E1928.7691
G1 X95.977 Y71.837 E1928.77464
G1 X95.877 Y72.085 E1928.78354
G1 X95.907 Y72.221 E1928.78817
G1 X96.241 Y72.639 E1928.80597
G1 X96.379 Y72.68 E1928.81075
G1 F2700 E1923.81075
G0 F9000 X96.508 Y72.562
G0 X95.771 Y71.906
G0 X72.51 Y56.256
G0 X71.788 Y56.612
G0 X71.822 Y56.893
G1 F2700 E1928.81075
G1 F1500 X72.609 Y56.403 E1928.84159
G1 X73.309 Y55.823 E1928.87182
G1 X73.817 Y55.235 E1928.89767
G1 X74.199 Y54.551 E1928.92373
G1 X74.539 Y53.799 E1928.95118
G1 X74.555 Y53.691 E1928.95481
G1 X74.486 Y53.563 E1928.95964
G1 X74.399 Y53.52 E1928.96287
G1 X63.629 Y53.982 E1929.32141
G1 X63.477 Y54.077 E1929.32737
G1 X63.424 Y54.494 E1929.34136
G1 X63.55 Y54.641 E1929.34779
G1 X66.803 Y55.596 E1929.46056
G1 X69.708 Y56.252 E1929.55961
G1 X71.52 Y56.492 E1929.6204
G1 X71.563 Y56.731 E1929.62848
G1 X71.63 Y56.849 E1929.63299
G1 X71.822 Y56.893 E1929.63955
G1 F2700 E1924.63955
G0 F9000 X71.788 Y56.612
G0 X72.51 Y56.256
G0 X78.212 Y62.066
G0 X79.028 Y62.732
G0 X79.016 Y62.992
G1 F2700 E1929.63955
G1 F1500 X80.243 Y62.848 E1929.68064
G1 X81.074 Y62.435 E1929.7115
G1 X81.85 Y61.873 E1929.74337
G1 X81.897 Y61.685 E1929.74981
G1 X81.733 Y61.348 E1929.76228
G1 X81.547 Y61.294 E1929.76872
G1 X80.007 Y61.743 E1929.82207
G1 X78.725 Y61.895 E1929.86501
G1 X78.188 Y61.891 E1929.88287
G1 X78.051 Y61.972 E1929.88817
G1 X77.962 Y62.352 E1929.90115
G1 X77.918 Y62.793 E1929.91589
G1 X77.976 Y62.892 E1929.9197
G1 X78.086 Y62.953 E1929.92389
G1 X79.016 Y62.992 E1929.95485
G1 F2700 E1924.95485
G0 F9000 X79.028 Y62.732
G0 X80.193 Y62.678
G0 X81.653 Y66.864
G0 X83.468 Y70.849
G0 X83.505 Y71.106
G1 F2700 E1929.95485
G1 F1500 X85.391 Y70.741 E1930.01874
G1 X87.013 Y70.388 E1930.07395
G1 X87.12 Y70.27 E1930.07925
G1 X87.164 Y69.969 E1930.08937
G1 X87.086 Y69.817 E1930.09505
G1 X86.128 Y69.279 E1930.13159
G1 X84.988 Y68.298 E1930.18161
G1 X84.146 Y67.167 E1930.22851
G1 X83.703 Y65.972 E1930.2709
G1 X83.586 Y65.895 E1930.27556
G1 X83.481 Y65.889 E1930.27906
G1 X82.429 Y66.419 E1930.31824
G1 X81.531 Y66.733 E1930.34988
G1 X80.49 Y66.767 E1930.38452
G1 X80.354 Y66.285 E1930.40118
G1 X80.201 Y66.193 E1930.40711
G1 X79.506 Y66.208 E1930.43024
G1 X78.106 Y66.192 E1930.4768
G1 X77.415 Y66.049 E1930.50027
G1 X77.287 Y66.113 E1930.50503
G1 X77.224 Y66.233 E1930.50954
G1 X77.405 Y67.781 E1930.56138
G1 X77.826 Y68.858 E1930.59984
G1 X78.512 Y69.76 E1930.63753
G1 X79.429 Y70.451 E1930.67572
G1 X80.551 Y70.914 E1930.71609
G1 X81.911 Y71.146 E1930.76198
G1 X83.505 Y71.106 E1930.81501
G1 F2700 E1925.81501
G0 F9000 X83.468 Y70.849
G0 X81.95 Y70.97
G0 X76.709 Y85.768
G0 X74.759 Y86.823
G0 X74.783 Y87.082
G1 F2700 E1930.81501
G1 F1500 X75.622 Y86.991 E1930.84308
G1 X76.905 Y86.819 E1930.88613
G1 X77.026 Y86.669 E1930.89254
G1 X76.875 Y85.733 E1930.92408
G1 X76.749 Y85.618 E1930.92975
G1 X76.655 Y85.61 E1930.93289
G1 X74.672 Y86.414 E1931.00406
G1 X74.585 Y86.483 E1931.00775
G1 X74.538 Y86.588 E1931.01158
G1 X74.644 Y86.998 E1931.02566
G1 X74.783 Y87.082 E1931.03107
G1 F2700 E1926.03107
G0 F9000 X74.759 Y86.823
G0 X73.249 Y87.065
G0 X71.016 Y86.536
G0 X69.563 Y86.814
G0 X69.613 Y87.066
G1 F2700 E1931.03107
G1 F1503.8 X69.913 Y87.004 E1931.04123
G1 F1500 X71.028 Y86.71 E1931.07958
G1 X71.165 Y86.584 E1931.08577
G1 X71.127 Y86.375 E1931.09284
G1 X72.887 Y84.645 E1931.17492
G1 X74.228 Y83.532 E1931.23288
G1 X75.065 Y83.092 E1931.26433
G1 X76.061 Y82.742 E1931.29945
G1 X78.643 Y82.234 E1931.38697
G1 X82.68 Y81.776 E1931.5221
G1 X82.759 Y81.739 E1931.525
G1 X82.832 Y81.625 E1931.52951
G1 X82.826 Y81.191 E1931.54394
G1 X82.692 Y81.079 E1931.54975
G1 X78.38 Y80.812 E1931.69344
G1 X75.901 Y80.47 E1931.77668
G1 X73.65 Y79.948 E1931.85353
G1 X73.741 Y78.846 E1931.89031
G1 X75.764 Y78.728 E1931.95771
G1 X77.24 Y78.602 E1932.00698
G1 X77.347 Y78.431 E1932.01369
G1 X77.356 Y78.122 E1932.02397
G1 X77.284 Y77.962 E1932.02981
G1 X77.022 Y77.894 E1932.03881
G1 X77.031 Y76.781 E1932.07583
G1 X79.878 Y76.415 E1932.1713
G1 X79.994 Y76.357 E1932.17561
G1 X80.05 Y76.25 E1932.17963
G1 X80.076 Y75.939 E1932.19001
G1 X80.013 Y75.806 E1932.1949
G1 X79.752 Y75.698 E1932.2043
G1 X79.805 Y74.682 E1932.23814
G1 X80.763 Y74.409 E1932.27127
G1 X80.859 Y74.348 E1932.27505
G1 X80.903 Y74.262 E1932.27827
G1 X80.904 Y73.906 E1932.29011
G1 X80.75 Y73.765 E1932.29705
G1 X79.381 Y73.448 E1932.34379
G1 X78.082 Y72.918 E1932.39045
G1 X76.969 Y72.18 E1932.43487
G1 X76.054 Y71.243 E1932.47843
G1 X75.323 Y70.091 E1932.52381
G1 X74.775 Y68.75 E1932.57199
G1 X74.585 Y67.98 E1932.59837
G1 X74.464 Y67.892 E1932.60334
G1 X74.159 Y67.86 E1932.61354
G1 X74.011 Y67.93 E1932.61899
G1 X72.902 Y70.307 E1932.70623
G1 X71.905 Y72.846 E1932.79695
G1 X71.161 Y75.131 E1932.87688
G1 X70.879 Y76.581 E1932.92601
G1 X70.765 Y77.43 E1932.9545
G1 X70.352 Y77.947 E1932.97651
G1 X69.611 Y77.944 E1933.00116
G1 X69.003 Y77.25 E1933.03185
G1 X68.522 Y76.189 E1933.07059
G1 X68.233 Y75.068 E1933.10909
G1 X68.044 Y73.789 E1933.1521
G1 X67.921 Y70.851 E1933.2499
G1 X68.135 Y67.788 E1933.35202
G1 X68.266 Y67.156 E1933.37349
G1 X68.206 Y67.005 E1933.3789
G1 X67.851 Y66.872 E1933.3915
G1 X67.653 Y66.898 E1933.39815
G1 X66.887 Y68.321 E1933.4519
G1 X65.791 Y70.827 E1933.54287
G1 X65.171 Y72.964 E1933.61688
G1 X64.909 Y75.249 E1933.69338
G1 X64.924 Y78.094 E1933.788
G1 X65.092 Y80.892 E1933.88123
G1 X65.281 Y82.492 E1933.93482
G1 X65.457 Y83.511 E1933.96921
G1 X64.605 Y83.934 E1934.00085
G1 X63.837 Y83.114 E1934.03822
G1 X63.175 Y82.141 E1934.07736
G1 X62.599 Y80.879 E1934.1235
G1 X62.335 Y80.054 E1934.15231
G1 X62.208 Y79.91 E1934.15869
G1 X61.839 Y79.938 E1934.171
G1 X61.738 Y79.998 E1934.17491
G1 X61.692 Y80.088 E1934.17827
G1 X61.519 Y81.044 E1934.21059
G1 X61.329 Y82.749 E1934.26764
G1 X61.17 Y84.286 E1934.31904
G1 X60.933 Y85.277 E1934.35293
G1 X60.424 Y86.023 E1934.38297
G1 X59.654 Y86.715 E1934.4174
G1 X58.644 Y87.769 E1934.46595
G1 X57.723 Y89.139 E1934.52086
G1 X57.756 Y89.334 E1934.52744
G1 X58.001 Y89.565 E1934.53864
G1 X58.101 Y89.6 E1934.54216
G1 X58.241 Y89.557 E1934.54703
G1 X59.335 Y88.691 E1934.59344
G1 X60.848 Y87.96 E1934.64933
G1 X62.762 Y87.23 E1934.71746
G1 X64.661 Y86.639 E1934.78361
G1 X66.031 Y86.383 E1934.82996
G1 X67.661 Y86.64 E1934.88485
G1 X67.441 Y86.948 E1934.89744
G1 X67.434 Y87.171 E1934.90486
G1 X67.561 Y87.363 E1934.91251
G1 X67.731 Y87.452 E1934.91889
G1 F1503.8 X69.613 Y87.066 E1934.98263
G1 F2700 E1929.98263
G0 F9000 X69.563 Y86.814
G0 X67.771 Y87.267
G0 X67.771 Y102.2
G0 X70.895 Y102.04
G1 F2700 E1934.98263
G1 F1500 X20.541 Y102.039 E1936.65741
G1 X20.54 Y47.96 E1938.45609
G1 X116.62 Y47.96 E1941.65172
G1 X116.62 Y102.04 E1943.45043
G1 X70.895 Y102.04 E1944.97125
G1 F2700 E1939.97125
G0 F9000 X70.895 Y102.3
G0 X70.491 Y102.2
G0 X71.022 Y96.502
G0 X70.491 Y96.272
G0 X70.422 Y96.52
G1 F2700 E1944.97125
G1 F1500 X70.948 Y96.665 E1944.9894
G1 X71.61 Y97.1 E1945.01574
G1 X72.348 Y97.512 E1945.04386
G1 X73.167 Y97.587 E1945.07121
G1 X74.406 Y97.295 E1945.11355
G1 X77.899 Y95.899 E1945.23866
G1 X79.007 Y95.617 E1945.27669
G1 X80.907 Y95.359 E1945.34046
G1 X84.049 Y94.712 E1945.44716
G1 X87.507 Y93.887 E1945.5654
G1 X90.418 Y93.085 E1945.66583
G1 X94.164 Y91.745 E1945.79815
G1 X97.538 Y90.235 E1945.9211
G1 X100.583 Y88.533 E1946.03712
G1 X103.239 Y86.685 E1946.14474
G1 X105.473 Y84.714 E1946.24383
G1 X107.303 Y82.62 E1946.33632
G1 X108.705 Y80.416 E1946.4232
G1 X109.659 Y78.108 E1946.50627
G1 X109.974 Y76.819 E1946.5504
G1 X110.127 Y75.54 E1946.59324
G1 X110.119 Y74.222 E1946.63708
G1 X109.955 Y72.926 E1946.68053
G1 X109.632 Y71.642 E1946.72457
G1 X109.164 Y70.386 E1946.76915
G1 X108.526 Y69.109 E1946.81663
G1 X107.728 Y67.842 E1946.86643
G1 X106.82 Y66.65 E1946.91627
G1 X105.729 Y65.441 E1946.97043
G1 X104.496 Y64.269 E1947.02701
G1 X103.124 Y63.137 E1947.08617
G1 X99.957 Y60.994 E1947.21335
G1 X94.438 Y58.114 E1947.42041
G1 X94.308 Y58.126 E1947.42475
G1 X94.081 Y58.295 E1947.43416
G1 X94.015 Y58.44 E1947.43946
G1 X94.1 Y58.836 E1947.45293
G1 X93.751 Y59.752 E1947.48553
G1 X93.325 Y59.883 E1947.50036
G1 X93.228 Y59.985 E1947.50504
G1 X93.212 Y60.083 E1947.50834
G1 X93.519 Y61.286 E1947.54964
